wangss533/urdfTest/left_arm_joints.csv
left_arm_joint1,left_arm_joint2,left_arm_joint3,left_arm_joint4,left_arm_joint5,left_arm_joint6,left_arm_joint7
0.160599,0.413659,-0.471466,-0.428529,0.651928,-0.117726,0.101984
0.122036,0.423645,-0.615953,-0.384823,0.781521,-0.149254,0.102459
0.097817,0.430058,-0.718052,-0.357468,0.874354,-0.170842,0.102251
0.081643,0.434725,-0.797335,-0.33956,0.947394,-0.187164,0.100998
0.069444,0.438299,-0.862381,-0.327032,1.007648,-0.200039,0.099523
0.06005,0.441184,-0.917466,-0.317551,1.059123,-0.210702,0.097963
0.05246,0.443465,-0.965067,-0.310154,1.104192,-0.220158,0.096429
0.04563,0.445601,-1.007343,-0.304322,1.144203,-0.227548,0.094911
0.04022,0.447169,-1.044902,-0.299439,1.18042,-0.235008,0.093344
0.035391,0.448845,-1.079258,-0.295482,1.213095,-0.241281,0.091917
0.031023,0.449961,-1.110606,-0.292071,1.242982,-0.247389,0.090906
0.027008,0.45119,-1.13946,-0.289057,1.270492,-0.252584,0.089611
0.023446,0.45218,-1.166136,-0.286463,1.295955,-0.257411,0.088351
0.02014,0.453237,-1.190954,-0.284181,1.319638,-0.261425,0.086762
0.017056,0.454118,-1.214159,-0.282345,1.341815,-0.264736,0.08518
0.014092,0.45509,-1.235883,-0.280626,1.362561,-0.267901,0.083731
0.011607,0.455916,-1.256154,-0.27896,1.382102,-0.271213,0.081941
0.008936,0.456631,-1.275334,-0.277627,1.40049,-0.274091,0.080923
0.006565,0.455945,-1.293177,-0.275153,1.417588,-0.277433,0.079667
0.004179,0.456671,-1.310174,-0.274119,1.433825,-0.279775,0.078636
0.002216,0.457051,-1.32629,-0.273237,1.449248,-0.282404,0.077392
8.3e-05,0.457578,-1.341686,-0.272474,1.463865,-0.284525,0.076309
-0.001736,0.457123,-1.356126,-0.270613,1.477591,-0.287014,0.074928
-0.003694,0.457662,-1.370019,-0.269974,1.49062,-0.288883,0.073943
-0.00557,0.458117,-1.383336,-0.269448,1.503002,-0.290678,0.072859
-0.007323,0.458631,-1.395923,-0.268871,1.514963,-0.292292,0.072007
-0.009131,0.45915,-1.408077,-0.268341,1.526233,-0.293969,0.071143
-0.010935,0.458822,-1.419498,-0.266871,1.536993,-0.295467,0.07032
-0.012688,0.459301,-1.430508,-0.266384,1.547238,-0.297003,0.069808
-0.014274,0.459666,-1.440978,-0.265984,1.557193,-0.298324,0.069326
-0.015953,0.460132,-1.451115,-0.265542,1.566573,-0.299805,0.068801
-0.017459,0.460565,-1.460746,-0.265153,1.575696,-0.301118,0.06819
-0.019054,0.460931,-1.470017,-0.264789,1.584404,-0.302547,0.067775
-0.020555,0.461275,-1.478839,-0.264476,1.592872,-0.303857,0.067255
-0.022275,0.461632,-1.48732,-0.264176,1.600942,-0.30541,0.066729
-0.023658,0.461984,-1.495514,-0.263873,1.608743,-0.306621,0.066212
-0.025283,0.461448,-1.503443,-0.262872,1.616,-0.308258,0.06594
-0.026654,0.461573,-1.511068,-0.2625,1.623048,-0.30935,0.065579
-0.028452,0.461466,-1.518564,-0.261948,1.629538,-0.310695,0.065476
-0.029645,0.461773,-1.525563,-0.26173,1.636106,-0.311682,0.06497
-0.03104,0.462103,-1.532359,-0.26151,1.64232,-0.312852,0.064433
-0.032262,0.462463,-1.538901,-0.261261,1.648357,-0.313812,0.063943
-0.03388,0.462864,-1.545184,-0.261147,1.654202,-0.314424,0.063542
-0.035055,0.463152,-1.551203,-0.260908,1.659904,-0.315403,0.063338
-0.03644,0.462733,-1.557117,-0.260429,1.665273,-0.316748,0.064302
-0.037431,0.46298,-1.562663,-0.260239,1.670624,-0.317547,0.064066
-0.038584,0.463146,-1.568062,-0.26011,1.675702,-0.318492,0.063822
-0.039407,0.463295,-1.57326,-0.260042,1.680694,-0.319111,0.063398
-0.040397,0.463442,-1.578273,-0.26003,1.685477,-0.319772,0.062643
-0.041132,0.46359,-1.583145,-0.259965,1.69014,-0.320309,0.062239
-0.041901,0.463747,-1.5879,-0.259897,1.694583,-0.320831,0.061768
-0.042567,0.463911,-1.592443,-0.259812,1.698945,-0.321312,0.061427
-0.043181,0.464051,-1.596858,-0.259749,1.703148,-0.321743,0.061088
-0.043784,0.464188,-1.60111,-0.259685,1.707226,-0.322158,0.060773
-0.044376,0.464278,-1.605175,-0.259644,1.711233,-0.322515,0.060534
-0.044964,0.464418,-1.609148,-0.259579,1.715048,-0.322929,0.060233
-0.045489,0.464444,-1.612976,-0.259533,1.718815,-0.32309,0.060239
-0.045999,0.464572,-1.616694,-0.259474,1.722393,-0.32342,0.059979
-0.046623,0.464554,-1.620294,-0.259437,1.725902,-0.323363,0.06005
-0.047092,0.464655,-1.623772,-0.259406,1.729254,-0.32366,0.05978
-0.047688,0.46478,-1.627095,-0.259333,1.73256,-0.32346,0.059367
-0.048061,0.464841,-1.630296,-0.259343,1.735788,-0.323629,0.059106
-0.048467,0.464885,-1.633364,-0.259374,1.738939,-0.323819,0.058803
-0.048906,0.464981,-1.636323,-0.259364,1.741994,-0.324039,0.058472
-0.049298,0.465282,-1.638879,-0.259276,1.74524,-0.324241,0.057635
-0.049745,0.465392,-1.641698,-0.259229,1.748069,-0.324535,0.05744
-0.050252,0.465455,-1.64428,-0.259232,1.750955,-0.324864,0.057233
-0.05071,0.465577,-1.646936,-0.259171,1.753596,-0.325176,0.057049
-0.051349,0.465721,-1.649321,-0.259097,1.7563,-0.325667,0.05685
-0.051819,0.465789,-1.651792,-0.259086,1.7588,-0.325988,0.056634
-0.052282,0.466147,-1.653673,-0.259079,1.761672,-0.32658,0.055571
-0.052669,0.466418,-1.655702,-0.259107,1.764303,-0.327163,0.054837
-0.052882,0.467273,-1.657542,-0.260062,1.767056,-0.328159,0.054303
-0.0535,0.467261,-1.659553,-0.26012,1.769547,-0.328577,0.05408
-0.053627,0.467538,-1.661017,-0.260287,1.772431,-0.330062,0.053621
-0.054181,0.467556,-1.663013,-0.26031,1.774714,-0.330441,0.053426
-0.054744,0.467794,-1.664556,-0.260441,1.777235,-0.331595,0.052828
-0.055272,0.467825,-1.666529,-0.260447,1.779308,-0.331961,0.052625
-0.056317,0.468136,-1.668053,-0.260589,1.781546,-0.332831,0.051704
-0.056977,0.468135,-1.669785,-0.260629,1.783617,-0.333327,0.051411
-0.057769,0.468315,-1.670578,-0.260666,1.786354,-0.334938,0.050095
-0.058197,0.468295,-1.671668,-0.260783,1.788841,-0.336349,0.049381
-0.058562,0.468337,-1.672565,-0.260844,1.791345,-0.338433,0.048332
-0.058966,0.468206,-1.673825,-0.260921,1.793445,-0.340262,0.047781
-0.059059,0.468125,-1.674602,-0.260859,1.795766,-0.343657,0.046478
-0.059207,0.467692,-1.676009,-0.260562,1.797589,-0.345047,0.046163
-0.060575,0.467614,-1.677368,-0.26059,1.799147,-0.346291,0.045612
-0.061163,0.467667,-1.678957,-0.26055,1.80058,-0.346779,0.045342
-0.062466,0.467919,-1.680426,-0.260401,1.801859,-0.347293,0.044509
-0.063585,0.468,-1.681869,-0.260419,1.803232,-0.347105,0.044272
-0.06557,0.468303,-1.682826,-0.260727,1.804914,-0.34673,0.043775
-0.066913,0.468525,-1.683856,-0.260963,1.806578,-0.346478,0.043399
-0.068432,0.468767,-1.68465,-0.261225,1.808333,-0.346673,0.042654
-0.069364,0.468914,-1.685501,-0.261339,1.809986,-0.347557,0.041705
-0.070498,0.469084,-1.685832,-0.261468,1.81188,-0.349747,0.039775
-0.071358,0.469021,-1.686834,-0.261548,1.813323,-0.350498,0.039236
-0.072427,0.469046,-1.687239,-0.26143,1.815017,-0.352863,0.037488
-0.073299,0.468959,-1.688246,-0.26149,1.816335,-0.353587,0.037146
-0.074979,0.468946,-1.688811,-0.261447,1.817721,-0.355494,0.035901
-0.075803,0.46885,-1.689751,-0.261516,1.818984,-0.356205,0.03551
-0.077577,0.469121,-1.689986,-0.26149,1.820568,-0.357536,0.033466
-0.078801,0.469319,-1.690552,-0.261508,1.821982,-0.358224,0.032144
-0.080494,0.469546,-1.691081,-0.261504,1.823296,-0.359029,0.030889
-0.082022,0.46975,-1.692032,-0.261451,1.824246,-0.359446,0.030461
-0.084561,0.469837,-1.693145,-0.261357,1.824821,-0.360129,0.030721
-0.085764,0.470512,-1.6941,-0.261869,1.825737,-0.360376,0.03055
-0.087959,0.471099,-1.694237,-0.262274,1.827202,-0.361131,0.029484
-0.08879,0.471151,-1.694699,-0.262356,1.828601,-0.361547,0.02881
-0.090652,0.471536,-1.69398,-0.262519,1.830891,-0.362373,0.026668
-0.091555,0.471887,-1.694309,-0.262813,1.832381,-0.362872,0.025888
-0.093227,0.473039,-1.693509,-0.264233,1.834808,-0.364584,0.02457
-0.094339,0.47311,-1.693322,-0.264341,1.8368,-0.365616,0.023629
-0.095057,0.473512,-1.692457,-0.265053,1.839376,-0.368257,0.022187
-0.095695,0.473547,-1.691782,-0.26522,1.841812,-0.370477,0.020615
-0.095731,0.47339,-1.689614,-0.265855,1.845578,-0.375639,0.018038
-0.096053,0.473387,-1.68937,-0.265959,1.847673,-0.377689,0.016603
-0.095808,0.472671,-1.687265,-0.266037,1.851197,-0.384268,0.013084
-0.095946,0.472516,-1.687045,-0.266134,1.853145,-0.387126,0.011188
-0.095612,0.471379,-1.685027,-0.265612,1.856383,-0.394536,0.006944
-0.096138,0.471397,-1.684914,-0.265643,1.858151,-0.396679,0.005324
-0.097381,0.471474,-1.683546,-0.265856,1.860758,-0.401251,0.002351
-0.098983,0.471694,-1.683307,-0.265857,1.862511,-0.402853,0.000772
-0.100918,0.472716,-1.682737,-0.266676,1.864493,-0.405237,-0.000779
-0.102906,0.473041,-1.682654,-0.266587,1.866142,-0.406272,-0.001651
-0.107418,0.475344,-1.682223,-0.268339,1.867907,-0.406689,-0.00194
-0.109316,0.476022,-1.682699,-0.268701,1.869224,-0.40701,-0.002149
-0.113585,0.477545,-1.682278,-0.269526,1.870917,-0.408716,-0.002891
-0.115196,0.477628,-1.682746,-0.269395,1.872205,-0.409933,-0.003189
-0.119606,0.479306,-1.682303,-0.270258,1.873774,-0.412415,-0.004353
-0.121248,0.479381,-1.682657,-0.270175,1.875152,-0.413675,-0.004845
-0.124415,0.481024,-1.681311,-0.271219,1.877717,-0.41721,-0.007164
-0.126236,0.481692,-1.680827,-0.271633,1.879849,-0.419556,-0.008715
-0.12916,0.482037,-1.679984,-0.271542,1.882099,-0.422165,-0.010641
-0.131345,0.483046,-1.679899,-0.272416,1.883816,-0.424532,-0.011656
-0.135602,0.483244,-1.679234,-0.272217,1.88565,-0.427682,-0.013098
-0.137485,0.483266,-1.679614,-0.272202,1.886998,-0.429097,-0.013748
-0.141321,0.483681,-1.678225,-0.272753,1.889396,-0.433838,-0.016269
-0.142801,0.483245,-1.678133,-0.272534,1.891161,-0.436159,-0.01748
-0.146126,0.481956,-1.676207,-0.27204,1.89394,-0.442494,-0.020648
-0.147626,0.481135,-1.676134,-0.271525,1.89549,-0.445191,-0.022067
-0.151165,0.478786,-1.6747,-0.270087,1.897353,-0.452468,-0.025744
-0.153407,0.476916,-1.674227,-0.268781,1.898622,-0.457091,-0.028166
-0.156493,0.474686,-1.673241,-0.267249,1.899908,-0.463151,-0.031331
-0.158973,0.473112,-1.672581,-0.266103,1.901033,-0.467518,-0.033714
-0.163233,0.470766,-1.670965,-0.26441,1.902312,-0.47469,-0.037632
-0.165265,0.470449,-1.670705,-0.264315,1.903079,-0.477407,-0.039193
-0.169965,0.467468,-1.669291,-0.261734,1.903887,-0.484293,-0.042644
-0.172128,0.46645,-1.669057,-0.260781,1.904326,-0.486823,-0.043941
-0.17745,0.464273,-1.667756,-0.258872,1.90468,-0.493491,-0.047038
-0.179516,0.462963,-1.667252,-0.257717,1.905085,-0.496474,-0.048451
-0.18432,0.459667,-1.665209,-0.255142,1.90578,-0.504954,-0.052116
-0.187135,0.457114,-1.663807,-0.253091,1.906321,-0.510425,-0.054509
-0.19077,0.45379,-1.661663,-0.250515,1.907024,-0.518126,-0.057851
-0.193443,0.451034,-1.659784,-0.248351,1.907621,-0.524132,-0.06057
-0.197934,0.446316,-1.656409,-0.244783,1.908687,-0.534668,-0.065234
-0.199486,0.444105,-1.654745,-0.242954,1.909,-0.538993,-0.067374
-0.203645,0.438918,-1.651378,-0.238765,1.909589,-0.550148,-0.072293
-0.205271,0.436271,-1.649729,-0.236445,1.909375,-0.554665,-0.074308
-0.209304,0.430555,-1.646205,-0.231641,1.909566,-0.566149,-0.0795
-0.210917,0.427975,-1.644046,-0.229457,1.909339,-0.570383,-0.081805
-0.215117,0.422951,-1.63936,-0.22561,1.910278,-0.580608,-0.088027
-0.217647,0.419691,-1.635807,-0.223138,1.910653,-0.586354,-0.092048
-0.220943,0.41547,-1.631151,-0.22012,1.911615,-0.593941,-0.097497
-0.222977,0.41233,-1.626869,-0.218116,1.912432,-0.599868,-0.101796
-0.226347,0.407127,-1.620085,-0.215035,1.914883,-0.609554,-0.109224
-0.227717,0.404631,-1.616685,-0.213385,1.914907,-0.613198,-0.112056
-0.231474,0.398891,-1.611197,-0.209289,1.915768,-0.622495,-0.118391
-0.233011,0.396119,-1.608322,-0.207091,1.914857,-0.625976,-0.120639
-0.23711,0.389867,-1.603899,-0.201963,1.914173,-0.634927,-0.126098
-0.238781,0.386989,-1.601104,-0.199438,1.912577,-0.638291,-0.128286
-0.243224,0.380396,-1.597269,-0.193307,1.91059,-0.647287,-0.134066
-0.246002,0.376038,-1.594208,-0.189035,1.908105,-0.652402,-0.137519
-0.250046,0.370855,-1.590882,-0.183971,1.905271,-0.658624,-0.141849
-0.253403,0.367194,-1.587755,-0.180429,1.902312,-0.662422,-0.144731
-0.25956,0.361923,-1.584419,-0.17529,1.898771,-0.667951,-0.149215
-0.261933,0.359559,-1.581279,-0.173037,1.895616,-0.669831,-0.150892
-0.26783,0.354595,-1.577324,-0.168402,1.892279,-0.674965,-0.15558
-0.270054,0.352382,-1.57374,-0.166409,1.88912,-0.676675,-0.157412
-0.275719,0.347564,-1.569229,-0.162106,1.885933,-0.681545,-0.162175
-0.277834,0.345113,-1.565359,-0.159942,1.882612,-0.683496,-0.163828
-0.283165,0.33926,-1.560637,-0.154657,1.879155,-0.689511,-0.167592
-0.286238,0.33519,-1.556141,-0.151004,1.875535,-0.693195,-0.169667
-0.290303,0.329881,-1.550854,-0.146407,1.872082,-0.698342,-0.173139
-0.293249,0.325625,-1.545275,-0.142928,1.868665,-0.702143,-0.17649
-0.298154,0.318634,-1.537914,-0.137421,1.86597,-0.708882,-0.183177
-0.300142,0.31535,-1.532166,-0.134856,1.862029,-0.711298,-0.185704
-0.30557,0.307989,-1.524728,-0.128945,1.858559,-0.717899,-0.191993
-0.307851,0.304514,-1.518742,-0.126148,1.853917,-0.720192,-0.194222
-0.313746,0.29672,-1.511074,-0.119767,1.849667,-0.726722,-0.200215
-0.316118,0.293011,-1.504571,-0.116722,1.844422,-0.729091,-0.202374
-0.322112,0.284615,-1.496315,-0.109709,1.839569,-0.736032,-0.208171
-0.325819,0.278962,-1.488629,-0.104923,1.833815,-0.740032,-0.211492
-0.330725,0.271799,-1.48016,-0.098715,1.827899,-0.745635,-0.216242
-0.334446,0.26621,-1.471764,-0.093731,1.821272,-0.74972,-0.219923
-0.340616,0.257408,-1.462026,-0.08554,1.814585,-0.757022,-0.226697
-0.343268,0.253221,-1.453172,-0.081754,1.80675,-0.759504,-0.229154
-0.349595,0.244008,-1.442445,-0.073267,1.799174,-0.766648,-0.236192
-0.352377,0.239547,-1.432522,-0.069304,1.790299,-0.769027,-0.238702
-0.373728,0.182117,-1.415672,0.002075,1.784918,-0.766133,-0.261848
-0.375885,0.182826,-1.402253,-0.000844,1.771247,-0.769367,-0.262416
-0.379676,0.186152,-1.387693,-0.009169,1.757451,-0.778419,-0.265744
-0.382553,0.18743,-1.373417,-0.013563,1.743207,-0.783172,-0.267423
-0.386271,0.189604,-1.359035,-0.019615,1.7287,-0.789128,-0.269426
-0.389727,0.190708,-1.344936,-0.023501,1.713777,-0.792578,-0.270081
-0.395205,0.193295,-1.33113,-0.030213,1.698571,-0.798026,-0.271135
-0.398183,0.193429,-1.3172,-0.032149,1.683471,-0.799341,-0.270863
-0.404022,0.195793,-1.303404,-0.038447,1.668254,-0.804164,-0.271711
-0.407515,0.194792,-1.289353,-0.03896,1.653214,-0.805151,-0.271632
-0.413336,0.197954,-1.275708,-0.046062,1.637997,-0.809458,-0.272118
-0.416817,0.196889,-1.261914,-0.046609,1.623107,-0.810409,-0.271923
-0.422477,0.200493,-1.248422,-0.053693,1.608357,-0.814521,-0.273447
-0.426566,0.201375,-1.235179,-0.056669,1.59406,-0.816409,-0.274159
-0.43204,0.202177,-1.222317,-0.059817,1.579929,-0.81921,-0.275489
-0.435852,0.203789,-1.209932,-0.063736,1.566115,-0.821118,-0.275822
-0.442265,0.205801,-1.198481,-0.068759,1.552662,-0.82498,-0.277228
-0.44551,0.205172,-1.186905,-0.069445,1.539829,-0.825836,-0.277274
-0.452734,0.207384,-1.17655,-0.074025,1.52719,-0.827837,-0.278138
-0.456325,0.207249,-1.165996,-0.074893,1.515325,-0.827687,-0.278005
-0.464371,0.208355,-1.156686,-0.077751,1.503428,-0.828606,-0.278349
-0.468144,0.207954,-1.146989,-0.07812,1.492246,-0.828267,-0.277943
-0.476749,0.208,-1.138656,-0.079205,1.480556,-0.829025,-0.277228
-0.482435,0.207294,-1.129924,-0.079039,1.469423,-0.82888,-0.276328
-0.489682,0.206829,-1.121717,-0.079342,1.458277,-0.828741,-0.275283
-0.495275,0.206333,-1.113303,-0.079668,1.447666,-0.827998,-0.274363
-0.504106,0.206172,-1.105946,-0.080829,1.437088,-0.826974,-0.273107
-0.507944,0.205591,-1.097721,-0.080976,1.427358,-0.826008,-0.272387
-0.515983,0.20567,-1.090787,-0.082533,1.417554,-0.825547,-0.271764
-0.51939,0.205256,-1.083147,-0.082909,1.408618,-0.824925,-0.271398
-0.526748,0.205556,-1.07683,-0.08481,1.399713,-0.824975,-0.271326
-0.529665,0.205407,-1.070043,-0.085557,1.391698,-0.82488,-0.271145
-0.537677,0.205304,-1.064773,-0.086595,1.38335,-0.824989,-0.271212
-0.542512,0.204974,-1.059127,-0.087073,1.375765,-0.825057,-0.271251
-0.548565,0.204893,-1.054021,-0.088202,1.368562,-0.825635,-0.271442
-0.553095,0.204658,-1.048752,-0.089124,1.362185,-0.82609,-0.271609
-0.560127,0.204699,-1.044158,-0.091207,1.356499,-0.827629,-0.272174
-0.562859,0.204591,-1.039639,-0.092181,1.351425,-0.828127,-0.272203
-0.570001,0.204538,-1.036571,-0.094016,1.34637,-0.82985,-0.272207
-0.57266,0.204444,-1.033361,-0.094954,1.342127,-0.830583,-0.271938
-0.579369,0.204712,-1.031889,-0.097349,1.337959,-0.832724,-0.271424
-0.582014,0.204872,-1.029816,-0.098255,1.335032,-0.833461,-0.271645
-0.588475,0.205636,-1.029225,-0.100648,1.332275,-0.835649,-0.272811
-0.592124,0.206035,-1.028654,-0.102081,1.330513,-0.837219,-0.273765
-0.597042,0.20663,-1.028659,-0.104148,1.329516,-0.839384,-0.275248
-0.601112,0.207073,-1.02889,-0.105749,1.329432,-0.840655,-0.276307
-0.606961,0.208431,-1.029871,-0.109693,1.330823,-0.84342,-0.278289
-0.609178,0.208548,-1.031385,-0.110887,1.332477,-0.845218,-0.279002
-0.615691,0.209918,-1.033886,-0.114275,1.334986,-0.848741,-0.280924
-0.618049,0.210305,-1.036771,-0.115351,1.337755,-0.851048,-0.28163
-0.625061,0.210979,-1.040383,-0.117825,1.340955,-0.855684,-0.283315
-0.627448,0.211397,-1.04411,-0.118909,1.344647,-0.858125,-0.284053
-0.634297,0.212204,-1.048508,-0.121932,1.349085,-0.862509,-0.285606
-0.638189,0.212705,-1.053341,-0.12372,1.353981,-0.865713,-0.286539
-0.643603,0.213957,-1.059091,-0.126663,1.359346,-0.869637,-0.28755
-0.64797,0.214299,-1.065036,-0.12777,1.364788,-0.87325,-0.288629
-0.655416,0.214647,-1.071588,-0.129408,1.369914,-0.879206,-0.290214
-0.658107,0.215273,-1.077737,-0.1304,1.375819,-0.882061,-0.291171
-0.665662,0.215919,-1.084037,-0.132412,1.381904,-0.887174,-0.29362
-0.668428,0.216582,-1.090208,-0.133535,1.388499,-0.889616,-0.295047
-0.675493,0.218255,-1.096627,-0.136799,1.395763,-0.894272,-0.298053
-0.678452,0.218787,-1.103243,-0.137615,1.402964,-0.896723,-0.299473
-0.685242,0.219819,-1.109827,-0.140288,1.410531,-0.902285,-0.301731
-0.689489,0.220685,-1.116668,-0.141799,1.418201,-0.905864,-0.303263
-0.695504,0.221263,-1.123365,-0.143165,1.425832,-0.910066,-0.305102
-0.699957,0.221722,-1.13009,-0.144114,1.433286,-0.913411,-0.306478
-0.707274,0.222356,-1.136653,-0.14584,1.440757,-0.918286,-0.308212
-0.710366,0.222603,-1.143219,-0.146139,1.447947,-0.920573,-0.309294
-0.717467,0.223459,-1.149363,-0.147867,1.455283,-0.924764,-0.31135
-0.72042,0.223893,-1.1556,-0.148287,1.462318,-0.926728,-0.312622
-0.727317,0.224901,-1.161415,-0.149955,1.469502,-0.930291,-0.314882
-0.729853,0.225537,-1.167568,-0.150664,1.476275,-0.932369,-0.315932
-0.737168,0.225493,-1.173182,-0.150775,1.482642,-0.935204,-0.317896
-0.741418,0.225493,-1.178676,-0.150724,1.488575,-0.937178,-0.319092
-0.746633,0.226326,-1.184082,-0.151943,1.494468,-0.939452,-0.320057
-0.751246,0.225347,-1.188969,-0.151118,1.49993,-0.941185,-0.320644
-0.757888,0.225788,-1.193864,-0.152777,1.505505,-0.943482,-0.320354
-0.76111,0.224882,-1.19835,-0.151768,1.510505,-0.944663,-0.32089
-0.767454,0.225608,-1.202739,-0.153327,1.515525,-0.946913,-0.321765
-0.770489,0.22471,-1.206783,-0.152342,1.520041,-0.948152,-0.322754
-0.776477,0.225592,-1.210776,-0.153845,1.524517,-0.950395,-0.324476
-0.778999,0.22592,-1.215076,-0.154295,1.528737,-0.951478,-0.325065
-0.785402,0.225515,-1.219472,-0.154009,1.532152,-0.953119,-0.326238
-0.788865,0.226123,-1.223811,-0.15472,1.535665,-0.954256,-0.326923
-0.793626,0.226597,-1.228398,-0.155341,1.538842,-0.955486,-0.327563
-0.797038,0.227213,-1.232743,-0.156008,1.542187,-0.956668,-0.328321
-0.802858,0.227773,-1.23764,-0.156709,1.544915,-0.958169,-0.329175
-0.804895,0.228159,-1.241634,-0.157176,1.548408,-0.959389,-0.329924
-0.81043,0.229041,-1.246175,-0.158965,1.551654,-0.961078,-0.330968
-0.812563,0.229468,-1.25016,-0.159793,1.555526,-0.962182,-0.33171
-0.817441,0.230537,-1.254521,-0.162512,1.559499,-0.964625,-0.333122
-0.819462,0.230988,-1.258729,-0.163475,1.563769,-0.966025,-0.334002
-0.824231,0.231158,-1.262825,-0.165387,1.568023,-0.969363,-0.33604
-0.826754,0.232628,-1.26741,-0.168115,1.572637,-0.971765,-0.337109
-0.830322,0.233472,-1.272076,-0.170406,1.577373,-0.974864,-0.338829
-0.833101,0.234139,-1.276841,-0.171914,1.582124,-0.97733,-0.340312
-0.837552,0.235188,-1.281831,-0.174439,1.586738,-0.981175,-0.34259
-0.839447,0.235317,-1.286658,-0.175095,1.591527,-0.983093,-0.343665
-0.843595,0.236735,-1.291814,-0.178204,1.596246,-0.986214,-0.345874
-0.845297,0.236727,-1.296724,-0.178917,1.601173,-0.987899,-0.346956
-0.849251,0.238285,-1.302205,-0.182357,1.60595,-0.990502,-0.348857
-0.850938,0.238402,-1.307294,-0.182902,1.610868,-0.992214,-0.349882
-0.85555,0.238663,-1.313414,-0.183971,1.614344,-0.995007,-0.350484
-0.858132,0.238881,-1.318734,-0.18436,1.618169,-0.997228,-0.351131
-0.862167,0.238253,-1.32398,-0.184136,1.621339,-0.999411,-0.351329
-0.864809,0.238318,-1.328338,-0.184679,1.624937,-1.001393,-0.351908
-0.869561,0.23761,-1.332495,-0.184807,1.628014,-1.003962,-0.352546
-0.871202,0.237761,-1.335962,-0.185194,1.631512,-1.005542,-0.35325
-0.875953,0.237646,-1.339542,-0.186212,1.634579,-1.007534,-0.353663
-0.877859,0.237649,-1.342668,-0.186597,1.637915,-1.008588,-0.354154
-0.882347,0.237568,-1.34548,-0.187644,1.641135,-1.010541,-0.354952
-0.884215,0.237585,-1.348361,-0.187935,1.644169,-1.01156,-0.355366
-0.888581,0.237393,-1.350986,-0.188567,1.64694,-1.013437,-0.356036
-0.891352,0.236335,-1.353147,-0.187609,1.649513,-1.014653,-0.356918
-0.894441,0.236505,-1.355271,-0.188256,1.651833,-1.016267,-0.357725
-0.897204,0.236809,-1.357374,-0.188712,1.654097,-1.016997,-0.358414
-0.901474,0.237289,-1.359407,-0.189519,1.656185,-1.018082,-0.359618
-0.903332,0.23777,-1.361616,-0.190126,1.658281,-1.018537,-0.359931
-0.907132,0.238569,-1.363709,-0.191205,1.660254,-1.019597,-0.361148
-0.908333,0.238711,-1.365753,-0.191457,1.662258,-1.020534,-0.361744
-0.91198,0.239388,-1.367594,-0.19213,1.664134,-1.021284,-0.363426
-0.913409,0.239946,-1.369698,-0.192746,1.665971,-1.021773,-0.363707
-0.916642,0.240093,-1.37169,-0.192912,1.667433,-1.023056,-0.364531
-0.918558,0.240026,-1.373499,-0.192789,1.668898,-1.02394,-0.36496
-0.920707,0.240183,-1.375264,-0.192968,1.670136,-1.025204,-0.365219
-0.922473,0.240018,-1.377039,-0.193081,1.671299,-1.025988,-0.364913
-0.925333,0.238358,-1.378499,-0.191669,1.67201,-1.027164,-0.36449
-0.926145,0.238448,-1.379518,-0.191764,1.672991,-1.027906,-0.364692
-0.928932,0.237323,-1.380803,-0.190723,1.673169,-1.028954,-0.364518
-0.929737,0.237433,-1.381609,-0.190802,1.673729,-1.029656,-0.364823
-0.932377,0.236774,-1.382376,-0.18978,1.673737,-1.030633,-0.365648
-0.933141,0.236879,-1.382873,-0.18986,1.674087,-1.031293,-0.365902
-0.935682,0.237123,-1.383175,-0.190222,1.674522,-1.031796,-0.366638
-0.937145,0.237185,-1.383481,-0.190472,1.675067,-1.032169,-0.366989
-0.93904,0.237224,-1.383603,-0.190887,1.675739,-1.03281,-0.367514
-0.94059,0.237218,-1.383699,-0.191255,1.676481,-1.033332,-0.368026
-0.942973,0.236947,-1.383365,-0.192073,1.677577,-1.034609,-0.368748
-0.944046,0.236902,-1.383435,-0.192322,1.678442,-1.034954,-0.369306
-0.946646,0.236731,-1.383211,-0.192944,1.679435,-1.036064,-0.370121
-0.948042,0.235487,-1.383196,-0.191794,1.679977,-1.036419,-0.370672
-0.950538,0.235319,-1.382994,-0.192519,1.680568,-1.037826,-0.371215
-0.951729,0.23536,-1.383062,-0.192768,1.681114,-1.03809,-0.371617
-0.954283,0.235341,-1.382616,-0.193501,1.682035,-1.039147,-0.372482
-0.955817,0.235417,-1.382465,-0.19392,1.682832,-1.039724,-0.37318
-0.957809,0.235475,-1.382164,-0.19452,1.683735,-1.040711,-0.374111
-0.959375,0.235321,-1.381916,-0.194549,1.684513,-1.041531,-0.375169
-0.961957,0.235114,-1.381242,-0.194797,1.685407,-1.043075,-0.376881
-0.963001,0.235032,-1.381153,-0.194952,1.685996,-1.04372,-0.377551
-0.965449,0.235067,-1.380462,-0.196078,1.68711,-1.045255,-0.378701
-0.966436,0.234854,-1.380527,-0.196524,1.687829,-1.045986,-0.378848
-0.969057,0.234653,-1.379721,-0.1977,1.689154,-1.047198,-0.379875
-0.969534,0.23486,-1.374311,-0.198623,1.684098,-1.047198,-0.379863
-0.970601,0.234607,-1.357732,-0.200197,1.667715,-1.047198,-0.380007
-0.97147,0.234257,-1.348636,-0.200737,1.658694,-1.047198,-0.380457
-0.972274,0.233583,-1.335843,-0.201196,1.645965,-1.047198,-0.380828
-0.973218,0.233232,-1.329906,-0.201445,1.640198,-1.047198,-0.381044
-0.974381,0.232278,-1.318828,-0.201673,1.629217,-1.047198,-0.381096
-0.97531,0.232345,-1.317804,-0.201805,1.628548,-1.047198,-0.381606
-0.97655,0.232186,-1.308756,-0.202913,1.619563,-1.047198,-0.381763
-0.977328,0.232216,-1.306991,-0.203279,1.617885,-1.047198,-0.381959
-0.978717,0.232003,-1.299232,-0.204249,1.610321,-1.047198,-0.382373
-0.979723,0.231252,-1.297164,-0.203782,1.608157,-1.047198,-0.382429
-0.981265,0.230709,-1.288014,-0.204544,1.598541,-1.047198,-0.38209
-0.982281,0.230556,-1.283515,-0.204991,1.593802,-1.047198,-0.381932
-0.983749,0.229467,-1.276178,-0.204681,1.5861,-1.047198,-0.381789
-0.985191,0.228775,-1.272309,-0.204185,1.582313,-1.047198,-0.382285
-0.987336,0.228376,-1.266046,-0.204239,1.575386,-1.047198,-0.382324
-0.988208,0.22777,-1.263207,-0.203682,1.572516,-1.047198,-0.382502
-0.990843,0.227365,-1.261316,-0.203378,1.570803,-1.047198,-0.382705
-0.991776,0.226975,-1.260572,-0.203133,1.570252,-1.047198,-0.382779
-0.994748,0.225824,-1.260811,-0.202005,1.57077,-1.047198,-0.382464
-0.996064,0.225357,-1.261528,-0.201352,1.571668,-1.047198,-0.382392
-0.999405,0.224197,-1.264619,-0.199354,1.574486,-1.047198,-0.381606
-1.00171,0.223583,-1.268447,-0.197929,1.578202,-1.047198,-0.381177
-1.004148,0.222325,-1.26953,-0.195934,1.579081,-1.047198,-0.380401
-1.006379,0.22203,-1.27379,-0.194953,1.583433,-1.047198,-0.379915
-1.009842,0.22144,-1.279579,-0.193298,1.589497,-1.047198,-0.379047
-1.01055,0.221284,-1.278513,-0.193103,1.58851,-1.047198,-0.378548
-1.012814,0.220733,-1.277738,-0.192509,1.58812,-1.047198,-0.378077
-1.01356,0.2203,-1.276144,-0.192212,1.586719,-1.047198,-0.378068
-1.015515,0.218571,-1.270316,-0.190887,1.581727,-1.047198,-0.378572
-1.016149,0.219039,-1.268964,-0.191677,1.580449,-1.047198,-0.378333
-1.01755,0.218262,-1.261426,-0.191736,1.572901,-1.047198,-0.378321
-1.018248,0.216576,-1.252728,-0.190538,1.564563,-1.047198,-0.37886
-1.019419,0.215337,-1.244159,-0.190035,1.556358,-1.047198,-0.379159
-1.020391,0.214464,-1.237974,-0.189825,1.550605,-1.047198,-0.379299
-1.022029,0.213133,-1.227528,-0.189762,1.540955,-1.047198,-0.379239
-1.022768,0.212443,-1.223522,-0.189577,1.53728,-1.047198,-0.379209
-1.024558,0.211203,-1.214773,-0.189587,1.529402,-1.047198,-0.378794
-1.025505,0.210955,-1.212978,-0.189553,1.528444,-1.047198,-0.378985
-1.027129,0.210192,-1.204596,-0.190133,1.520861,-1.047198,-0.378032
-1.027955,0.209839,-1.20194,-0.190142,1.518534,-1.047198,-0.377887
-1.029449,0.209157,-1.192289,-0.190612,1.509277,-1.047198,-0.377362
-1.030491,0.208538,-1.186307,-0.190613,1.50336,-1.047198,-0.37713
-1.031689,0.207845,-1.177693,-0.190482,1.495329,-1.047198,-0.3776
-1.032584,0.207573,-1.171488,-0.190798,1.489112,-1.047198,-0.377834
-1.034079,0.207229,-1.161887,-0.191053,1.479781,-1.047198,-0.378887
-1.034834,0.206583,-1.157101,-0.190567,1.475171,-1.047198,-0.379458
-1.036312,0.205872,-1.14622,-0.190679,1.464199,-1.047198,-0.379559
-1.036005,0.206495,-1.140743,-0.19206,1.458458,-1.047198,-0.378996
-1.037903,0.204919,-1.13004,-0.191164,1.447498,-1.047198,-0.378485
-1.03882,0.203805,-1.124777,-0.190327,1.44208,-1.047198,-0.378269
-1.040572,0.200607,-1.107283,-0.188157,1.423761,-1.047198,-0.376881
-1.04212,0.199107,-1.100375,-0.186966,1.416387,-1.047198,-0.376094
-1.044025,0.196751,-1.090009,-0.185235,1.405602,-1.047198,-0.375252
-1.044773,0.195804,-1.08248,-0.185192,1.39788,-1.047198,-0.374568
-1.046053,0.195243,-1.075209,-0.186105,1.39071,-1.047198,-0.373835
-1.046518,0.194843,-1.071571,-0.186248,1.387277,-1.047198,-0.373709
-1.047444,0.194276,-1.063094,-0.186905,1.379386,-1.047198,-0.373977
-1.048225,0.193349,-1.059512,-0.186492,1.375706,-1.047198,-0.373877
-1.049078,0.192656,-1.051602,-0.187079,1.367924,-1.047198,-0.37404
-1.049817,0.192508,-1.050429,-0.187051,1.366933,-1.047198,-0.37433
-1.050508,0.192143,-1.044544,-0.18763,1.360861,-1.047198,-0.374435
-1.051162,0.19177,-1.04147,-0.187473,1.357905,-1.047198,-0.374927
-1.051876,0.191594,-1.039114,-0.187569,1.355593,-1.047198,-0.375319
-1.052161,0.19173,-1.038276,-0.18793,1.354776,-1.047198,-0.375453
-1.052603,0.192058,-1.03901,-0.188486,1.355448,-1.047198,-0.37544
-1.052618,0.192265,-1.039004,-0.188869,1.35541,-1.047198,-0.375443
-1.052009,0.192728,-1.035437,-0.190311,1.351814,-1.047198,-0.375633
-1.052332,0.1925,-1.034273,-0.190159,1.350837,-1.047198,-0.376079
-1.051709,0.192441,-1.028594,-0.191018,1.345836,-1.047198,-0.377281
-1.051752,0.192334,-1.027837,-0.191241,1.345294,-1.047198,-0.377519
-1.05072,0.192947,-1.026814,-0.193392,1.345411,-1.047198,-0.378066
-1.049674,0.193928,-1.027056,-0.19531,1.346901,-1.047198,-0.378714
-1.048429,0.195047,-1.0277,-0.197493,1.348543,-1.047198,-0.379159
-1.047923,0.195415,-1.028146,-0.198095,1.349531,-1.047198,-0.379677
-1.047086,0.195983,-1.028684,-0.198486,1.351035,-1.047198,-0.380947
-1.046706,0.196349,-1.02964,-0.198785,1.352123,-1.047198,-0.38111
-1.045775,0.19829,-1.034986,-0.200189,1.358057,-1.047198,-0.381592
-1.046442,0.198251,-1.039189,-0.199111,1.362715,-1.047198,-0.382163
-1.04668,0.199284,-1.047229,-0.198612,1.371339,-1.047198,-0.382503
-1.046626,0.199687,-1.04922,-0.19863,1.373563,-1.047198,-0.382557
-1.047059,0.200163,-1.05258,-0.198222,1.377633,-1.047198,-0.382508
-1.047035,0.199919,-1.051255,-0.197861,1.376565,-1.047198,-0.38221
-1.047225,0.200188,-1.051982,-0.197848,1.377797,-1.047198,-0.382029
-1.046933,0.199914,-1.049868,-0.197822,1.375601,-1.047198,-0.381525
-1.04677,0.200004,-1.048859,-0.198196,1.374858,-1.047198,-0.381134
-1.046903,0.199971,-1.048796,-0.198184,1.374909,-1.047198,-0.381113
-1.046897,0.19994,-1.047484,-0.198261,1.373747,-1.047198,-0.381262
-1.046859,0.199959,-1.046907,-0.1983,1.373176,-1.047198,-0.381399
-1.04702,0.199838,-1.045396,-0.198182,1.371605,-1.047198,-0.381855
-1.047065,0.199834,-1.044896,-0.198092,1.371102,-1.047198,-0.382113
-1.047017,0.200048,-1.043624,-0.198085,1.36951,-1.047198,-0.38262
-1.047242,0.200203,-1.043921,-0.197863,1.369593,-1.047198,-0.382987
-1.047208,0.200447,-1.043616,-0.19783,1.369119,-1.047198,-0.383362
-1.046929,0.200838,-1.043773,-0.198126,1.369245,-1.047198,-0.383557
-1.046844,0.201369,-1.04523,-0.198393,1.370847,-1.047198,-0.383808
-1.046673,0.201624,-1.045545,-0.198591,1.371326,-1.047198,-0.383914
-1.046211,0.202065,-1.045728,-0.19914,1.371782,-1.047198,-0.38379
-1.046325,0.202141,-1.045985,-0.199124,1.372457,-1.047198,-0.384003
-1.045799,0.202052,-1.044043,-0.19921,1.37125,-1.047198,-0.384042
-1.046026,0.202108,-1.045204,-0.199001,1.372722,-1.047198,-0.384235
-1.045653,0.202333,-1.046139,-0.198974,1.373704,-1.047198,-0.38391
-1.045492,0.202611,-1.047624,-0.198999,1.375039,-1.047198,-0.383634
-1.045386,0.202905,-1.049589,-0.198899,1.376921,-1.047198,-0.383473
-1.045349,0.203093,-1.050897,-0.198787,1.378232,-1.047198,-0.383574
-1.045363,0.203389,-1.053149,-0.198535,1.380606,-1.047198,-0.384005
-1.045365,0.203459,-1.053721,-0.198398,1.381313,-1.047198,-0.384194
-1.045256,0.203475,-1.053542,-0.198092,1.381612,-1.047198,-0.38424
-1.045166,0.203406,-1.052945,-0.198008,1.381134,-1.047198,-0.384002
-1.045335,0.203433,-1.052882,-0.197703,1.381801,-1.047198,-0.383789
-1.045402,0.203327,-1.052664,-0.197506,1.381688,-1.047198,-0.383706
-1.045454,0.203419,-1.053374,-0.197329,1.382586,-1.047198,-0.383667
-1.045254,0.203478,-1.053017,-0.197388,1.382116,-1.047198,-0.38354
-1.045309,0.203589,-1.053537,-0.197293,1.382634,-1.047198,-0.3836
-1.045278,0.203528,-1.052655,-0.197145,1.381689,-1.047198,-0.383643
-1.045063,0.203389,-1.049822,-0.196839,1.378946,-1.047198,-0.384009
-1.044814,0.203093,-1.047652,-0.196762,1.376573,-1.047198,-0.383825
-1.044479,0.203076,-1.046713,-0.196815,1.375874,-1.047198,-0.38373
-1.044374,0.203151,-1.047036,-0.196871,1.376543,-1.047198,-0.383794
-1.043972,0.203325,-1.047674,-0.197138,1.37766,-1.047198,-0.383558
-1.044097,0.203404,-1.048752,-0.196983,1.378859,-1.047198,-0.38365
-1.043485,0.203124,-1.046334,-0.19652,1.37575,-1.047198,-0.383227
-1.043259,0.202973,-1.045527,-0.19607,1.374239,-1.047198,-0.382926
-1.042604,0.203038,-1.044434,-0.195819,1.372444,-1.047198,-0.382982
-1.042333,0.203315,-1.046089,-0.195578,1.373801,-1.047198,-0.383525
-1.04177,0.204208,-1.051007,-0.195421,1.378492,-1.047198,-0.385124
-1.041584,0.204539,-1.053029,-0.195343,1.380358,-1.047198,-0.385453
-1.040864,0.204864,-1.054505,-0.195128,1.381582,-1.047198,-0.385719
-1.040928,0.205122,-1.056609,-0.195054,1.383692,-1.047198,-0.385625
-1.040608,0.205282,-1.058245,-0.194803,1.385032,-1.047198,-0.384758
-1.040484,0.205003,-1.057688,-0.194381,1.384475,-1.047198,-0.384701
-1.040389,0.205322,-1.060527,-0.194203,1.387694,-1.047198,-0.384966
-1.040274,0.205534,-1.062015,-0.194213,1.389433,-1.047198,-0.385182
-1.040173,0.205388,-1.06251,-0.193764,1.390213,-1.047198,-0.385287
-1.040221,0.205069,-1.062238,-0.193213,1.389785,-1.047198,-0.384864
-1.040373,0.204659,-1.061754,-0.19244,1.388625,-1.047198,-0.383572
-1.040511,0.204697,-1.062365,-0.192266,1.389172,-1.047198,-0.383324
-1.040414,0.204885,-1.063437,-0.192355,1.390555,-1.047198,-0.38334
-1.040194,0.204718,-1.062722,-0.192384,1.389957,-1.047198,-0.383409
-1.040019,0.205348,-1.064986,-0.192953,1.393331,-1.047198,-0.384511
-1.039653,0.205663,-1.065143,-0.193633,1.393169,-1.047198,-0.384278
-1.039277,0.205589,-1.060662,-0.193615,1.388372,-1.047198,-0.384376
-1.039145,0.205579,-1.058205,-0.193536,1.385513,-1.047198,-0.384461
-1.038997,0.205073,-1.054355,-0.193023,1.381209,-1.047198,-0.384528
-1.038953,0.204998,-1.054109,-0.192945,1.380703,-1.047198,-0.384544
-1.038995,0.204934,-1.054654,-0.192587,1.381335,-1.047198,-0.384911
-1.039176,0.20495,-1.055324,-0.19244,1.382004,-1.047198,-0.385064
-1.039155,0.204729,-1.053689,-0.19207,1.380006,-1.047198,-0.384683
-1.039176,0.204334,-1.051741,-0.191661,1.377732,-1.047198,-0.384318
-1.038572,0.203743,-1.045254,-0.19136,1.370207,-1.047198,-0.38302
-1.039145,0.202343,-1.042803,-0.189612,1.367595,-1.047198,-0.383004
-1.039596,0.201923,-1.042786,-0.188368,1.367072,-1.047198,-0.382829
-1.039812,0.201927,-1.043624,-0.187809,1.367667,-1.047198,-0.382848
-1.039807,0.201871,-1.043833,-0.187252,1.367704,-1.047198,-0.382814
-1.039581,0.201427,-1.042287,-0.18671,1.366205,-1.047198,-0.38283
-1.039307,0.201713,-1.043817,-0.186701,1.368371,-1.047198,-0.383201
-1.039289,0.201852,-1.04502,-0.186701,1.369796,-1.047198,-0.383338
-1.038281,0.20216,-1.043525,-0.187293,1.36877,-1.047198,-0.383357
-1.038213,0.202057,-1.043132,-0.18713,1.368762,-1.047198,-0.383624
-1.037163,0.202242,-1.040897,-0.187552,1.367396,-1.047198,-0.384101
-1.03716,0.202248,-1.041927,-0.187422,1.3686,-1.047198,-0.384187
-1.036596,0.203057,-1.047117,-0.187806,1.37432,-1.047198,-0.384614
-1.036233,0.20378,-1.05146,-0.188204,1.378821,-1.047198,-0.384762
-1.035959,0.204348,-1.055657,-0.18825,1.383126,-1.047198,-0.384886
-1.035843,0.204452,-1.056462,-0.187944,1.383743,-1.047198,-0.384739
-1.035618,0.204128,-1.054465,-0.187012,1.381034,-1.047198,-0.384112
-1.03566,0.20422,-1.054928,-0.186785,1.381397,-1.047198,-0.384062
-1.035178,0.203735,-1.053564,-0.186208,1.38003,-1.047198,-0.383841
-1.034898,0.203606,-1.05336,-0.186191,1.379996,-1.047198,-0.383847
-1.034211,0.203678,-1.054926,-0.186525,1.381911,-1.047198,-0.383833
-1.03389,0.203624,-1.05452,-0.186547,1.381678,-1.047198,-0.384025
-1.032791,0.203406,-1.052173,-0.186368,1.379585,-1.047198,-0.384989
-1.03188,0.203242,-1.0498,-0.186388,1.376969,-1.047198,-0.385318
-1.030439,0.203124,-1.04672,-0.186431,1.373724,-1.047198,-0.385665
-1.029863,0.203049,-1.046685,-0.186029,1.373865,-1.047198,-0.38602
-1.027675,0.20231,-1.040937,-0.185385,1.367953,-1.047198,-0.385707
-1.026889,0.202191,-1.039944,-0.185013,1.367171,-1.047198,-0.385785
-1.025042,0.202274,-1.042701,-0.183976,1.370388,-1.047198,-0.385762
-1.023984,0.202454,-1.044113,-0.183691,1.372129,-1.047198,-0.38577
-1.021881,0.203172,-1.052624,-0.182483,1.3814,-1.047198,-0.385672
-1.020357,0.203721,-1.05498,-0.18249,1.384348,-1.047198,-0.385777
-1.017848,0.204225,-1.065769,-0.180864,1.395731,-1.047198,-0.384914
-1.015439,0.204893,-1.071083,-0.180654,1.401383,-1.047198,-0.384077
-1.013501,0.204701,-1.08066,-0.178042,1.411915,-1.047198,-0.384082
-1.010819,0.205894,-1.086092,-0.177928,1.41764,-1.047198,-0.383655
-1.007785,0.205579,-1.095275,-0.174344,1.427817,-1.047198,-0.383942
-1.006173,0.206092,-1.099961,-0.173705,1.432705,-1.047198,-0.383812
-1.001691,0.20752,-1.111292,-0.172556,1.445256,-1.047198,-0.384049
-0.999288,0.208507,-1.114955,-0.172733,1.449552,-1.047198,-0.38418
-0.994623,0.209185,-1.126665,-0.171017,1.462666,-1.047198,-0.384633
-0.991883,0.210725,-1.130365,-0.171901,1.466615,-1.047198,-0.384353
-0.987487,0.211263,-1.141444,-0.16952,1.477415,-1.047198,-0.38392
-0.984876,0.211876,-1.151012,-0.168015,1.487044,-1.047198,-0.384034
-0.981049,0.212541,-1.159358,-0.166428,1.495615,-1.047142,-0.383966
-0.978329,0.212977,-1.166495,-0.165232,1.503406,-1.046864,-0.384132
-0.972443,0.213996,-1.172395,-0.164616,1.510915,-1.046722,-0.384331
-0.970561,0.21425,-1.177998,-0.163933,1.517299,-1.046797,-0.384627
-0.965216,0.214086,-1.182614,-0.162567,1.523194,-1.046258,-0.384464
-0.962478,0.215687,-1.187504,-0.163997,1.528704,-1.046379,-0.384349
-0.956768,0.216582,-1.192061,-0.164409,1.534267,-1.045732,-0.383777
-0.954981,0.216667,-1.196287,-0.163907,1.53903,-1.045654,-0.383988
-0.949347,0.217576,-1.199857,-0.163988,1.543787,-1.045734,-0.384749
-0.946319,0.217899,-1.203206,-0.163583,1.547917,-1.045938,-0.385555
-0.94269,0.217806,-1.206095,-0.162755,1.551625,-1.045899,-0.386044
-0.939865,0.217737,-1.208655,-0.162206,1.554894,-1.046023,-0.386279
-0.934848,0.218829,-1.211219,-0.163268,1.558361,-1.046078,-0.385686
-0.933506,0.218805,-1.213737,-0.162907,1.561276,-1.045846,-0.385609
-0.928939,0.218942,-1.215945,-0.162841,1.564142,-1.045852,-0.385275
-0.927763,0.218942,-1.218109,-0.162496,1.566538,-1.045415,-0.385251
-0.923983,0.218465,-1.219973,-0.161623,1.568648,-1.044876,-0.384829
-0.922386,0.218393,-1.221608,-0.161241,1.57039,-1.044848,-0.384862
-0.918683,0.218621,-1.223426,-0.160907,1.571861,-1.043988,-0.383984
-0.916967,0.218627,-1.224908,-0.160282,1.57314,-1.043113,-0.3836
-0.914444,0.2185,-1.226448,-0.15944,1.573956,-1.042089,-0.382949
-0.912415,0.218499,-1.22784,-0.158723,1.574438,-1.04148,-0.382518
-0.908871,0.21936,-1.229596,-0.158312,1.574538,-1.040039,-0.381901
-0.907741,0.21954,-1.230523,-0.157785,1.574994,-1.039267,-0.381869
-0.904373,0.219611,-1.231586,-0.156885,1.575062,-1.038173,-0.381297
-0.903333,0.219654,-1.232055,-0.156496,1.575373,-1.03741,-0.381167
-0.899978,0.219399,-1.232484,-0.155472,1.57537,-1.036617,-0.380464
-0.898558,0.219439,-1.232527,-0.155156,1.575416,-1.036326,-0.380403
-0.895442,0.219191,-1.23248,-0.154082,1.575221,-1.035567,-0.379832
-0.893612,0.218952,-1.232162,-0.153342,1.57489,-1.035168,-0.379501
-0.891191,0.218876,-1.231742,-0.152485,1.574365,-1.034504,-0.379044
-0.889118,0.218811,-1.231015,-0.151793,1.573755,-1.034362,-0.379068
-0.885639,0.218865,-1.229949,-0.150503,1.572938,-1.034051,-0.379413
-0.88436,0.218815,-1.228911,-0.149907,1.571956,-1.033586,-0.379373
-0.881257,0.217691,-1.22722,-0.147265,1.570669,-1.032478,-0.378914
-0.880056,0.217731,-1.225641,-0.146696,1.569116,-1.031457,-0.378349
-0.876298,0.217415,-1.223885,-0.145352,1.567524,-1.029915,-0.376463
-0.874846,0.217218,-1.221887,-0.144743,1.56585,-1.028994,-0.375881
-0.871038,0.216923,-1.218815,-0.143388,1.564833,-1.026853,-0.375406
-0.868733,0.216583,-1.215822,-0.142455,1.563363,-1.025328,-0.375222
-0.865602,0.216219,-1.212537,-0.141184,1.561836,-1.023317,-0.374641
-0.863469,0.216176,-1.209707,-0.140263,1.559709,-1.02139,-0.373566
-0.859383,0.215302,-1.206201,-0.138033,1.557538,-1.019147,-0.371671
-0.857858,0.215235,-1.203086,-0.137319,1.554729,-1.017638,-0.370778
-0.85364,0.214507,-1.199472,-0.135148,1.551949,-1.014668,-0.368783
-0.851955,0.214381,-1.196056,-0.134404,1.548681,-1.012935,-0.367924
-0.847634,0.21424,-1.192269,-0.132573,1.545541,-1.009113,-0.366155
-0.845872,0.213354,-1.188594,-0.131147,1.541678,-1.007703,-0.365044
-0.841423,0.212634,-1.184684,-0.128412,1.537413,-1.004366,-0.362777
-0.838815,0.21191,-1.180502,-0.126496,1.532718,-1.002134,-0.361208
-0.835202,0.21126,-1.17607,-0.124394,1.527778,-0.999104,-0.359215
-0.832424,0.210942,-1.171246,-0.123197,1.522951,-0.996242,-0.357921
-0.827604,0.210754,-1.166618,-0.121984,1.518093,-0.991617,-0.35531
-0.825822,0.21039,-1.161758,-0.121226,1.513119,-0.989531,-0.354365
-0.821392,0.209552,-1.157111,-0.118629,1.507353,-0.986345,-0.351943
-0.819812,0.209398,-1.15209,-0.117654,1.501612,-0.98473,-0.350957
-0.815711,0.207429,-1.14691,-0.113584,1.494618,-0.983058,-0.348638
-0.814131,0.20708,-1.14107,-0.112652,1.48805,-0.981599,-0.347536
-0.8097,0.205448,-1.134634,-0.109814,1.481092,-0.979922,-0.34582
-0.80718,0.204808,-1.12804,-0.108668,1.474073,-0.978309,-0.344536
-0.803599,0.204074,-1.121255,-0.107074,1.466836,-0.976529,-0.343107
-0.800843,0.203466,-1.114352,-0.105716,1.459401,-0.975066,-0.342023
-0.796574,0.201942,-1.106683,-0.10221,1.451285,-0.973015,-0.341061
-0.795238,0.201589,-1.099103,-0.101266,1.443051,-0.97113,-0.340123
-0.790811,0.200248,-1.090988,-0.098319,1.434192,-0.968892,-0.338685
-0.78955,0.19977,-1.082807,-0.097425,1.425383,-0.966837,-0.337731
-0.785391,0.19831,-1.07422,-0.094479,1.41586,-0.964204,-0.335992
-0.784232,0.197788,-1.065404,-0.093544,1.406446,-0.962088,-0.33492
-0.780376,0.196537,-1.056693,-0.091139,1.396254,-0.959216,-0.331688
-0.778782,0.194998,-1.047268,-0.088923,1.385926,-0.956895,-0.329688
-0.777033,0.192397,-1.036882,-0.084732,1.374573,-0.954141,-0.327696
-0.775468,0.191051,-1.025949,-0.082422,1.362694,-0.951771,-0.32625
-0.772003,0.190234,-1.01466,-0.079848,1.350051,-0.948553,-0.324332
-0.77179,0.188229,-1.002341,-0.076987,1.337104,-0.946525,-0.323584
-0.768789,0.187274,-0.989691,-0.074406,1.323362,-0.942548,-0.321073
-0.768171,0.186391,-0.976628,-0.073202,1.309606,-0.939932,-0.319563
-0.766439,0.183666,-0.962714,-0.068801,1.294543,-0.935566,-0.316368
-0.766042,0.182808,-0.948081,-0.06752,1.27933,-0.932736,-0.314973
-0.764146,0.180214,-0.932359,-0.06292,1.262608,-0.928599,-0.311801
-0.763634,0.178388,-0.915538,-0.059939,1.245017,-0.925299,-0.309769
-0.762168,0.177236,-0.898,-0.057336,1.226438,-0.921234,-0.307322
-0.762506,0.175051,-0.879518,-0.053837,1.206602,-0.917651,-0.305533
-0.761011,0.173955,-0.860172,-0.050677,1.185329,-0.912674,-0.303233
-0.761805,0.172793,-0.83997,-0.048977,1.163701,-0.909265,-0.301699
-0.762706,0.169836,-0.818705,-0.044182,1.139863,-0.903765,-0.298451
-0.764286,0.168295,-0.796058,-0.042402,1.115536,-0.900028,-0.29636
-0.766846,0.164627,-0.771773,-0.0368,1.088528,-0.894151,-0.292896
-0.769974,0.16252,-0.745191,-0.03362,1.060179,-0.890135,-0.291166
-0.773855,0.159261,-0.715996,-0.026843,1.028099,-0.884458,-0.2885
-0.778773,0.156636,-0.683303,-0.02124,0.993114,-0.879689,-0.286849
-0.784561,0.153722,-0.646494,-0.014167,0.953666,-0.874266,-0.28524
-0.789934,0.152062,-0.605701,-0.009456,0.910502,-0.868903,-0.283918
-0.799301,0.148248,-0.557468,0.001747,0.859545,-0.862892,-0.283726
-0.809354,0.146482,-0.501055,0.009501,0.800942,-0.857198,-0.283544
-0.826972,0.142655,-0.430013,0.027605,0.726347,-0.850366,-0.28361
-0.853916,0.140407,-0.333984,0.051494,0.627005,-0.844281,-0.285164
-0.95403,0.13097,-0.180584,0.167034,0.466011,-0.853081,-0.295448
-1.089319,0.100071,-0.190043,0.3491,0.476723,-0.899857,-0.315866
-1.123681,0.082121,-0.216094,0.3491,0.50897,-0.915137,-0.323735
-1.119854,0.081556,-0.21956,0.3491,0.512743,-0.913817,-0.322916
-1.11561,0.080183,-0.225443,0.3491,0.518959,-0.912453,-0.322113
-1.11154,0.080985,-0.226807,0.3491,0.519315,-0.910373,-0.320784
-1.106007,0.079113,-0.235672,0.3491,0.527275,-0.908308,-0.319385
-1.102261,0.080268,-0.236094,0.3491,0.526983,-0.90673,-0.318449
-1.09709,0.078861,-0.243312,0.3491,0.533378,-0.904833,-0.316936
-1.09394,0.079716,-0.24394,0.3491,0.533692,-0.903731,-0.316493
-1.08888,0.078734,-0.24982,0.3491,0.538948,-0.902025,-0.315035
-1.085498,0.07793,-0.2544,0.3491,0.54387,-0.901293,-0.315006
-1.080234,0.07757,-0.258756,0.3491,0.547723,-0.899508,-0.313474
-1.075616,0.077553,-0.262249,0.3491,0.551142,-0.898072,-0.312746
-1.071457,0.077358,-0.265515,0.3491,0.553948,-0.89662,-0.311727
-1.067003,0.077552,-0.268315,0.3491,0.556262,-0.895119,-0.310967
-1.062097,0.077718,-0.271152,0.3491,0.557889,-0.89321,-0.309817
-1.058585,0.077979,-0.273187,0.3491,0.559674,-0.892098,-0.309441
-1.054031,0.078339,-0.275273,0.3491,0.560948,-0.890228,-0.308551
-1.051117,0.07862,-0.276793,0.3491,0.562401,-0.889224,-0.308329
-1.046688,0.079171,-0.278336,0.3491,0.563463,-0.88734,-0.307629
-1.04396,0.079457,-0.279594,0.3491,0.564571,-0.88638,-0.307233
-1.037788,0.078806,-0.285212,0.3491,0.570498,-0.884986,-0.30667
-1.033732,0.079665,-0.286061,0.3491,0.570759,-0.883311,-0.305552
-1.028646,0.078713,-0.291788,0.3491,0.576747,-0.882064,-0.304954
-1.025094,0.079505,-0.292532,0.3491,0.576282,-0.879764,-0.303297
-1.020133,0.078714,-0.297974,0.3491,0.580682,-0.876919,-0.301451
-1.017394,0.079545,-0.298195,0.3491,0.580076,-0.875199,-0.300357
-1.012009,0.078447,-0.304024,0.3491,0.586357,-0.873646,-0.299587
-1.009711,0.079288,-0.303696,0.3491,0.585749,-0.872433,-0.298984
-1.003625,0.077717,-0.310787,0.3491,0.594569,-0.871865,-0.299093
-1.001474,0.078549,-0.310173,0.3491,0.593631,-0.870696,-0.298367
-0.995255,0.077739,-0.315977,0.3491,0.600268,-0.86938,-0.297918
-0.990663,0.078112,-0.318479,0.3491,0.602672,-0.867802,-0.29711
-0.986178,0.077926,-0.322093,0.3491,0.60618,-0.866277,-0.296352
-0.982061,0.078646,-0.323921,0.3491,0.607261,-0.86448,-0.295398
-0.977544,0.07905,-0.327261,0.3491,0.608921,-0.861952,-0.294098
-0.97325,0.078317,-0.332867,0.3491,0.614848,-0.861089,-0.293813
-0.968901,0.079061,-0.333855,0.3491,0.614699,-0.85888,-0.29191
-0.964381,0.078432,-0.338974,0.3491,0.620297,-0.858136,-0.291319
-0.959319,0.079106,-0.340058,0.3491,0.620839,-0.856247,-0.289317
-0.955585,0.07895,-0.343719,0.3491,0.624693,-0.85547,-0.289027
-0.949536,0.078851,-0.348242,0.3491,0.628793,-0.854238,-0.289054
-0.947346,0.079507,-0.348617,0.348706,0.628431,-0.853158,-0.289167
-0.943566,0.079793,-0.350576,0.348092,0.629675,-0.852303,-0.289141
-0.939673,0.08003,-0.353961,0.346303,0.63249,-0.851129,-0.288562
-0.933861,0.078826,-0.362476,0.345459,0.640462,-0.850028,-0.287589
-0.931216,0.079687,-0.363196,0.343713,0.640554,-0.848937,-0.287029
-0.925517,0.078667,-0.370868,0.343047,0.647557,-0.848092,-0.286413
-0.922688,0.079504,-0.371674,0.341077,0.647737,-0.846958,-0.285965
-0.916669,0.079153,-0.377894,0.339955,0.65338,-0.846169,-0.285862
-0.91407,0.079912,-0.378674,0.338289,0.6536,-0.845089,-0.285455
-0.908634,0.079389,-0.385611,0.337519,0.65996,-0.843825,-0.285345
-0.905494,0.080285,-0.386591,0.336027,0.660194,-0.842381,-0.284859
-0.90105,0.079487,-0.393403,0.335481,0.667082,-0.841306,-0.284725
-0.897674,0.080493,-0.394217,0.333672,0.667776,-0.839779,-0.284008
-0.892451,0.079709,-0.399717,0.333361,0.674725,-0.83897,-0.283309
-0.889562,0.080613,-0.400518,0.331296,0.67554,-0.837761,-0.28266
-0.885076,0.080829,-0.405646,0.330809,0.680204,-0.835807,-0.281891
-0.881137,0.080106,-0.413235,0.328876,0.687893,-0.834838,-0.281865
-0.875848,0.079882,-0.423015,0.327732,0.696484,-0.832274,-0.281299
-0.872164,0.080134,-0.42791,0.325304,0.700984,-0.83085,-0.280576
-0.866936,0.079393,-0.438051,0.324465,0.710502,-0.828271,-0.278383
-0.862151,0.079288,-0.445397,0.321925,0.717552,-0.82629,-0.276548
-0.857554,0.078729,-0.453737,0.320907,0.725684,-0.824338,-0.274868
-0.852864,0.078768,-0.460525,0.318617,0.732428,-0.822839,-0.274077
-0.847484,0.078225,-0.469726,0.318018,0.741812,-0.821279,-0.273794
-0.843592,0.079492,-0.472042,0.314877,0.743757,-0.819947,-0.27309
-0.838298,0.077981,-0.482872,0.315354,0.755433,-0.818602,-0.272774
-0.834342,0.079184,-0.485188,0.312332,0.757651,-0.817196,-0.271996
-0.828867,0.077836,-0.495141,0.312694,0.768428,-0.815662,-0.271185
-0.824968,0.078987,-0.49756,0.30984,0.770724,-0.814247,-0.270413
-0.819504,0.07792,-0.50804,0.310156,0.781281,-0.811923,-0.269591
-0.814133,0.078339,-0.515091,0.30747,0.788134,-0.809836,-0.268712
-0.808975,0.078363,-0.522638,0.306347,0.795297,-0.807553,-0.267756
-0.804083,0.079659,-0.526402,0.303322,0.798225,-0.805403,-0.266327
-0.798652,0.078219,-0.537972,0.304317,0.809565,-0.803339,-0.265597
-0.793959,0.07949,-0.541973,0.300666,0.812972,-0.801734,-0.264504
-0.788656,0.078331,-0.55276,0.301292,0.823031,-0.799694,-0.263569
-0.783683,0.07895,-0.559425,0.297872,0.829228,-0.798304,-0.262716
-0.777621,0.078829,-0.569012,0.296824,0.837633,-0.796086,-0.26144
-0.772823,0.080131,-0.573597,0.293059,0.841783,-0.794621,-0.260457
-0.731811,0.157089,-0.376114,0.184115,0.617762,-0.75944,-0.2251
-0.782483,0.148576,-0.331317,0.247474,0.567969,-0.7687,-0.230193
-0.803325,0.147443,-0.310709,0.275337,0.543928,-0.771796,-0.230423
-0.805725,0.148466,-0.304303,0.280524,0.536062,-0.771294,-0.229233
-0.8026,0.15202,-0.295051,0.279971,0.524474,-0.768465,-0.226048
-0.79956,0.152727,-0.295754,0.27834,0.524743,-0.767328,-0.22507
-0.796444,0.157013,-0.284888,0.276934,0.510563,-0.764189,-0.222362
-0.792847,0.157947,-0.285849,0.274308,0.510828,-0.762813,-0.221863
-0.789598,0.161861,-0.277018,0.27287,0.49829,-0.759835,-0.219714
-0.786199,0.162811,-0.277858,0.270547,0.498534,-0.758506,-0.219072
-0.783557,0.167773,-0.264223,0.268809,0.481459,-0.75449,-0.215624
-0.780221,0.170748,-0.257642,0.265873,0.473379,-0.751652,-0.213454
-0.777707,0.174313,-0.247951,0.264434,0.461734,-0.748345,-0.210821
-0.774648,0.177195,-0.240421,0.261823,0.45312,-0.745419,-0.208782
-0.772078,0.18153,-0.226509,0.260691,0.437502,-0.741101,-0.205677
-0.768418,0.182375,-0.226561,0.258108,0.437767,-0.739479,-0.204893
-0.766356,0.187333,-0.209859,0.257182,0.418662,-0.735297,-0.201946
-0.762698,0.188209,-0.209907,0.254565,0.418653,-0.733733,-0.201363
-0.759617,0.192564,-0.196188,0.253288,0.402819,-0.730239,-0.199089
-0.75658,0.193312,-0.196144,0.251416,0.402719,-0.72887,-0.198596
-0.753529,0.197537,-0.181919,0.250115,0.387034,-0.725331,-0.196799
-0.750896,0.199625,-0.175792,0.248725,0.380465,-0.723202,-0.195938
-0.748514,0.202679,-0.165554,0.247774,0.369512,-0.720076,-0.194482
-0.746206,0.20559,-0.155723,0.245824,0.359243,-0.716829,-0.192857
-0.744873,0.210637,-0.136621,0.24516,0.33918,-0.711298,-0.189853
-0.741582,0.211768,-0.1343,0.2423,0.33719,-0.70904,-0.188689
-0.740975,0.21736,-0.113007,0.242073,0.314478,-0.703786,-0.185699
-0.737397,0.218151,-0.111775,0.239114,0.313653,-0.702001,-0.184738
-0.736811,0.223356,-0.091949,0.238932,0.292276,-0.697191,-0.181831
-0.733493,0.22408,-0.090515,0.236232,0.291362,-0.695567,-0.181189
-0.732865,0.228112,-0.07329,0.236394,0.273138,-0.691487,-0.179069
-0.729072,0.228847,-0.071434,0.233698,0.271985,-0.689519,-0.178442
-0.728589,0.231843,-0.057978,0.23395,0.25783,-0.686538,-0.177129
-0.724948,0.232455,-0.056032,0.231444,0.256559,-0.684607,-0.176647
-0.723336,0.234709,-0.045409,0.231625,0.245629,-0.681746,-0.175815
-0.720315,0.235254,-0.043631,0.229083,0.244262,-0.680253,-0.175476
-0.719752,0.238415,-0.029401,0.230013,0.229058,-0.677233,-0.174158
-0.716498,0.239096,-0.027253,0.2271,0.227343,-0.675642,-0.173701
-0.715306,0.241723,-0.015765,0.2275,0.214906,-0.67269,-0.172085
-0.712198,0.242406,-0.013611,0.224853,0.213155,-0.671137,-0.171674
-0.71091,0.245176,-0.001873,0.225441,0.200792,-0.668358,-0.170654
-0.706908,0.246023,0.000989,0.22241,0.198471,-0.666268,-0.170169
-0.706254,0.24887,0.01282,0.223124,0.185876,-0.663754,-0.169499
-0.702209,0.249659,0.01582,0.220066,0.183206,-0.661574,-0.169081
-0.702461,0.25337,0.030667,0.221888,0.166531,-0.657825,-0.168097
-0.698437,0.254259,0.034262,0.218121,0.163298,-0.655775,-0.167709
-0.698495,0.257375,0.048108,0.21978,0.148002,-0.651941,-0.166083
-0.694569,0.258074,0.052126,0.215977,0.144518,-0.649752,-0.165367
-0.694739,0.261253,0.066796,0.217889,0.1285,-0.645832,-0.163222
-0.691858,0.262795,0.074238,0.214899,0.12111,-0.643276,-0.162316
-0.691037,0.266258,0.087895,0.215968,0.105942,-0.639113,-0.160053
-0.688339,0.268831,0.098787,0.213636,0.094518,-0.635634,-0.158616
-0.686238,0.271725,0.110199,0.212986,0.082102,-0.63212,-0.157085
-0.682846,0.273879,0.119737,0.210407,0.072329,-0.629176,-0.156369
-0.679571,0.276634,0.130108,0.209979,0.06106,-0.626025,-0.155691
-0.675192,0.277653,0.136153,0.205748,0.055444,-0.623682,-0.155444
-0.671893,0.279822,0.144236,0.205642,0.045505,-0.62147,-0.153901
-0.667763,0.280712,0.149763,0.201758,0.039751,-0.61951,-0.153185
-0.662571,0.281711,0.153979,0.199402,0.033756,-0.617316,-0.151225
-0.65969,0.282757,0.16024,0.197467,0.027202,-0.616094,-0.150389
-0.656197,0.284596,0.168198,0.197269,0.018532,-0.613796,-0.149093
-0.651862,0.285659,0.174339,0.194058,0.012897,-0.611325,-0.148633
-0.649535,0.287885,0.183771,0.194809,0.002724,-0.609617,-0.147511
-0.644769,0.289313,0.190467,0.191288,-0.003942,-0.607077,-0.146875
-0.640561,0.291959,0.199565,0.191691,-0.014619,-0.60562,-0.145051
-0.636176,0.293303,0.206878,0.187712,-0.021748,-0.603254,-0.144673
-0.632814,0.296346,0.217002,0.188752,-0.033751,-0.601012,-0.143272
-0.628383,0.297651,0.224834,0.184757,-0.041443,-0.598482,-0.14307
-0.626454,0.301478,0.237102,0.187038,-0.055967,-0.59543,-0.141997
-0.621865,0.302797,0.24602,0.182894,-0.064391,-0.592689,-0.141787
-0.621144,0.306922,0.260639,0.186524,-0.080671,-0.589116,-0.140098
-0.615625,0.308429,0.271485,0.182402,-0.09051,-0.585501,-0.139512
-0.615912,0.312738,0.287464,0.186149,-0.107618,-0.582198,-0.138055
-0.610357,0.314407,0.299477,0.181948,-0.118145,-0.578576,-0.137661
-0.610468,0.319688,0.317418,0.187072,-0.136347,-0.575239,-0.136404
-0.605368,0.321222,0.330589,0.182318,-0.147952,-0.571977,-0.136382
-0.603618,0.326046,0.346831,0.185513,-0.165227,-0.568354,-0.135073
-0.598489,0.327731,0.36018,0.180919,-0.177697,-0.565096,-0.13506
-0.595865,0.332294,0.375876,0.183211,-0.195217,-0.561309,-0.133632
-0.590852,0.334043,0.389495,0.178842,-0.208136,-0.558165,-0.13373
-0.586079,0.338197,0.404,0.179523,-0.22388,-0.555395,-0.133105
-0.580477,0.340344,0.417431,0.175902,-0.237137,-0.552226,-0.133175
-0.574025,0.34288,0.429849,0.173541,-0.249548,-0.549646,-0.133228
-0.571892,0.346833,0.44458,0.174853,-0.265255,-0.547199,-0.132994
-0.567752,0.351315,0.459501,0.176323,-0.281462,-0.543386,-0.132532
-0.563081,0.353095,0.473726,0.172801,-0.295027,-0.540302,-0.132791
-0.561316,0.35873,0.489547,0.176825,-0.313328,-0.536015,-0.131448
-0.558116,0.361477,0.505492,0.175024,-0.32939,-0.53266,-0.131284
-0.555998,0.366923,0.522412,0.17808,-0.348699,-0.527498,-0.129471
-0.551426,0.368746,0.538659,0.174518,-0.36402,-0.524105,-0.129581
-0.550636,0.374753,0.556891,0.178882,-0.383302,-0.519566,-0.128094
-0.547611,0.378179,0.575083,0.178219,-0.400653,-0.515936,-0.127855
-0.543769,0.381318,0.592504,0.177383,-0.417077,-0.51187,-0.127487
-0.541071,0.384714,0.610056,0.177342,-0.434197,-0.50902,-0.127389
-0.535599,0.386814,0.626448,0.175254,-0.449281,-0.505239,-0.127393
-0.533519,0.389774,0.643028,0.175075,-0.465681,-0.503094,-0.127556
-0.528126,0.391946,0.658155,0.173254,-0.480653,-0.499441,-0.127781
-0.526449,0.395322,0.673865,0.173665,-0.496728,-0.497115,-0.128339
-0.522694,0.398993,0.6889,0.174213,-0.512951,-0.493504,-0.128721
-0.518957,0.4006,0.703955,0.17197,-0.527237,-0.491211,-0.129427
-0.515897,0.404622,0.71948,0.17365,-0.542116,-0.488211,-0.129327
-0.511905,0.406358,0.734517,0.171954,-0.555544,-0.485621,-0.129665
-0.509484,0.410275,0.749456,0.173786,-0.570176,-0.483033,-0.129434
-0.505549,0.411995,0.763738,0.172201,-0.583967,-0.480117,-0.129557
-0.50392,0.416986,0.777847,0.175771,-0.600374,-0.475937,-0.128354
-0.501196,0.419302,0.792702,0.175054,-0.61521,-0.473409,-0.128584
-0.498455,0.423542,0.806989,0.177145,-0.631339,-0.469072,-0.127725
-0.495807,0.426036,0.82196,0.176636,-0.646268,-0.466565,-0.128057
-0.4929,0.430344,0.836298,0.178707,-0.662508,-0.462254,-0.127324
-0.489101,0.432055,0.851102,0.177146,-0.676776,-0.460164,-0.127942
-0.485245,0.4355,0.865007,0.178685,-0.692558,-0.456613,-0.126767
-0.481045,0.437432,0.879385,0.177955,-0.707182,-0.454341,-0.126713
-0.476075,0.439321,0.89298,0.177126,-0.721372,-0.45152,-0.127091
-0.471842,0.440852,0.906451,0.176228,-0.735322,-0.449289,-0.127968
-0.466366,0.442859,0.918789,0.175951,-0.749382,-0.44624,-0.129961
-0.462823,0.444376,0.931949,0.175016,-0.762397,-0.444539,-0.131211
-0.458879,0.448136,0.944573,0.177534,-0.776337,-0.441197,-0.131625
-0.455318,0.44958,0.957864,0.176726,-0.788865,-0.43933,-0.132214
-0.452182,0.453408,0.970649,0.179784,-0.802675,-0.434893,-0.131014
-0.449628,0.455686,0.983756,0.180156,-0.815812,-0.432412,-0.131004
-0.447889,0.460636,0.995832,0.184194,-0.831261,-0.426325,-0.128749
-0.446189,0.464413,1.008882,0.186347,-0.846297,-0.421878,-0.127523
-0.444761,0.469473,1.021597,0.190024,-0.862185,-0.416033,-0.125631
-0.442937,0.473892,1.035066,0.192635,-0.877662,-0.411275,-0.124637
-0.44176,0.481019,1.047788,0.198342,-0.894861,-0.403437,-0.122337
-0.439314,0.484514,1.062044,0.199608,-0.909898,-0.399975,-0.122195
-0.436663,0.490949,1.075,0.204283,-0.926483,-0.393194,-0.120623
-0.433454,0.494025,1.089224,0.205069,-0.94102,-0.390377,-0.120831
-0.429666,0.499962,1.102037,0.209016,-0.956868,-0.384492,-0.119815
-0.426377,0.503137,1.115768,0.209929,-0.971009,-0.381748,-0.119974
-0.422882,0.509888,1.127679,0.214413,-0.986911,-0.37546,-0.118906
-0.419121,0.513621,1.140424,0.215715,-1.001208,-0.371424,-0.118645
-0.415776,0.519858,1.152477,0.219962,-1.015828,-0.366551,-0.117215
-0.411866,0.52376,1.165193,0.222063,-1.028911,-0.363056,-0.115568
-0.40695,0.529089,1.177336,0.226116,-1.041639,-0.357834,-0.111222
-0.403286,0.531851,1.189539,0.227201,-1.053305,-0.355477,-0.110171
-0.398604,0.537334,1.199772,0.230834,-1.065877,-0.349671,-0.107921
-0.395712,0.540975,1.210447,0.232774,-1.077492,-0.347037,-0.107813
-0.391895,0.547544,1.219249,0.237351,-1.090191,-0.340702,-0.106742
-0.388838,0.550619,1.229381,0.238844,-1.100593,-0.337935,-0.106366
-0.385258,0.557069,1.238574,0.244114,-1.11098,-0.331184,-0.102987
-0.382176,0.561141,1.248058,0.247055,-1.120081,-0.326894,-0.100849
-0.379093,0.566348,1.256855,0.25132,-1.12869,-0.321209,-0.097776
-0.376403,0.570366,1.265288,0.254373,-1.136612,-0.316812,-0.095769
-0.37367,0.576565,1.273075,0.259862,-1.144023,-0.30948,-0.092013
-0.371311,0.579305,1.280537,0.261673,-1.150736,-0.306515,-0.090865
-0.368263,0.58524,1.28687,0.266762,-1.157299,-0.299669,-0.087234
-0.365891,0.587823,1.293086,0.268434,-1.163179,-0.296903,-0.086086
-0.362522,0.59343,1.298149,0.273062,-1.168963,-0.290637,-0.082616
-0.360091,0.595685,1.303369,0.274451,-1.173936,-0.288349,-0.081557
-0.355909,0.600285,1.307401,0.277947,-1.178744,-0.283884,-0.07839
-0.352677,0.602904,1.311504,0.279611,-1.182982,-0.28155,-0.076768
-0.349188,0.606499,1.315129,0.282213,-1.186703,-0.278245,-0.074799
-0.346724,0.609512,1.318763,0.284383,-1.18985,-0.275323,-0.073794
-0.34382,0.614572,1.322024,0.288401,-1.192202,-0.270198,-0.072451
-0.342048,0.616591,1.325135,0.289778,-1.194585,-0.268175,-0.072046
-0.338641,0.620816,1.327854,0.293284,-1.195914,-0.263675,-0.070198
-0.336661,0.622357,1.330466,0.294437,-1.197377,-0.261946,-0.069449
-0.332866,0.625857,1.332461,0.297384,-1.198169,-0.258113,-0.067246
-0.330773,0.626545,1.333998,0.297295,-1.199891,-0.256782,-0.066756
-0.327405,0.630532,1.333328,0.300031,-1.203626,-0.254388,-0.064901
-0.324714,0.631563,1.333315,0.299498,-1.207172,-0.253194,-0.064399
-0.322178,0.634885,1.331903,0.301603,-1.212685,-0.25167,-0.062327
-0.320105,0.636628,1.330989,0.302026,-1.21835,-0.25033,-0.060528
-0.317356,0.639361,1.327304,0.302591,-1.228286,-0.248038,-0.056793
-0.315199,0.639936,1.327857,0.302056,-1.233518,-0.247238,-0.055478
-0.312531,0.643963,1.325899,0.304271,-1.241938,-0.243733,-0.052183
-0.310589,0.645485,1.327358,0.304894,-1.246363,-0.242208,-0.051111
-0.307232,0.649349,1.326699,0.307136,-1.252877,-0.238206,-0.048405
-0.304839,0.650118,1.328399,0.306888,-1.256648,-0.236801,-0.047706
-0.302462,0.655282,1.327981,0.310508,-1.26265,-0.232215,-0.045769
-0.300378,0.657923,1.329127,0.312006,-1.266785,-0.229528,-0.044951
-0.297687,0.661244,1.329822,0.314074,-1.27091,-0.226168,-0.043476
-0.295194,0.663434,1.331113,0.315421,-1.27407,-0.22383,-0.041875
-0.2913,0.666705,1.331778,0.31771,-1.277118,-0.22019,-0.038621
-0.289003,0.667469,1.333502,0.31757,-1.278967,-0.218783,-0.037942
-0.284784,0.671564,1.334332,0.320825,-1.280379,-0.216044,-0.03605
-0.282695,0.672263,1.335878,0.320834,-1.281427,-0.214676,-0.035876
-0.277672,0.676717,1.336855,0.324011,-1.280997,-0.213098,-0.035784
-0.275366,0.677953,1.337998,0.324666,-1.281345,-0.212509,-0.035685
-0.270182,0.680692,1.338741,0.326351,-1.28048,-0.21163,-0.034972
-0.266899,0.681788,1.339634,0.326519,-1.279964,-0.21116,-0.034777
-0.262241,0.683752,1.340421,0.328093,-1.27854,-0.211398,-0.03394
-0.258601,0.68474,1.341437,0.328503,-1.276845,-0.21155,-0.033675
-0.252129,0.68613,1.342851,0.329647,-1.272821,-0.212661,-0.032571
-0.249918,0.686761,1.343337,0.329898,-1.27145,-0.212641,-0.03256
-0.245002,0.688913,1.343417,0.33142,-1.26917,-0.212451,-0.032529
-0.243632,0.689469,1.343306,0.331472,-1.268819,-0.211563,-0.032971
-0.24003,0.692878,1.342454,0.333817,-1.26835,-0.210284,-0.033761
-0.238767,0.69327,1.342284,0.333789,-1.268592,-0.2093,-0.033638
-0.235813,0.696623,1.340943,0.336019,-1.269777,-0.207449,-0.03251
-0.233806,0.697375,1.340439,0.335683,-1.270932,-0.206059,-0.031836
-0.231969,0.700614,1.339863,0.338369,-1.272156,-0.203999,-0.030359
-0.230098,0.702734,1.340166,0.339686,-1.272163,-0.202495,-0.030235
-0.227128,0.706667,1.340649,0.342273,-1.270866,-0.199863,-0.030564
-0.22578,0.707393,1.341116,0.342244,-1.270518,-0.198579,-0.030777
-0.224162,0.712071,1.340687,0.345867,-1.270751,-0.194871,-0.029969
-0.223235,0.712721,1.340711,0.345722,-1.271265,-0.193112,-0.029795
-0.222424,0.716655,1.339988,0.348882,-1.272658,-0.188491,-0.027794
0.354293,0.564381,-0.503686,-0.485586,0.797475,-0.246218,0.063732
0.306523,0.58042,-0.663244,-0.439135,0.935219,-0.275693,0.064103
0.275781,0.589916,-0.777795,-0.411532,1.036138,-0.295952,0.06287
0.255479,0.597704,-0.867309,-0.394403,1.11717,-0.309993,0.061671
0.239098,0.60361,-0.941493,-0.382091,1.183842,-0.320606,0.060061
0.227302,0.610006,-1.004993,-0.373973,1.241728,-0.32735,0.059146
0.215634,0.613787,-1.06011,-0.366779,1.291506,-0.334522,0.057266
0.208199,0.618854,-1.108463,-0.362669,1.337995,-0.339054,0.056014
0.199757,0.621764,-1.152091,-0.358346,1.378851,-0.344445,0.054034
0.194661,0.625992,-1.191089,-0.356299,1.418268,-0.347827,0.052515
0.187664,0.628376,-1.227576,-0.353346,1.452282,-0.351907,0.050699
0.182611,0.632095,-1.261419,-0.351704,1.483927,-0.353967,0.049631
0.176857,0.634562,-1.292717,-0.349731,1.512307,-0.356576,0.048293
0.17228,0.637189,-1.321323,-0.348476,1.539235,-0.35875,0.047087
0.167934,0.63909,-1.347444,-0.347408,1.564881,-0.361399,0.045613
0.165398,0.641351,-1.370813,-0.347341,1.59073,-0.36395,0.044157
0.160797,0.642017,-1.39372,-0.345693,1.613043,-0.366218,0.042492
0.159444,0.644541,-1.414776,-0.346348,1.635662,-0.368898,0.041225
0.155569,0.645144,-1.435292,-0.344985,1.655169,-0.370799,0.039746
0.154724,0.647258,-1.454322,-0.345449,1.674754,-0.373308,0.038474
0.151053,0.647697,-1.472675,-0.34444,1.691784,-0.374651,0.037244
0.150268,0.649644,-1.489618,-0.344807,1.708906,-0.376601,0.034926
0.147877,0.650617,-1.505913,-0.34447,1.724245,-0.377937,0.03306
0.145559,0.65125,-1.521241,-0.343678,1.73856,-0.378385,0.031199
0.143467,0.652748,-1.535879,-0.344131,1.751993,-0.379428,0.029943
0.141428,0.654162,-1.549951,-0.344187,1.764466,-0.379081,0.028797
0.138877,0.654481,-1.562945,-0.34367,1.776123,-0.379718,0.027915
0.137385,0.655906,-1.575111,-0.344181,1.787715,-0.379284,0.027197
0.135142,0.656117,-1.586474,-0.343802,1.798366,-0.379727,0.02657
0.134363,0.657206,-1.597035,-0.344436,1.809209,-0.379468,0.02626
0.132381,0.657385,-1.607227,-0.344143,1.818683,-0.379812,0.025674
0.131999,0.65799,-1.616659,-0.343966,1.82824,-0.379446,0.024369
0.131193,0.659151,-1.62583,-0.344846,1.836983,-0.380014,0.023529
0.130408,0.659507,-1.634454,-0.344641,1.845277,-0.37976,0.022532
0.13022,0.660473,-1.642615,-0.345187,1.853201,-0.380715,0.021574
0.130807,0.661378,-1.650372,-0.345486,1.860885,-0.381241,0.020557
0.13007,0.661722,-1.65762,-0.34552,1.867831,-0.381898,0.019815
0.13156,0.662189,-1.663862,-0.345957,1.875706,-0.383041,0.018922
0.131405,0.662271,-1.669975,-0.346078,1.882544,-0.384031,0.018266
0.133499,0.66244,-1.675092,-0.346616,1.890457,-0.385522,0.017452
0.132852,0.662581,-1.680805,-0.346588,1.896335,-0.385668,0.016815
0.134019,0.663568,-1.686431,-0.347206,1.902168,-0.385777,0.015768
0.133605,0.663859,-1.691987,-0.34712,1.906987,-0.385295,0.015151
0.133552,0.664277,-1.697266,-0.347033,1.911593,-0.384447,0.014603
0.132986,0.6655,-1.702233,-0.347907,1.91592,-0.383733,0.014371
0.132527,0.666128,-1.707123,-0.348229,1.919989,-0.381915,0.015006
0.131957,0.666251,-1.711428,-0.348174,1.923924,-0.381631,0.014969
0.131362,0.666273,-1.715543,-0.348398,1.927811,-0.379795,0.015971
0.130565,0.666439,-1.719199,-0.348456,1.931506,-0.379093,0.015931
0.129839,0.666404,-1.72269,-0.348783,1.935182,-0.377392,0.016873
0.129245,0.66647,-1.726076,-0.34878,1.938339,-0.377293,0.016695
0.12888,0.666987,-1.729564,-0.348607,1.940959,-0.377047,0.015797
0.128519,0.66808,-1.732899,-0.349307,1.943338,-0.377671,0.014902
0.128056,0.668418,-1.736039,-0.349109,1.945533,-0.37797,0.014046
0.127479,0.668502,-1.738848,-0.349052,1.947757,-0.378193,0.013693
0.127158,0.668828,-1.741383,-0.348923,1.950011,-0.378499,0.01307
0.126538,0.668846,-1.743784,-0.348904,1.95206,-0.378739,0.01284
0.126157,0.669076,-1.746153,-0.348788,1.953894,-0.379127,0.012501
0.125665,0.669167,-1.748309,-0.348738,1.955681,-0.379382,0.012295
0.125552,0.670099,-1.750486,-0.349437,1.957294,-0.380261,0.012027
0.125023,0.670163,-1.752414,-0.349359,1.958879,-0.38046,0.011876
0.124387,0.670295,-1.754396,-0.349183,1.960064,-0.380994,0.011472
0.123995,0.670439,-1.756087,-0.349098,1.961427,-0.381497,0.010952
0.123768,0.670625,-1.757647,-0.349012,1.962772,-0.382261,0.010512
0.123227,0.670692,-1.759149,-0.348909,1.963956,-0.382586,0.010378
0.122675,0.670819,-1.760415,-0.348762,1.965253,-0.382879,0.010398
0.122277,0.670868,-1.761691,-0.348706,1.96643,-0.383045,0.010386
0.121867,0.671259,-1.762894,-0.349385,1.967572,-0.383748,0.010847
0.121495,0.671287,-1.764025,-0.349351,1.968656,-0.383875,0.010773
0.1213,0.671213,-1.764939,-0.349391,1.969877,-0.38459,0.010845
0.12096,0.671217,-1.765968,-0.349376,1.970821,-0.384716,0.01075
0.120475,0.671139,-1.767055,-0.349388,1.971481,-0.385041,0.010449
0.120145,0.671247,-1.76809,-0.349316,1.972099,-0.385246,0.009866
0.119793,0.671236,-1.769086,-0.349293,1.972655,-0.38547,0.009572
0.119442,0.671279,-1.769911,-0.349234,1.973311,-0.385661,0.009387
0.119055,0.671288,-1.770648,-0.349191,1.973961,-0.385879,0.00927
0.118804,0.671322,-1.771358,-0.349149,1.974609,-0.385982,0.009221
0.118409,0.671335,-1.772066,-0.349085,1.9751,-0.386248,0.009085
0.118166,0.671366,-1.772714,-0.34904,1.97564,-0.386366,0.009023
0.117804,0.671372,-1.773376,-0.348984,1.976021,-0.386631,0.008855
0.11758,0.67139,-1.773943,-0.348953,1.976497,-0.386744,0.008782
0.117194,0.671431,-1.774505,-0.348868,1.976826,-0.387078,0.008568
0.11694,0.671401,-1.77495,-0.348879,1.977294,-0.387216,0.008473
0.116882,0.671501,-1.775312,-0.348849,1.977811,-0.38768,0.008075
0.116666,0.671499,-1.775712,-0.348834,1.978241,-0.387817,0.008033
0.116604,0.671358,-1.776032,-0.348895,1.978761,-0.388268,0.008307
0.116462,0.671374,-1.776407,-0.348877,1.979149,-0.388325,0.008286
0.116478,0.671357,-1.776698,-0.348899,1.979585,-0.388778,0.008069
0.116305,0.671327,-1.777066,-0.348908,1.979865,-0.388893,0.007976
0.116801,0.671461,-1.777355,-0.348887,1.98028,-0.389781,0.007324
0.116674,0.671456,-1.777668,-0.348883,1.98056,-0.389842,0.00728
0.116549,0.671501,-1.77793,-0.348836,1.980869,-0.389902,0.007293
0.116444,0.671546,-1.778096,-0.348803,1.981277,-0.38994,0.00738
0.116363,0.671595,-1.778364,-0.348744,1.981538,-0.390014,0.007458
0.116574,0.671382,-1.778688,-0.348846,1.981761,-0.39055,0.007789
0.116456,0.671353,-1.779032,-0.348815,1.981813,-0.390699,0.007782
0.116395,0.671287,-1.779331,-0.348827,1.981902,-0.390788,0.007799
0.116619,0.670665,-1.779609,-0.348437,1.982012,-0.390945,0.007723
0.116612,0.670603,-1.779831,-0.348499,1.9821,-0.390922,0.007619
0.116708,0.670608,-1.780031,-0.348588,1.982196,-0.390717,0.007067
0.116674,0.670583,-1.780189,-0.348611,1.982311,-0.390722,0.007027
0.116637,0.670583,-1.780327,-0.348611,1.982434,-0.390731,0.007015
0.116829,0.670433,-1.780429,-0.348604,1.982629,-0.3911,0.007172
0.116867,0.670347,-1.780532,-0.348573,1.982751,-0.391367,0.007202
0.116807,0.670338,-1.780707,-0.34854,1.982741,-0.39149,0.007139
0.116594,0.67026,-1.780932,-0.348536,1.982574,-0.391756,0.006938
0.116544,0.67026,-1.781084,-0.348493,1.982541,-0.391877,0.006861
0.116899,0.669495,-1.781132,-0.347713,1.982618,-0.392448,0.006472
0.116845,0.669452,-1.781186,-0.34774,1.982629,-0.392492,0.00642
0.116665,0.669361,-1.781249,-0.347772,1.982561,-0.392683,0.006291
0.116608,0.669292,-1.781315,-0.347794,1.982526,-0.392804,0.006231
0.1171,0.669067,-1.781172,-0.347793,1.98282,-0.393647,0.006044
0.116991,0.669029,-1.781146,-0.347812,1.982871,-0.393734,0.005995
0.117431,0.669039,-1.781006,-0.347699,1.983129,-0.394395,0.005466
0.117345,0.668999,-1.781031,-0.347712,1.983126,-0.394482,0.005413
0.117542,0.668897,-1.781123,-0.347624,1.983065,-0.394999,0.005233
0.117537,0.668897,-1.781141,-0.347624,1.98308,-0.395,0.005231
0.11764,0.668832,-1.781129,-0.34763,1.983127,-0.395179,0.005047
0.117858,0.66877,-1.781112,-0.347611,1.98322,-0.395342,0.004957
0.118339,0.668628,-1.780979,-0.347617,1.983513,-0.395587,0.004798
0.11836,0.668608,-1.780999,-0.347639,1.983526,-0.395564,0.004787
0.118551,0.668576,-1.781084,-0.347689,1.983506,-0.395447,0.004669
0.118706,0.668596,-1.781144,-0.34769,1.983493,-0.39537,0.004527
0.118857,0.66861,-1.781172,-0.34771,1.983533,-0.395236,0.004534
0.11904,0.668641,-1.781089,-0.347722,1.983722,-0.395082,0.004572
0.119314,0.66864,-1.78084,-0.347784,1.984193,-0.394782,0.004897
0.119393,0.668595,-1.780774,-0.347832,1.984367,-0.394706,0.005
0.120023,0.66834,-1.780707,-0.347887,1.984639,-0.3951,0.004848
0.120081,0.668252,-1.780767,-0.347972,1.984622,-0.395063,0.004724
0.120769,0.668384,-1.780725,-0.347861,1.984771,-0.395391,0.003418
0.12082,0.668304,-1.780786,-0.347927,1.984748,-0.395372,0.003346
0.120914,0.668171,-1.780913,-0.347966,1.984651,-0.395304,0.00328
0.120729,0.667869,-1.781028,-0.347864,1.984503,-0.395065,0.003529
0.120463,0.667053,-1.78103,-0.346996,1.984399,-0.394557,0.003439
0.120437,0.66699,-1.780991,-0.347049,1.984379,-0.394572,0.003389
0.120353,0.666617,-1.780797,-0.346876,1.984477,-0.394748,0.003054
0.120283,0.666553,-1.780732,-0.346925,1.984474,-0.3948,0.002996
0.120173,0.666537,-1.780491,-0.346948,1.98458,-0.395298,0.002261
0.12037,0.666526,-1.780328,-0.346946,1.984731,-0.395769,0.001836
0.120489,0.666516,-1.780072,-0.34693,1.984898,-0.396677,0.00091
0.120471,0.66641,-1.780034,-0.346958,1.984908,-0.396934,0.000863
0.120386,0.666319,-1.780127,-0.346909,1.984731,-0.397292,0.000886
0.120374,0.666356,-1.780206,-0.346839,1.984603,-0.397375,0.000911
0.120352,0.666235,-1.780407,-0.346794,1.984316,-0.397558,0.001095
0.120306,0.666155,-1.780543,-0.346794,1.98406,-0.397656,0.001038
0.119851,0.66529,-1.780857,-0.345906,1.983447,-0.39708,0.000862
0.119851,0.665248,-1.780918,-0.345922,1.983208,-0.397109,0.000761
0.11965,0.665184,-1.781117,-0.345886,1.982745,-0.396939,0.000587
0.119446,0.665093,-1.781128,-0.345866,1.982515,-0.396715,0.000603
0.119271,0.664952,-1.781252,-0.345856,1.982138,-0.396618,0.000582
0.119317,0.664938,-1.781199,-0.345868,1.98203,-0.396591,0.000578
0.119432,0.664937,-1.781189,-0.345874,1.981903,-0.396514,0.000598
0.119596,0.664875,-1.781177,-0.345885,1.981819,-0.396371,0.000822
0.119672,0.664635,-1.781218,-0.345875,1.981656,-0.396319,0.001319
0.119733,0.664598,-1.781216,-0.345823,1.981511,-0.396148,0.001414
0.119468,0.664505,-1.781342,-0.345685,1.981173,-0.395463,0.001695
0.119145,0.66407,-1.781301,-0.345129,1.980967,-0.394785,0.001724
0.119193,0.664058,-1.781254,-0.345136,1.980831,-0.394769,0.001718
0.119167,0.664026,-1.781228,-0.345125,1.980646,-0.39484,0.001734
0.119175,0.66332,-1.781165,-0.344736,1.980481,-0.395195,0.001976
0.119153,0.66328,-1.781066,-0.34476,1.980356,-0.395237,0.001937
0.119017,0.663168,-1.781035,-0.344812,1.980098,-0.395404,0.001762
0.118926,0.663081,-1.781001,-0.344855,1.979865,-0.395517,0.001605
0.118791,0.662999,-1.780972,-0.344882,1.979612,-0.395672,0.001434
0.118613,0.662989,-1.78091,-0.344832,1.979391,-0.395878,0.00134
0.118341,0.663026,-1.780928,-0.344693,1.97904,-0.39622,0.00126
0.118101,0.662842,-1.78096,-0.344624,1.978715,-0.396384,0.001488
0.11786,0.661886,-1.78089,-0.343684,1.978428,-0.396532,0.001379
0.117804,0.661816,-1.780762,-0.343727,1.978279,-0.396606,0.001306
0.117563,0.661668,-1.780695,-0.343785,1.977978,-0.3969,0.001074
0.117755,0.661563,-1.780609,-0.343732,1.977826,-0.397246,0.000869
0.117685,0.66148,-1.780678,-0.343737,1.977435,-0.397426,0.00073
0.11801,0.660319,-1.780693,-0.342749,1.97717,-0.397725,0.000863
0.118062,0.660287,-1.780732,-0.342741,1.976795,-0.397778,0.0008
0.11815,0.66017,-1.780746,-0.342805,1.976464,-0.397772,0.000759
0.118392,0.660059,-1.780843,-0.342871,1.976094,-0.397618,0.000758
0.118468,0.65991,-1.780823,-0.342858,1.97581,-0.397551,0.000847
0.118813,0.659435,-1.780873,-0.34265,1.975496,-0.39758,0.000931
0.118895,0.659408,-1.780752,-0.342675,1.975305,-0.397544,0.000916
0.119795,0.658336,-1.780658,-0.341605,1.975212,-0.397909,0.000623
0.119882,0.658302,-1.780504,-0.34164,1.975025,-0.397863,0.000613
0.120593,0.658117,-1.780278,-0.341563,1.975059,-0.397882,8.4e-05
0.120811,0.658026,-1.780084,-0.341702,1.975003,-0.397667,3.8e-05
0.121095,0.658046,-1.779908,-0.34178,1.97494,-0.397492,-0.00027
0.121344,0.658039,-1.779738,-0.341831,1.974907,-0.397362,-0.00028
0.1225,0.657637,-1.779501,-0.341539,1.975157,-0.39798,-0.000185
0.122613,0.657639,-1.779382,-0.34155,1.975034,-0.397905,-0.000152
0.12307,0.657622,-1.779284,-0.341613,1.97499,-0.397861,-0.000206
0.123222,0.657598,-1.779226,-0.341651,1.974824,-0.397791,-0.000254
0.123785,0.657823,-1.779097,-0.34163,1.974806,-0.397775,-0.001026
0.123967,0.657825,-1.779029,-0.34165,1.974703,-0.397672,-0.000996
0.124514,0.657768,-1.77895,-0.341725,1.974736,-0.397609,-0.000809
0.124831,0.657761,-1.778838,-0.34178,1.974766,-0.397372,-0.000662
0.125244,0.657742,-1.778802,-0.341806,1.974747,-0.397223,-0.000412
0.125682,0.657659,-1.778723,-0.341853,1.974753,-0.397301,-0.000346
0.126119,0.657612,-1.778666,-0.341966,1.974752,-0.397054,-0.000452
0.126298,0.657617,-1.778615,-0.341986,1.974676,-0.396949,-0.000459
0.126749,0.657691,-1.778575,-0.341961,1.974628,-0.396956,-0.000873
0.126857,0.657676,-1.778581,-0.341971,1.974468,-0.396928,-0.000908
0.126999,0.657633,-1.778648,-0.342004,1.974236,-0.396897,-0.001031
0.12707,0.657656,-1.778589,-0.341988,1.974147,-0.396861,-0.001012
0.127781,0.657472,-1.778421,-0.34158,1.974324,-0.397256,-0.001025
0.127865,0.65755,-1.778289,-0.341522,1.974345,-0.397212,-0.000879
0.12826,0.657723,-1.778219,-0.341689,1.97438,-0.397522,-0.000623
0.128337,0.657774,-1.778174,-0.341651,1.974312,-0.397476,-0.000574
0.128539,0.657894,-1.778171,-0.341591,1.974247,-0.397324,-0.000523
0.12862,0.657964,-1.778135,-0.341558,1.974177,-0.397277,-0.000547
0.128805,0.65816,-1.778059,-0.341487,1.974195,-0.397183,-0.000605
0.128835,0.658191,-1.777998,-0.341466,1.974161,-0.397173,-0.000581
0.129325,0.658504,-1.777832,-0.341493,1.974362,-0.397445,-0.000745
0.12943,0.658562,-1.777792,-0.341522,1.974348,-0.397582,-0.000697
0.129547,0.658706,-1.777768,-0.341548,1.974298,-0.397759,-0.000898
0.129544,0.658719,-1.777763,-0.341558,1.974216,-0.397823,-0.000977
0.129626,0.658933,-1.777696,-0.341566,1.974203,-0.398022,-0.001324
0.129755,0.65908,-1.777631,-0.341653,1.974218,-0.398345,-0.001511
0.129984,0.659742,-1.777602,-0.342296,1.974221,-0.399137,-0.001654
0.129942,0.659756,-1.777581,-0.342275,1.974211,-0.399183,-0.001655
0.129856,0.659791,-1.7776,-0.342214,1.974131,-0.399319,-0.001684
0.129927,0.65984,-1.777581,-0.342177,1.974147,-0.39943,-0.001661
0.130281,0.659828,-1.777612,-0.342192,1.974176,-0.399806,-0.00149
0.130284,0.659828,-1.7776,-0.342192,1.974165,-0.399805,-0.001489
0.130437,0.659842,-1.777712,-0.342193,1.974056,-0.399718,-0.001497
0.130598,0.659807,-1.777807,-0.342245,1.973952,-0.399642,-0.001572
0.130776,0.659772,-1.777951,-0.342291,1.973782,-0.399571,-0.001693
0.130942,0.659763,-1.778073,-0.342312,1.973616,-0.399532,-0.001868
0.131648,0.659503,-1.778266,-0.34183,1.973394,-0.399783,-0.002769
0.131823,0.659447,-1.778322,-0.341769,1.973251,-0.399767,-0.002986
0.132364,0.659329,-1.778399,-0.341701,1.97317,-0.399708,-0.003331
0.132454,0.659296,-1.778378,-0.341744,1.973102,-0.399637,-0.003345
0.132949,0.659257,-1.778358,-0.341887,1.973191,-0.399223,-0.003312
0.133399,0.659324,-1.778266,-0.341879,1.973303,-0.39928,-0.003461
0.13414,0.659259,-1.778212,-0.342005,1.973533,-0.398983,-0.003162
0.134817,0.659182,-1.778151,-0.342076,1.97373,-0.398972,-0.002894
0.135476,0.659183,-1.778089,-0.342151,1.97394,-0.398702,-0.002764
0.136217,0.659211,-1.778007,-0.342181,1.974154,-0.398718,-0.002914
0.137147,0.659261,-1.777965,-0.342298,1.974407,-0.398369,-0.003171
0.137422,0.659211,-1.777946,-0.342396,1.974462,-0.398157,-0.00316
0.13869,0.659096,-1.777789,-0.342256,1.974899,-0.398373,-0.003466
0.138815,0.659071,-1.777777,-0.342305,1.974899,-0.398254,-0.003453
0.139252,0.659076,-1.777612,-0.342431,1.975216,-0.397825,-0.00333
0.139456,0.659088,-1.777546,-0.342474,1.975325,-0.397731,-0.003346
0.140595,0.659017,-1.777335,-0.342514,1.975819,-0.398298,-0.003413
0.14075,0.659004,-1.777305,-0.342563,1.975896,-0.398141,-0.003356
0.141302,0.658894,-1.777212,-0.342664,1.976147,-0.39832,-0.003205
0.141491,0.658812,-1.777191,-0.342781,1.97622,-0.398162,-0.003253
0.141948,0.658773,-1.777232,-0.342894,1.976283,-0.39794,-0.00353
0.142076,0.65874,-1.777271,-0.34294,1.976259,-0.397864,-0.003588
0.142584,0.658847,-1.777215,-0.342863,1.976377,-0.398088,-0.004242
0.142689,0.658772,-1.777258,-0.342861,1.976323,-0.398246,-0.004274
0.143025,0.658777,-1.777207,-0.342774,1.976383,-0.398728,-0.004615
0.143225,0.658717,-1.777146,-0.342732,1.976463,-0.399008,-0.00461
0.143913,0.658348,-1.776637,-0.342487,1.97715,-0.399883,-0.004665
0.143797,0.658309,-1.776364,-0.342535,1.977438,-0.399918,-0.004605
0.144292,0.658173,-1.776052,-0.342658,1.977916,-0.400697,-0.004431
0.144245,0.658172,-1.776043,-0.342652,1.977935,-0.400742,-0.004449
0.144229,0.658205,-1.776233,-0.342607,1.977682,-0.400932,-0.004764
0.144218,0.658205,-1.776291,-0.342598,1.977604,-0.400987,-0.004844
0.144264,0.658226,-1.776236,-0.342597,1.977638,-0.401183,-0.005191
0.144408,0.658203,-1.776145,-0.342589,1.977758,-0.401446,-0.005334
0.144336,0.658117,-1.776087,-0.342661,1.977808,-0.40149,-0.005392
0.144585,0.657926,-1.776037,-0.342692,1.977919,-0.401833,-0.005374
0.14465,0.657851,-1.776156,-0.342745,1.977789,-0.40183,-0.005476
0.14475,0.657794,-1.776243,-0.342789,1.977704,-0.401788,-0.005538
0.145197,0.65757,-1.776308,-0.342653,1.977682,-0.402032,-0.005812
0.145478,0.657278,-1.776351,-0.342464,1.977636,-0.40213,-0.006009
0.145815,0.657025,-1.776441,-0.342355,1.977519,-0.402129,-0.006429
0.145905,0.656908,-1.776501,-0.342358,1.977395,-0.402105,-0.006453
0.146077,0.655913,-1.776703,-0.34137,1.977105,-0.40159,-0.006488
0.146222,0.655931,-1.776756,-0.341362,1.976942,-0.401493,-0.006465
0.145779,0.655524,-1.777162,-0.341116,1.976297,-0.400436,-0.00594
0.145858,0.655514,-1.777121,-0.34113,1.976178,-0.400389,-0.005939
0.145901,0.655486,-1.777048,-0.341157,1.976093,-0.400364,-0.005942
0.145919,0.655334,-1.776899,-0.341247,1.976098,-0.400431,-0.00584
0.146035,0.655153,-1.776804,-0.341272,1.97606,-0.400733,-0.005675
0.146054,0.655126,-1.776769,-0.341287,1.975932,-0.400751,-0.005714
0.146039,0.655131,-1.776868,-0.341243,1.97562,-0.400864,-0.005831
0.146033,0.655165,-1.776833,-0.341194,1.975475,-0.400926,-0.005905
0.146014,0.655213,-1.776782,-0.341134,1.975357,-0.400984,-0.0059
0.146008,0.65524,-1.776711,-0.3411,1.975277,-0.401016,-0.005889
0.145954,0.655299,-1.776643,-0.340997,1.975181,-0.401169,-0.005824
0.14603,0.655192,-1.776564,-0.341005,1.975138,-0.401367,-0.005726
0.146343,0.654969,-1.776422,-0.341016,1.97519,-0.401921,-0.005787
0.146617,0.654835,-1.776289,-0.340976,1.975221,-0.402293,-0.006024
0.147172,0.654051,-1.77616,-0.34027,1.975277,-0.402714,-0.006396
0.147235,0.653952,-1.776201,-0.340353,1.975052,-0.4027,-0.006532
0.147448,0.653777,-1.776335,-0.340534,1.974752,-0.402518,-0.00686
0.147547,0.653738,-1.776345,-0.340571,1.974568,-0.402452,-0.006973
0.147726,0.65364,-1.776213,-0.340698,1.974597,-0.402261,-0.007021
0.147774,0.653596,-1.776059,-0.340743,1.97462,-0.402218,-0.007027
0.148769,0.652631,-1.775707,-0.339793,1.975071,-0.402706,-0.007007
0.148863,0.65261,-1.775616,-0.339829,1.975022,-0.402626,-0.006987
0.149206,0.652592,-1.775575,-0.339913,1.975019,-0.402312,-0.006913
0.149514,0.65251,-1.775542,-0.340053,1.974993,-0.402031,-0.00696
0.149798,0.652519,-1.775552,-0.340093,1.974917,-0.401795,-0.006926
0.150045,0.652448,-1.775465,-0.340207,1.974947,-0.401567,-0.006938
0.150739,0.651806,-1.77534,-0.339713,1.975116,-0.401566,-0.006867
0.150827,0.651781,-1.775269,-0.33975,1.975057,-0.401494,-0.006856
0.151121,0.651701,-1.775108,-0.339861,1.975192,-0.401321,-0.006732
0.151486,0.651619,-1.774946,-0.339911,1.975314,-0.401569,-0.006735
0.152057,0.651649,-1.774706,-0.339935,1.975582,-0.401822,-0.006923
0.152222,0.651616,-1.774654,-0.339961,1.97557,-0.401829,-0.006887
0.152634,0.651564,-1.774595,-0.340022,1.975679,-0.401641,-0.006614
0.152875,0.651525,-1.774537,-0.340077,1.975734,-0.401467,-0.006461
0.153151,0.651468,-1.77452,-0.340117,1.975761,-0.401317,-0.006213
0.153343,0.651291,-1.774481,-0.340194,1.97577,-0.401359,-0.005985
0.154077,0.650549,-1.774299,-0.339618,1.97601,-0.401828,-0.00603
0.154093,0.650549,-1.774237,-0.339618,1.975954,-0.401824,-0.006025
0.154172,0.650451,-1.774069,-0.339738,1.976059,-0.401712,-0.00602
0.154206,0.650409,-1.773999,-0.339785,1.976042,-0.401678,-0.006033
0.154254,0.650317,-1.773811,-0.339897,1.976183,-0.401584,-0.006027
0.154287,0.650276,-1.773741,-0.339942,1.976188,-0.401548,-0.006034
0.154362,0.65018,-1.773596,-0.340037,1.976311,-0.401475,-0.005991
0.154362,0.650132,-1.773537,-0.340078,1.97631,-0.401472,-0.006002
0.154432,0.650003,-1.773461,-0.340165,1.976363,-0.401435,-0.005924
0.15458,0.649644,-1.773478,-0.340118,1.976324,-0.401564,-0.005672
0.154656,0.64931,-1.773512,-0.340012,1.976235,-0.401378,-0.005614
0.154743,0.648607,-1.773428,-0.339203,1.976232,-0.401186,-0.005788
0.154762,0.648539,-1.773369,-0.339267,1.976181,-0.401165,-0.005828
0.154757,0.648476,-1.773291,-0.339324,1.976151,-0.40116,-0.00586
0.154679,0.648362,-1.773159,-0.33942,1.976166,-0.4012,-0.005924
0.154618,0.648312,-1.773054,-0.339455,1.976167,-0.401241,-0.005943
0.154398,0.64816,-1.772919,-0.33949,1.976157,-0.401445,-0.005889
0.154255,0.648045,-1.772854,-0.339486,1.976099,-0.40161,-0.005795
0.154081,0.647733,-1.772835,-0.339465,1.975982,-0.401844,-0.005527
0.15394,0.647492,-1.772814,-0.339317,1.975854,-0.401926,-0.005519
0.153653,0.647239,-1.772835,-0.339191,1.975617,-0.402071,-0.005564
0.153562,0.647149,-1.772793,-0.339117,1.975511,-0.402108,-0.005624
0.153291,0.646807,-1.77275,-0.338961,1.975346,-0.402244,-0.005598
0.153191,0.646778,-1.772665,-0.338938,1.975277,-0.40234,-0.005651
0.153009,0.646537,-1.772532,-0.338842,1.975228,-0.402536,-0.005738
0.153032,0.646349,-1.772427,-0.338696,1.975221,-0.402575,-0.005789
0.152978,0.646257,-1.77231,-0.338772,1.975216,-0.402607,-0.005847
0.153013,0.646142,-1.772158,-0.338817,1.975284,-0.402653,-0.005898
0.153487,0.645822,-1.772003,-0.338592,1.975439,-0.402998,-0.006073
0.153494,0.645751,-1.771997,-0.33858,1.975341,-0.402933,-0.006091
0.15324,0.645576,-1.772113,-0.338425,1.975052,-0.402523,-0.006078
0.153274,0.645558,-1.772073,-0.338443,1.97499,-0.402498,-0.006086
0.153189,0.645296,-1.772018,-0.33844,1.974943,-0.402311,-0.005875
0.153204,0.644554,-1.771847,-0.337655,1.97501,-0.402106,-0.005905
0.153169,0.644459,-1.771631,-0.337751,1.975117,-0.402087,-0.0059
0.153208,0.644411,-1.771549,-0.337801,1.975106,-0.402048,-0.005892
0.153231,0.644241,-1.771557,-0.337933,1.974972,-0.402058,-0.005998
0.153281,0.644139,-1.771619,-0.337998,1.974781,-0.40207,-0.006094
0.153543,0.643811,-1.771606,-0.33786,1.974701,-0.402241,-0.006271
0.15356,0.643714,-1.771545,-0.337895,1.974636,-0.402217,-0.006317
0.153521,0.643384,-1.77148,-0.337816,1.974572,-0.402164,-0.006217
0.153533,0.643281,-1.771408,-0.337711,1.974516,-0.402114,-0.006258
0.153582,0.643097,-1.771395,-0.337672,1.97443,-0.402097,-0.005975
0.153598,0.643097,-1.77133,-0.337672,1.974371,-0.402092,-0.005969
0.153674,0.64291,-1.771383,-0.337581,1.974231,-0.402096,-0.005474
0.153691,0.642909,-1.771316,-0.337581,1.97417,-0.402091,-0.005468
0.153761,0.642919,-1.771221,-0.337554,1.974178,-0.40202,-0.005363
0.153776,0.642919,-1.77116,-0.337554,1.974124,-0.402016,-0.005358
0.153767,0.642784,-1.771114,-0.337535,1.974061,-0.401966,-0.005268
0.153728,0.642687,-1.771096,-0.337482,1.973944,-0.401934,-0.00531
0.153624,0.641838,-1.771089,-0.336593,1.973752,-0.401708,-0.005571
0.153635,0.641804,-1.771033,-0.336619,1.973652,-0.401712,-0.005601
0.153584,0.641726,-1.770989,-0.336669,1.973515,-0.401775,-0.005681
0.153517,0.641716,-1.770923,-0.336653,1.97341,-0.401856,-0.005694
0.153343,0.641456,-1.770885,-0.336701,1.973263,-0.402021,-0.0054
0.153345,0.641421,-1.770845,-0.336721,1.973149,-0.402037,-0.005432
0.153164,0.641344,-1.770842,-0.33673,1.972916,-0.402243,-0.005582
0.153087,0.641268,-1.770814,-0.33677,1.972755,-0.402334,-0.005693
0.152921,0.641238,-1.770817,-0.336739,1.972521,-0.40253,-0.005841
0.152855,0.641227,-1.770729,-0.336657,1.972431,-0.402574,-0.006041
0.152787,0.640975,-1.770632,-0.336557,1.972357,-0.402801,-0.005987
0.152811,0.640875,-1.770562,-0.336455,1.972283,-0.402855,-0.006038
0.152795,0.640824,-1.770604,-0.336396,1.972063,-0.402919,-0.00613
0.152823,0.640805,-1.770608,-0.336355,1.971906,-0.402906,-0.006192
0.152847,0.640833,-1.770733,-0.336235,1.971599,-0.402813,-0.006397
0.152894,0.64083,-1.770708,-0.336234,1.971481,-0.402793,-0.006407
0.152957,0.640903,-1.770725,-0.336157,1.971325,-0.402786,-0.006369
0.152992,0.640953,-1.770701,-0.336101,1.97121,-0.402787,-0.006332
0.153049,0.641013,-1.770697,-0.336038,1.971084,-0.402776,-0.006286
0.153112,0.641053,-1.770715,-0.335991,1.970934,-0.402764,-0.006259
0.153199,0.641113,-1.770776,-0.335926,1.970741,-0.402744,-0.006232
0.153247,0.641135,-1.770782,-0.335896,1.970597,-0.402737,-0.006222
0.153383,0.641179,-1.770831,-0.335858,1.970438,-0.402656,-0.006187
0.15347,0.641174,-1.770813,-0.335868,1.970338,-0.402597,-0.006182
0.153712,0.641222,-1.770861,-0.335854,1.970222,-0.40241,-0.006124
0.153817,0.641214,-1.77084,-0.335875,1.970137,-0.402329,-0.00612
0.154074,0.641268,-1.770846,-0.335868,1.970084,-0.402117,-0.006055
0.154256,0.641295,-1.770811,-0.335878,1.970052,-0.401966,-0.006028
0.154592,0.641433,-1.770729,-0.335848,1.970118,-0.40177,-0.00616
0.154827,0.641527,-1.770647,-0.335823,1.970173,-0.401648,-0.006161
0.155537,0.641863,-1.770446,-0.335773,1.970483,-0.401634,-0.006428
0.155796,0.641913,-1.770365,-0.335799,1.970577,-0.401638,-0.006342
0.156376,0.642039,-1.770233,-0.33586,1.970855,-0.401407,-0.006207
0.156908,0.642159,-1.770139,-0.335953,1.97104,-0.401623,-0.006218
0.157373,0.642141,-1.769994,-0.336104,1.97135,-0.401176,-0.006049
0.157744,0.642287,-1.769991,-0.33612,1.97142,-0.401252,-0.006075
0.158138,0.642349,-1.769948,-0.336196,1.971589,-0.400916,-0.006028
0.158497,0.642651,-1.769875,-0.336222,1.971737,-0.400838,-0.006412
0.158996,0.643447,-1.76984,-0.33708,1.971927,-0.401121,-0.006444
0.159084,0.643487,-1.769791,-0.337074,1.972068,-0.401028,-0.006366
0.160143,0.643732,-1.769458,-0.337087,1.972727,-0.401836,-0.006517
0.160344,0.643705,-1.769442,-0.337153,1.972866,-0.402006,-0.006419
0.160604,0.643878,-1.769452,-0.337076,1.97302,-0.401908,-0.006272
0.160718,0.643951,-1.769524,-0.337035,1.97305,-0.401838,-0.006212
0.161162,0.644413,-1.769623,-0.337064,1.973144,-0.401756,-0.006191
0.161271,0.644554,-1.76969,-0.337215,1.973191,-0.40176,-0.006035
0.161644,0.644837,-1.769537,-0.337337,1.973539,-0.401796,-0.006257
0.161858,0.644889,-1.769452,-0.337467,1.97379,-0.401893,-0.006289
0.16248,0.645135,-1.769308,-0.337651,1.974196,-0.402246,-0.006551
0.162582,0.64513,-1.769357,-0.337687,1.974302,-0.402137,-0.006514
0.162812,0.645113,-1.769323,-0.337784,1.974555,-0.401923,-0.006423
0.163291,0.645626,-1.769386,-0.3384,1.974726,-0.402397,-0.006398
0.163429,0.645625,-1.769489,-0.338431,1.974797,-0.402263,-0.006376
0.163534,0.645657,-1.769552,-0.338431,1.974899,-0.402157,-0.006334
0.163833,0.645793,-1.769583,-0.338423,1.975074,-0.402042,-0.006481
0.163927,0.64582,-1.769642,-0.338428,1.975166,-0.401983,-0.00648
0.164167,0.645786,-1.769754,-0.33851,1.975238,-0.401814,-0.006498
0.164324,0.645783,-1.769858,-0.338538,1.97528,-0.40174,-0.006494
0.164826,0.645713,-1.769926,-0.338582,1.975413,-0.402092,-0.006509
0.164891,0.645669,-1.769968,-0.338628,1.975469,-0.402101,-0.006563
0.165785,0.645639,-1.769849,-0.338621,1.975824,-0.403022,-0.00703
0.165751,0.645618,-1.769884,-0.338632,1.975851,-0.403056,-0.007054
0.165836,0.645637,-1.770066,-0.338604,1.975733,-0.403058,-0.007094
0.165868,0.64561,-1.770126,-0.338633,1.975735,-0.403029,-0.00712
0.166006,0.645653,-1.770334,-0.3386,1.975591,-0.402938,-0.007142
0.165979,0.645693,-1.770438,-0.33855,1.975496,-0.402946,-0.007187
0.165797,0.645697,-1.770384,-0.338511,1.97553,-0.40309,-0.00719
0.165584,0.64569,-1.770332,-0.338439,1.975563,-0.403291,-0.007059
0.165291,0.645592,-1.770323,-0.338386,1.975502,-0.40367,-0.006933
0.165074,0.645563,-1.770359,-0.338349,1.975399,-0.403915,-0.007009
0.165027,0.645025,-1.770435,-0.337783,1.975185,-0.404831,-0.007272
0.164837,0.644998,-1.770441,-0.337762,1.975074,-0.405035,-0.007376
0.164271,0.644988,-1.770404,-0.337648,1.974853,-0.405661,-0.007642
0.164325,0.645106,-1.77021,-0.337588,1.974979,-0.406196,-0.00814
0.16463,0.645213,-1.76991,-0.337558,1.975204,-0.407892,-0.008724
0.164424,0.645198,-1.769852,-0.337533,1.975185,-0.40809,-0.008788
0.163933,0.64527,-1.769745,-0.337356,1.97512,-0.408647,-0.008818
0.163974,0.645277,-1.76973,-0.337418,1.975113,-0.409282,-0.008618
0.163683,0.645354,-1.769709,-0.337273,1.975024,-0.40961,-0.008611
0.16347,0.645346,-1.769667,-0.33723,1.974984,-0.409859,-0.008644
0.163398,0.645325,-1.769595,-0.337211,1.974982,-0.410406,-0.008782
0.163319,0.645326,-1.769569,-0.337194,1.974976,-0.410491,-0.008804
0.16372,0.645445,-1.769546,-0.337168,1.975008,-0.411048,-0.009406
0.163773,0.645415,-1.769637,-0.337187,1.974903,-0.411064,-0.009457
0.164201,0.645419,-1.769709,-0.337236,1.974883,-0.411139,-0.009818
0.164327,0.645407,-1.769722,-0.337265,1.974891,-0.411063,-0.00981
0.165369,0.645214,-1.769585,-0.337174,1.975297,-0.411443,-0.009639
0.165627,0.645271,-1.769508,-0.337184,1.975479,-0.411183,-0.009454
0.166102,0.645206,-1.769415,-0.337286,1.975742,-0.411192,-0.009086
0.166335,0.645293,-1.769343,-0.337302,1.975869,-0.411197,-0.009277
0.167152,0.645828,-1.769148,-0.33761,1.976211,-0.411943,-0.010065
0.167149,0.645808,-1.769159,-0.337631,1.976225,-0.411941,-0.010088
0.167247,0.645801,-1.769102,-0.337679,1.976351,-0.411875,-0.010138
0.167619,0.645857,-1.769016,-0.337691,1.976561,-0.412083,-0.010296
0.167764,0.645728,-1.76901,-0.337755,1.976665,-0.41216,-0.010032
0.167789,0.645697,-1.768984,-0.337789,1.976742,-0.412142,-0.010018
0.167942,0.645781,-1.768831,-0.337786,1.976936,-0.412383,-0.010552
0.168054,0.645865,-1.768703,-0.337791,1.977112,-0.412573,-0.011016
0.167992,0.645818,-1.768607,-0.337858,1.977241,-0.412689,-0.011221
0.16831,0.645931,-1.768467,-0.337837,1.9775,-0.413053,-0.01158
0.168395,0.645691,-1.768374,-0.337946,1.977702,-0.413433,-0.011275
0.168393,0.645669,-1.76833,-0.33797,1.977827,-0.41344,-0.011257
0.168442,0.645698,-1.76831,-0.337962,1.977945,-0.413411,-0.011233
0.168503,0.645753,-1.768388,-0.337925,1.977948,-0.413388,-0.011244
0.168707,0.646186,-1.768298,-0.3378,1.978153,-0.413192,-0.01186
0.168696,0.646186,-1.76834,-0.3378,1.978191,-0.413195,-0.011864
0.168866,0.646271,-1.768119,-0.3378,1.978641,-0.412978,-0.011536
0.169052,0.64622,-1.76809,-0.337876,1.97888,-0.413018,-0.011039
0.169219,0.646239,-1.768012,-0.337915,1.97916,-0.412944,-0.010764
0.169344,0.646259,-1.768078,-0.33795,1.979236,-0.412956,-0.010717
0.16991,0.647172,-1.768139,-0.338795,1.979408,-0.413373,-0.011053
0.169932,0.647164,-1.768226,-0.33881,1.979459,-0.413343,-0.011067
0.170123,0.647182,-1.768218,-0.338858,1.97969,-0.413113,-0.010993
0.170195,0.647188,-1.768176,-0.338904,1.979915,-0.412999,-0.010987
0.17036,0.647178,-1.768035,-0.338995,1.980307,-0.412768,-0.010884
0.170426,0.647175,-1.768046,-0.339031,1.980481,-0.412698,-0.010864
0.170591,0.647158,-1.76811,-0.339068,1.980595,-0.412817,-0.010908
0.170814,0.64709,-1.768176,-0.33912,1.980697,-0.413094,-0.010973
0.170883,0.647049,-1.768296,-0.339146,1.980701,-0.413142,-0.011029
0.170924,0.64701,-1.768408,-0.339187,1.980704,-0.413106,-0.01107
0.171102,0.646906,-1.768739,-0.339282,1.980472,-0.412933,-0.011225
0.170972,0.646897,-1.768832,-0.339236,1.980426,-0.41269,-0.01129
0.170654,0.646726,-1.768988,-0.339226,1.98021,-0.41269,-0.01145
0.170358,0.64599,-1.768999,-0.338468,1.980137,-0.412523,-0.011602
0.170187,0.645475,-1.768975,-0.33818,1.980035,-0.41315,-0.011878
0.170073,0.645421,-1.76896,-0.338206,1.979998,-0.413256,-0.011951
0.169811,0.645354,-1.769035,-0.338189,1.979781,-0.413564,-0.012128
0.169691,0.645306,-1.769048,-0.338199,1.979692,-0.413702,-0.012214
0.169633,0.645303,-1.769145,-0.338147,1.979519,-0.413852,-0.01226
0.169673,0.645286,-1.769202,-0.338155,1.979428,-0.413842,-0.012281
0.169574,0.645027,-1.769541,-0.338114,1.97902,-0.413669,-0.011724
0.169386,0.644928,-1.769629,-0.338029,1.978822,-0.413389,-0.011603
0.169329,0.64488,-1.769639,-0.338047,1.978701,-0.413453,-0.011676
0.169249,0.644869,-1.769589,-0.338036,1.978646,-0.413529,-0.011709
0.16908,0.644802,-1.7695,-0.338065,1.978603,-0.41368,-0.011808
0.16905,0.644832,-1.769479,-0.338008,1.978529,-0.413768,-0.011914
0.169166,0.644921,-1.769395,-0.33793,1.978599,-0.413737,-0.011867
0.169274,0.644986,-1.76934,-0.337888,1.978648,-0.413657,-0.011776
0.169427,0.645097,-1.769326,-0.337807,1.978675,-0.413549,-0.011637
0.169529,0.645214,-1.769343,-0.337709,1.97865,-0.41349,-0.011525
0.169823,0.645386,-1.769553,-0.337552,1.978496,-0.413231,-0.011104
0.169848,0.645411,-1.769618,-0.337511,1.978394,-0.41313,-0.010873
0.169863,0.645448,-1.769582,-0.337479,1.978381,-0.413121,-0.01083
0.169838,0.645446,-1.769514,-0.33748,1.978393,-0.413137,-0.010816
0.169976,0.645379,-1.769294,-0.337593,1.978599,-0.413466,-0.010928
0.169981,0.645379,-1.769275,-0.337593,1.978582,-0.413465,-0.010926
0.170172,0.64546,-1.769304,-0.337553,1.978583,-0.413346,-0.010834
0.170292,0.645462,-1.769364,-0.337565,1.978514,-0.413261,-0.010826
0.170495,0.645536,-1.769442,-0.337525,1.97846,-0.413107,-0.010724
0.170604,0.645507,-1.769445,-0.337565,1.978464,-0.41299,-0.01059
0.17057,0.645296,-1.769508,-0.337651,1.97839,-0.41293,-0.010008
0.170576,0.645296,-1.769483,-0.337651,1.978368,-0.412928,-0.010006
0.170566,0.645155,-1.769454,-0.337776,1.978343,-0.412894,-0.010075
0.170575,0.645105,-1.769452,-0.33782,1.978293,-0.412885,-0.010119
0.170472,0.64493,-1.769474,-0.337963,1.978146,-0.412938,-0.010477
0.17045,0.644922,-1.769498,-0.33796,1.978039,-0.412961,-0.010636
0.170426,0.644877,-1.769547,-0.337973,1.977898,-0.413015,-0.010793
0.170427,0.644855,-1.769546,-0.337984,1.977832,-0.41303,-0.010828
0.17044,0.64486,-1.769598,-0.337959,1.977706,-0.413062,-0.010859
0.170448,0.64486,-1.769568,-0.337959,1.977679,-0.41306,-0.010856
0.170539,0.644928,-1.769609,-0.337899,1.977604,-0.41301,-0.010802
0.170576,0.644963,-1.769599,-0.337866,1.977567,-0.412991,-0.010767
0.17062,0.645051,-1.769484,-0.337787,1.977676,-0.412928,-0.010601
0.170588,0.645089,-1.769423,-0.337746,1.977692,-0.412957,-0.010559
0.170465,0.644898,-1.769217,-0.337486,1.977883,-0.413023,-0.010128
0.170442,0.644926,-1.769177,-0.337456,1.977884,-0.413047,-0.010105
0.170303,0.644979,-1.769218,-0.337364,1.977742,-0.413226,-0.010132
0.170195,0.645034,-1.769252,-0.337278,1.977616,-0.413371,-0.010148
0.170026,0.645032,-1.769362,-0.33722,1.977365,-0.413586,-0.010243
0.16987,0.645024,-1.769298,-0.337197,1.977324,-0.413731,-0.010282
0.169432,0.645017,-1.769318,-0.337104,1.977076,-0.41413,-0.010437
0.169222,0.644961,-1.769232,-0.337129,1.977048,-0.414225,-0.010501
0.168772,0.644877,-1.769121,-0.337126,1.976949,-0.414611,-0.0107
0.168566,0.644818,-1.769023,-0.337149,1.976936,-0.414779,-0.010799
0.168056,0.644742,-1.76881,-0.337144,1.976922,-0.415315,-0.011181
0.167982,0.644734,-1.768717,-0.337149,1.976943,-0.415504,-0.011423
0.168321,0.644547,-1.768569,-0.336832,1.97702,-0.416315,-0.012316
0.168183,0.644454,-1.768578,-0.336886,1.976909,-0.416454,-0.012474
0.16808,0.644409,-1.768646,-0.336911,1.976718,-0.41658,-0.012832
0.168092,0.644413,-1.768737,-0.336891,1.976561,-0.416605,-0.012898
0.167959,0.644359,-1.769014,-0.3368,1.976175,-0.416325,-0.012789
0.168009,0.644397,-1.769107,-0.336746,1.976012,-0.416283,-0.012767
0.167935,0.644258,-1.769163,-0.336779,1.975872,-0.416063,-0.012669
0.167945,0.644258,-1.769124,-0.336779,1.975837,-0.416061,-0.012666
0.168043,0.644156,-1.76902,-0.33689,1.97592,-0.415904,-0.012676
0.168086,0.644142,-1.769004,-0.336907,1.975884,-0.415869,-0.01268
0.168353,0.644181,-1.769131,-0.336896,1.975761,-0.415674,-0.012637
0.168845,0.643625,-1.769194,-0.33619,1.975718,-0.415525,-0.012767
0.169102,0.643662,-1.769276,-0.336189,1.975603,-0.41533,-0.012713
0.169351,0.643669,-1.76929,-0.336225,1.975567,-0.415109,-0.01265
0.16978,0.643623,-1.769271,-0.336358,1.975652,-0.414637,-0.012529
0.1699,0.643617,-1.769226,-0.336388,1.97565,-0.414506,-0.012489
0.170116,0.643549,-1.769206,-0.336504,1.975658,-0.414236,-0.012512
0.170156,0.643538,-1.769191,-0.336518,1.975594,-0.414208,-0.012527
0.170221,0.643576,-1.769193,-0.336536,1.975505,-0.414074,-0.012818
0.170231,0.643576,-1.769153,-0.336536,1.975469,-0.414071,-0.012815
0.17017,0.643582,-1.769077,-0.336522,1.975454,-0.414121,-0.012827
0.170066,0.643583,-1.768994,-0.336509,1.975436,-0.414195,-0.01287
0.169901,0.64364,-1.768945,-0.336434,1.975364,-0.414309,-0.012935
0.1698,0.64363,-1.768912,-0.336422,1.975296,-0.414403,-0.012985
0.169604,0.643657,-1.769039,-0.336332,1.974991,-0.414631,-0.013142
0.169494,0.643625,-1.769016,-0.336335,1.974896,-0.414738,-0.013218
0.169273,0.643573,-1.76908,-0.336323,1.974645,-0.414972,-0.013415
0.16912,0.64363,-1.769077,-0.336275,1.974501,-0.414938,-0.013699
0.168695,0.643738,-1.76903,-0.336185,1.974322,-0.414804,-0.014261
0.168602,0.643706,-1.769022,-0.336189,1.974222,-0.414892,-0.014326
0.168295,0.64372,-1.769082,-0.336062,1.973973,-0.415175,-0.014304
