wangss533/urdfTest/left_arm_joints.csv
left_arm_joint1,left_arm_joint2,left_arm_joint3,left_arm_joint4,left_arm_joint5,left_arm_joint6,left_arm_joint7
0.291608,0.352696,-0.156941,-0.59765,0.37626,-0.033019,0.087476
0.29196,0.352254,-0.156726,-0.597318,0.376052,-0.034109,0.087765
0.292334,0.35173,-0.156475,-0.596919,0.375786,-0.035418,0.088012
0.292511,0.351417,-0.156339,-0.596661,0.375578,-0.036254,0.088033
0.292681,0.35099,-0.156166,-0.596287,0.375237,-0.037468,0.087868
0.292734,0.35082,-0.156083,-0.596155,0.375134,-0.037924,0.087786
0.292896,0.350331,-0.155756,-0.595887,0.375069,-0.039041,0.087642
0.292964,0.350124,-0.155584,-0.595812,0.375123,-0.039463,0.087583
0.29311,0.349574,-0.155141,-0.595612,0.375248,-0.040526,0.087464
0.293147,0.349338,-0.154987,-0.595495,0.375223,-0.040976,0.087445
0.295191,0.347416,-0.150853,-0.597301,0.371439,-0.042177,0.087424
0.295138,0.346995,-0.150689,-0.596996,0.371176,-0.042911,0.087519
0.295123,0.346542,-0.150525,-0.596676,0.370928,-0.043634,0.087478
0.295207,0.346355,-0.150467,-0.596565,0.370901,-0.043851,0.087223
0.295433,0.346204,-0.150455,-0.596507,0.371003,-0.04384,0.086556
0.295499,0.346124,-0.150448,-0.596471,0.371025,-0.043839,0.086304
0.295475,0.345693,-0.150344,-0.596215,0.370875,-0.044147,0.085948
0.295405,0.345452,-0.150278,-0.596066,0.370757,-0.044352,0.085887
0.295173,0.344801,-0.15011,-0.59565,0.370397,-0.044898,0.085761
0.295086,0.344557,-0.150059,-0.595489,0.37025,-0.045085,0.08567
0.295719,0.343447,-0.148334,-0.596093,0.368394,-0.045266,0.085219
0.295585,0.343099,-0.148299,-0.595847,0.368145,-0.045472,0.084967
0.295399,0.342717,-0.148285,-0.595553,0.36781,-0.045706,0.084638
0.295268,0.342523,-0.148311,-0.595373,0.36756,-0.04585,0.084372
0.295046,0.342318,-0.148403,-0.595122,0.367135,-0.046032,0.083914
0.29493,0.342245,-0.148441,-0.595028,0.366961,-0.046086,0.083788
0.294483,0.342002,-0.148502,-0.594785,0.366493,-0.046142,0.083781
0.294241,0.34189,-0.148521,-0.594687,0.366291,-0.046123,0.083893
0.293631,0.341642,-0.148553,-0.594465,0.365805,-0.046104,0.084249
0.293434,0.341576,-0.14856,-0.594395,0.365641,-0.046154,0.084356
0.293462,0.341322,-0.147892,-0.594697,0.364712,-0.046355,0.084498
0.293315,0.341337,-0.147884,-0.594653,0.364555,-0.046598,0.084585
0.293062,0.34134,-0.147841,-0.594601,0.364356,-0.046961,0.084675
0.292821,0.341324,-0.147768,-0.59458,0.364242,-0.047267,0.084706
0.292356,0.341284,-0.147594,-0.594566,0.364087,-0.047841,0.084712
0.292121,0.341249,-0.147533,-0.594539,0.363976,-0.04807,0.084732
0.291298,0.341047,-0.147459,-0.594319,0.36339,-0.048597,0.084927
0.290864,0.340912,-0.147453,-0.594168,0.363032,-0.048804,0.085062
0.289786,0.340616,-0.147459,-0.593811,0.362142,-0.049276,0.085379
0.289448,0.340571,-0.147458,-0.593734,0.361892,-0.049433,0.085445
0.289072,0.340677,-0.14727,-0.593867,0.361444,-0.049832,0.085304
0.28886,0.34087,-0.147278,-0.593968,0.361399,-0.049947,0.085166
0.288481,0.340986,-0.14725,-0.594009,0.361237,-0.050172,0.085232
0.28803,0.340864,-0.147178,-0.593892,0.360939,-0.05046,0.085666
0.287141,0.340463,-0.147,-0.593565,0.360296,-0.051048,0.086773
0.286824,0.34032,-0.146935,-0.593453,0.360078,-0.05125,0.08713
0.286342,0.340227,-0.146842,-0.593393,0.359858,-0.051513,0.087257
0.28625,0.340274,-0.146824,-0.593442,0.35988,-0.051542,0.087054
0.286102,0.340405,-0.146803,-0.593581,0.359985,-0.05153,0.08643
0.286026,0.340403,-0.146799,-0.593591,0.359976,-0.051518,0.086294
0.285799,0.3402,-0.146797,-0.593438,0.359754,-0.051577,0.086302
0.285649,0.34004,-0.146811,-0.593321,0.359593,-0.051516,0.086396
0.285496,0.339855,-0.14682,-0.593196,0.359432,-0.05144,0.086517
0.28543,0.33976,-0.146811,-0.593142,0.359378,-0.051406,0.086579
0.285385,0.339635,-0.146782,-0.593086,0.359356,-0.051359,0.086688
0.285379,0.339596,-0.146773,-0.593075,0.359364,-0.051321,0.086738
0.28538,0.33953,-0.146769,-0.593077,0.359418,-0.05111,0.086899
0.285389,0.339518,-0.146774,-0.593092,0.359456,-0.050984,0.086985
0.28544,0.339508,-0.14679,-0.593148,0.359584,-0.050641,0.087161
0.285473,0.339507,-0.146793,-0.593174,0.359647,-0.050517,0.087184
0.285587,0.339506,-0.146793,-0.593261,0.359784,-0.050171,0.087083
0.285673,0.339518,-0.146803,-0.593312,0.359904,-0.049989,0.086965
0.285842,0.339549,-0.146769,-0.59341,0.36014,-0.049844,0.086816
0.286048,0.339587,-0.146686,-0.59352,0.360417,-0.049846,0.08672
0.286481,0.339672,-0.146479,-0.593748,0.360999,-0.04999,0.086559
0.286628,0.33971,-0.146393,-0.59384,0.36122,-0.050065,0.086507
0.286772,0.339811,-0.146227,-0.594028,0.361587,-0.050219,0.086473
0.286752,0.339854,-0.146177,-0.594087,0.361666,-0.050277,0.086507
0.286679,0.339973,-0.146021,-0.594265,0.361908,-0.050465,0.086531
0.286693,0.340027,-0.145921,-0.594371,0.362091,-0.050574,0.086457
0.286905,0.340211,-0.145527,-0.594806,0.36281,-0.050873,0.085939
0.28706,0.34033,-0.145267,-0.595086,0.363359,-0.051125,0.085539
0.287204,0.340415,-0.144886,-0.595413,0.36404,-0.051549,0.085127
0.287256,0.340383,-0.144562,-0.59559,0.36448,-0.051973,0.085008
0.287273,0.340221,-0.143963,-0.595824,0.365161,-0.052817,0.084981
0.287234,0.340157,-0.14373,-0.595914,0.365406,-0.053149,0.084949
0.286946,0.340105,-0.143257,-0.596165,0.365887,-0.053786,0.084645
0.286751,0.340121,-0.143116,-0.596268,0.366014,-0.053958,0.084465
0.286222,0.340128,-0.142696,-0.596534,0.366373,-0.054524,0.083916
0.286047,0.340079,-0.142438,-0.596648,0.366601,-0.054918,0.083666
0.285772,0.33978,-0.141461,-0.596991,0.367503,-0.056469,0.082952
0.285608,0.33955,-0.140785,-0.597209,0.368148,-0.057541,0.082465
0.285334,0.339202,-0.139924,-0.597383,0.368793,-0.059163,0.081802
0.285098,0.338873,-0.139309,-0.597355,0.369021,-0.060694,0.08128
0.284646,0.338231,-0.138298,-0.597121,0.369109,-0.063642,0.080372
0.284395,0.338018,-0.13796,-0.597034,0.369085,-0.064649,0.080039
0.283461,0.337801,-0.137474,-0.596989,0.368902,-0.06598,0.079389
0.282972,0.337824,-0.137422,-0.59701,0.368738,-0.066123,0.079192
0.28164,0.337967,-0.137353,-0.597179,0.368416,-0.066036,0.078755
0.28112,0.338001,-0.137253,-0.597308,0.368434,-0.065973,0.078575
0.279804,0.338027,-0.136923,-0.597722,0.369028,-0.065717,0.078283
0.279007,0.338039,-0.136599,-0.598143,0.369517,-0.065288,0.078081
0.278034,0.338013,-0.136078,-0.598622,0.370116,-0.065275,0.077531
0.277442,0.337959,-0.13559,-0.598881,0.370496,-0.065954,0.076757
0.276591,0.337802,-0.134633,-0.599207,0.371089,-0.067877,0.075051
0.276209,0.33771,-0.134245,-0.5993,0.371267,-0.068713,0.074378
0.274936,0.337354,-0.133358,-0.599399,0.371402,-0.070586,0.073091
0.274323,0.337146,-0.133018,-0.599364,0.371324,-0.071355,0.072692
0.272713,0.336672,-0.132189,-0.599321,0.371138,-0.073145,0.071692
0.272092,0.336574,-0.131864,-0.599403,0.371184,-0.073717,0.071207
0.270628,0.33662,-0.131188,-0.599772,0.371901,-0.075029,0.069595
0.269767,0.336757,-0.130711,-0.600226,0.372389,-0.075414,0.068542
0.268498,0.33694,-0.130164,-0.600737,0.372796,-0.075902,0.067489
0.267348,0.337052,-0.129897,-0.600939,0.372669,-0.076279,0.067204
0.265233,0.337258,-0.129605,-0.601141,0.372072,-0.076839,0.067249
0.26446,0.337341,-0.129429,-0.601279,0.37198,-0.077076,0.0672
0.263033,0.337554,-0.128609,-0.602034,0.372777,-0.077706,0.066329
0.262621,0.337653,-0.128167,-0.602475,0.373429,-0.077935,0.065751
0.26148,0.338121,-0.127052,-0.604034,0.375729,-0.077272,0.064065
0.261151,0.338128,-0.126477,-0.604478,0.376512,-0.077742,0.063503
0.260315,0.338007,-0.125079,-0.605323,0.378516,-0.079531,0.062459
0.259859,0.337861,-0.124057,-0.605946,0.379761,-0.080546,0.06184
0.259432,0.337411,-0.122416,-0.606637,0.381461,-0.082821,0.060769
0.259266,0.336863,-0.120925,-0.607091,0.38289,-0.085181,0.059725
0.259156,0.335638,-0.118084,-0.607737,0.385448,-0.09002,0.057654
0.258932,0.335245,-0.117035,-0.608061,0.386596,-0.091543,0.056622
0.258441,0.333787,-0.11414,-0.608238,0.388473,-0.097366,0.053525
0.258189,0.333055,-0.11291,-0.608101,0.388995,-0.100211,0.051999
0.257364,0.331335,-0.109913,-0.60773,0.390125,-0.107214,0.048179
0.256948,0.330875,-0.108852,-0.607756,0.390645,-0.109476,0.046898
0.255763,0.330381,-0.106669,-0.608237,0.392198,-0.113822,0.044281
0.254923,0.330434,-0.105537,-0.608868,0.393226,-0.115512,0.042995
0.253576,0.330717,-0.104148,-0.609904,0.394621,-0.117251,0.041711
0.252351,0.331138,-0.103227,-0.610904,0.395734,-0.117971,0.041218
0.249983,0.332228,-0.101918,-0.612931,0.397681,-0.118218,0.04107
0.24896,0.33267,-0.101388,-0.613725,0.398397,-0.118383,0.041025
0.24621,0.333521,-0.099897,-0.615329,0.399738,-0.119816,0.040534
0.244983,0.333812,-0.099275,-0.615864,0.400095,-0.120639,0.040287
0.241963,0.334433,-0.097581,-0.617127,0.401005,-0.123112,0.039447
0.240906,0.334633,-0.096815,-0.617656,0.401528,-0.124237,0.038971
0.238836,0.335087,-0.094742,-0.619032,0.403675,-0.127506,0.037255
0.237785,0.335226,-0.093276,-0.619901,0.405006,-0.12972,0.036042
0.235978,0.335317,-0.091387,-0.620927,0.406434,-0.13257,0.034557
0.234151,0.335405,-0.090141,-0.621609,0.407095,-0.134377,0.03371
0.230574,0.335471,-0.088174,-0.622595,0.407749,-0.137186,0.032485
0.229028,0.335319,-0.087297,-0.622869,0.407912,-0.138535,0.031905
0.224954,0.334485,-0.084742,-0.623594,0.408724,-0.141824,0.029827
0.223302,0.333753,-0.083463,-0.623592,0.4089,-0.143949,0.028857
0.218745,0.331471,-0.080087,-0.623158,0.408873,-0.149848,0.026104
0.216664,0.33045,-0.078755,-0.622774,0.408523,-0.152357,0.024884
0.210511,0.327483,-0.075644,-0.620849,0.406664,-0.159376,0.021424
0.206479,0.325449,-0.073605,-0.619448,0.40496,-0.163801,0.019135
0.200991,0.322846,-0.070875,-0.617625,0.40271,-0.169583,0.016084
0.196899,0.321049,-0.068814,-0.616398,0.401188,-0.173777,0.013824
0.189895,0.318174,-0.065361,-0.614386,0.398638,-0.180641,0.010019
0.186946,0.316682,-0.063753,-0.612986,0.397027,-0.18457,0.008586
0.179351,0.314175,-0.060518,-0.611082,0.394187,-0.190666,0.005138
0.176201,0.313267,-0.059291,-0.610335,0.392953,-0.192974,0.003872
0.168036,0.310839,-0.056073,-0.608242,0.389634,-0.19906,0.000692
0.164635,0.309652,-0.054608,-0.607196,0.388189,-0.201877,-0.000685
0.155205,0.306289,-0.051347,-0.603134,0.384908,-0.21052,-0.004302
0.149558,0.303851,-0.048608,-0.600873,0.382313,-0.215803,-0.006647
0.141644,0.299954,-0.044366,-0.596793,0.378048,-0.224644,-0.009942
0.135852,0.297485,-0.041366,-0.594652,0.375728,-0.229747,-0.012612
0.12544,0.292334,-0.035459,-0.589263,0.370595,-0.241083,-0.017307
0.12128,0.290459,-0.033198,-0.587408,0.368779,-0.244994,-0.019264
0.110194,0.285352,-0.027216,-0.581497,0.362928,-0.256042,-0.024234
0.105465,0.283184,-0.024709,-0.578699,0.360128,-0.260815,-0.026261
0.093538,0.277754,-0.018245,-0.57159,0.353228,-0.272649,-0.031583
0.088942,0.275646,-0.015604,-0.568983,0.350881,-0.277113,-0.033859
0.077016,0.271227,-0.010861,-0.561674,0.347893,-0.288319,-0.039834
0.070563,0.268207,-0.006748,-0.558308,0.345501,-0.294467,-0.043709
0.061825,0.26373,-0.0007,-0.553171,0.341989,-0.303497,-0.049
0.055738,0.260448,0.003842,-0.549904,0.340224,-0.309665,-0.053059
0.046003,0.254906,0.011587,-0.544801,0.338072,-0.31963,-0.059987
0.042015,0.252764,0.014574,-0.542726,0.337057,-0.323397,-0.062673
0.030878,0.247455,0.021826,-0.536234,0.332506,-0.333015,-0.068869
0.026101,0.245353,0.024662,-0.533267,0.330112,-0.336871,-0.071166
0.013372,0.240122,0.031832,-0.524895,0.322886,-0.346797,-0.076851
0.008062,0.238126,0.034684,-0.521367,0.31971,-0.350708,-0.079208
-0.007463,0.234028,0.039545,-0.50929,0.312581,-0.361972,-0.08532
-0.016954,0.230913,0.044442,-0.501987,0.305695,-0.368945,-0.089243
-0.0286,0.227605,0.04993,-0.494316,0.298045,-0.375839,-0.09409
-0.037279,0.225241,0.053894,-0.488829,0.292419,-0.38055,-0.097437
-0.052014,0.221389,0.06051,-0.479496,0.282691,-0.388168,-0.102725
-0.057373,0.220131,0.062751,-0.476619,0.279517,-0.390396,-0.104752
-0.070699,0.216803,0.068846,-0.469005,0.271652,-0.396482,-0.110062
-0.076515,0.215179,0.07181,-0.465036,0.267821,-0.399706,-0.112041
-0.088461,0.212313,0.07729,-0.45914,0.261725,-0.404363,-0.117222
-0.093431,0.211067,0.079672,-0.456489,0.259059,-0.406466,-0.119177
-0.110687,0.207912,0.084553,-0.442018,0.252025,-0.416836,-0.123797
-0.12014,0.205278,0.090022,-0.434948,0.245522,-0.422327,-0.126444
-0.133011,0.201634,0.097825,-0.425198,0.23685,-0.429781,-0.130365
-0.141055,0.199366,0.102647,-0.420312,0.232722,-0.433572,-0.13396
-0.156325,0.194786,0.112965,-0.409235,0.22411,-0.442092,-0.141322
-0.162284,0.193059,0.116901,-0.40518,0.220915,-0.445106,-0.144153
-0.18008,0.188223,0.129008,-0.391281,0.209461,-0.454747,-0.151244
-0.18715,0.18642,0.133693,-0.386017,0.204979,-0.458204,-0.153963
-0.206976,0.18165,0.147529,-0.370059,0.191196,-0.46826,-0.160993
-0.214076,0.180039,0.152328,-0.364959,0.186644,-0.471349,-0.163617
-0.23935,0.176494,0.165274,-0.341204,0.17292,-0.48443,-0.170482
-0.251574,0.174143,0.174395,-0.331676,0.164013,-0.489667,-0.174469
-0.272505,0.170708,0.192098,-0.312707,0.14588,-0.499678,-0.180773
-0.28776,0.168612,0.205729,-0.299284,0.132079,-0.50635,-0.185667
-0.317193,0.165429,0.235948,-0.2722,0.101211,-0.518821,-0.194865
-0.329077,0.164238,0.250257,-0.2616,0.086781,-0.523328,-0.198745
-0.359754,0.160215,0.301906,-0.235887,0.035529,-0.53357,-0.209881
-0.368878,0.157622,0.327594,-0.230759,0.01082,-0.535749,-0.21475
-0.344637,0.033328,0.739169,-0.405139,-0.373039,-0.469395,-0.283079
-0.346536,0.037702,0.726889,-0.398557,-0.360301,-0.475558,-0.282868
-0.343498,0.045417,0.683738,-0.393185,-0.315971,-0.486972,-0.281745
-0.345418,0.051975,0.660185,-0.3848,-0.292023,-0.495304,-0.281209
-0.348048,0.060538,0.627031,-0.374513,-0.258911,-0.505351,-0.279908
-0.349545,0.064416,0.607531,-0.370208,-0.239579,-0.512009,-0.279499
-0.351197,0.070711,0.571867,-0.365186,-0.204916,-0.521117,-0.277806
-0.351366,0.072882,0.557354,-0.364305,-0.190838,-0.52424,-0.27706
-0.350188,0.076111,0.525186,-0.366304,-0.15926,-0.531089,-0.275979
-0.348397,0.077644,0.508998,-0.368798,-0.143364,-0.532696,-0.274974
-0.344699,0.078451,0.481647,-0.377073,-0.116186,-0.537152,-0.274516
-0.343889,0.078208,0.474352,-0.380141,-0.108846,-0.539359,-0.274986
-0.380508,0.102936,0.428724,-0.32251,-0.068416,-0.563327,-0.271567
-0.378481,0.103163,0.413731,-0.32786,-0.05334,-0.566379,-0.272205
-0.374012,0.103374,0.392257,-0.337746,-0.031839,-0.568964,-0.272646
-0.370665,0.103111,0.378644,-0.345781,-0.018298,-0.570667,-0.273148
-0.36583,0.102042,0.360903,-0.359284,-0.000815,-0.57331,-0.274442
-0.365607,0.101418,0.357148,-0.3629,0.002718,-0.574884,-0.275297
-0.363863,0.100373,0.345237,-0.374209,0.01395,-0.576024,-0.27651
-0.364187,0.099925,0.342069,-0.377763,0.016756,-0.576436,-0.277081
-0.364841,0.099087,0.333531,-0.387303,0.024126,-0.576105,-0.277887
-0.36625,0.098653,0.33183,-0.389779,0.025168,-0.576395,-0.278237
-0.397482,0.113413,0.298935,-0.34972,0.051696,-0.592252,-0.274984
-0.401231,0.11288,0.29821,-0.351652,0.050839,-0.592669,-0.274942
-0.404821,0.112284,0.295072,-0.356021,0.052015,-0.592087,-0.274538
-0.408286,0.111618,0.293895,-0.358341,0.051807,-0.591924,-0.274449
-0.413791,0.110448,0.291479,-0.362581,0.052005,-0.591085,-0.274141
-0.414022,0.110237,0.287765,-0.366708,0.054973,-0.589556,-0.273638
-0.418576,0.109076,0.285012,-0.371321,0.055825,-0.589222,-0.273888
-0.420032,0.108625,0.283649,-0.373421,0.056522,-0.589134,-0.27409
-0.423457,0.10752,0.280162,-0.378774,0.058366,-0.589052,-0.274743
-0.424954,0.107086,0.278896,-0.380799,0.058914,-0.589082,-0.275034
-0.441304,0.113995,0.25722,-0.364376,0.076334,-0.596465,-0.273711
-0.443976,0.113389,0.255811,-0.366959,0.076422,-0.596772,-0.274297
-0.447257,0.112475,0.253818,-0.370701,0.077017,-0.597305,-0.275072
-0.449422,0.111658,0.252243,-0.37383,0.078037,-0.597813,-0.275666
-0.452716,0.110141,0.249562,-0.379384,0.08031,-0.598843,-0.276664
-0.45263,0.109732,0.246728,-0.383439,0.083006,-0.598367,-0.276697
-0.455771,0.108212,0.243747,-0.389042,0.084738,-0.599665,-0.277172
-0.456996,0.107594,0.242458,-0.391304,0.085308,-0.600228,-0.277187
-0.459878,0.106114,0.239081,-0.397102,0.086798,-0.601672,-0.27734
-0.460922,0.105583,0.237691,-0.399508,0.087535,-0.602239,-0.277632
-0.469575,0.108676,0.223795,-0.394665,0.098832,-0.607592,-0.277927
-0.470832,0.108103,0.221638,-0.398483,0.1002,-0.60843,-0.279075
-0.472245,0.107244,0.218645,-0.404008,0.102612,-0.60951,-0.280612
-0.471422,0.106778,0.214436,-0.410801,0.107047,-0.609012,-0.281356
-0.473108,0.105209,0.211246,-0.418069,0.111069,-0.610658,-0.283431
-0.473904,0.104563,0.210091,-0.420877,0.112545,-0.611466,-0.284238
-0.474672,0.103423,0.205539,-0.429853,0.11746,-0.612635,-0.285633
-0.476055,0.1028,0.204826,-0.432084,0.118115,-0.61398,-0.28634
-0.479588,0.101218,0.203043,-0.437686,0.11967,-0.617477,-0.287991
-0.480882,0.10056,0.202214,-0.44009,0.120448,-0.618808,-0.288605
-0.48629,0.101141,0.1938,-0.441829,0.128507,-0.623653,-0.289215
-0.487632,0.100123,0.191988,-0.446285,0.130402,-0.625267,-0.289886
-0.489975,0.0988,0.189982,-0.451609,0.132232,-0.62771,-0.29089
-0.490921,0.098225,0.187354,-0.456909,0.134395,-0.628688,-0.291368
-0.495863,0.096661,0.186238,-0.461325,0.134131,-0.632797,-0.292923
-0.497799,0.096059,0.185788,-0.463154,0.134149,-0.634374,-0.293637
-0.501775,0.094667,0.184183,-0.468775,0.13561,-0.637664,-0.295824
-0.503123,0.094156,0.183413,-0.471331,0.136619,-0.63878,-0.296876
-0.506501,0.092875,0.181634,-0.477676,0.139279,-0.641532,-0.299542
-0.507998,0.09233,0.181083,-0.480001,0.140167,-0.64273,-0.30048
-0.512826,0.092191,0.176795,-0.483641,0.145143,-0.646589,-0.301984
-0.515299,0.09132,0.176308,-0.486754,0.146191,-0.648603,-0.303012
-0.518844,0.090167,0.175846,-0.490593,0.147347,-0.651188,-0.304307
-0.521718,0.089305,0.17563,-0.493228,0.147996,-0.65303,-0.305192
-0.5268,0.08788,0.175492,-0.497244,0.148781,-0.655986,-0.306518
-0.528868,0.087342,0.17549,-0.49876,0.149066,-0.657077,-0.307069
-0.533849,0.086174,0.175473,-0.50258,0.150025,-0.659435,-0.308689
-0.535737,0.085782,0.175438,-0.504164,0.150537,-0.660239,-0.309418
-0.540594,0.084849,0.175501,-0.507792,0.151604,-0.66206,-0.311214
-0.542723,0.084449,0.17566,-0.508952,0.151769,-0.662762,-0.311853
-0.549443,0.08393,0.175438,-0.509411,0.152289,-0.665208,-0.313261
-0.55308,0.083313,0.17603,-0.510324,0.1518,-0.666171,-0.314044
-0.557947,0.082368,0.176801,-0.511564,0.151192,-0.667329,-0.314767
-0.561563,0.081504,0.177303,-0.51265,0.150885,-0.668055,-0.314864
-0.567537,0.079902,0.178046,-0.514567,0.150478,-0.669065,-0.314482
-0.569887,0.079286,0.178328,-0.515321,0.150314,-0.669461,-0.31441
-0.575627,0.077975,0.179068,-0.517063,0.149878,-0.670582,-0.315094
-0.577864,0.077513,0.179377,-0.517735,0.149735,-0.671069,-0.315641
-0.583167,0.076509,0.179896,-0.519552,0.149393,-0.672194,-0.31714
-0.585132,0.076171,0.179911,-0.520383,0.149225,-0.672549,-0.317631
-0.589958,0.075835,0.178738,-0.522056,0.14928,-0.673455,-0.318451
-0.592326,0.075566,0.178105,-0.523705,0.148982,-0.673666,-0.318896
-0.595404,0.07522,0.1772,-0.52592,0.148572,-0.67398,-0.319541
-0.597795,0.074979,0.176578,-0.527441,0.148115,-0.674268,-0.320096
-0.601688,0.074622,0.175444,-0.529966,0.147268,-0.674764,-0.321077
-0.603062,0.074437,0.174887,-0.531161,0.14713,-0.674987,-0.32149
-0.605698,0.073733,0.173069,-0.535052,0.147818,-0.6756,-0.322558
-0.606482,0.073372,0.172189,-0.536915,0.148437,-0.675846,-0.322992
-0.608047,0.072357,0.169822,-0.541935,0.150395,-0.676652,-0.324156
-0.608598,0.071931,0.168874,-0.54397,0.151216,-0.677118,-0.324676
-0.609791,0.070876,0.166192,-0.549023,0.153762,-0.678817,-0.326082
-0.610302,0.070121,0.164725,-0.552266,0.155232,-0.679973,-0.327027
-0.611066,0.069175,0.16284,-0.556417,0.157006,-0.681566,-0.328364
-0.611793,0.06856,0.161535,-0.559311,0.158096,-0.682818,-0.32946
-0.613105,0.06762,0.159457,-0.563914,0.159683,-0.68502,-0.331422
-0.613583,0.067239,0.158585,-0.565755,0.160316,-0.685834,-0.332188
-0.614297,0.066184,0.156031,-0.570711,0.16226,-0.687402,-0.333956
-0.613142,0.066177,0.153678,-0.574578,0.164441,-0.686769,-0.334292
-0.613827,0.064959,0.151119,-0.57919,0.166113,-0.688112,-0.335886
-0.61444,0.064517,0.150287,-0.580635,0.16633,-0.688722,-0.336371
-0.616396,0.063716,0.148386,-0.583872,0.165686,-0.689953,-0.336951
-0.618443,0.063167,0.147782,-0.584631,0.164429,-0.691186,-0.337216
-0.621221,0.06236,0.147143,-0.585645,0.162987,-0.692764,-0.337594
-0.623251,0.061666,0.146769,-0.586538,0.162282,-0.693871,-0.337939
-0.626712,0.060428,0.146356,-0.588014,0.161375,-0.695624,-0.338492
-0.628101,0.059922,0.146235,-0.588621,0.161108,-0.696267,-0.338711
-0.631479,0.058663,0.145932,-0.590339,0.160793,-0.697616,-0.339243
-0.632805,0.058145,0.145825,-0.591106,0.160824,-0.698055,-0.339445
-0.63613,0.056891,0.145656,-0.592965,0.160975,-0.699072,-0.339958
-0.637482,0.056437,0.145644,-0.593606,0.160961,-0.699498,-0.340184
-0.641018,0.055335,0.145985,-0.594776,0.160527,-0.700738,-0.34081
-0.643115,0.054781,0.146175,-0.595412,0.160302,-0.70145,-0.341196
-0.645735,0.054185,0.146266,-0.596488,0.160166,-0.702202,-0.341775
-0.647493,0.053887,0.146111,-0.597637,0.160298,-0.702527,-0.342264
-0.650136,0.053614,0.145602,-0.599928,0.160791,-0.70278,-0.343164
-0.651128,0.053539,0.14538,-0.60084,0.160994,-0.702862,-0.343555
-0.653429,0.053383,0.144864,-0.602919,0.161416,-0.703159,-0.34466
-0.654222,0.053364,0.14462,-0.603764,0.16162,-0.703271,-0.345168
-0.656211,0.05331,0.144099,-0.605636,0.161948,-0.703634,-0.34639
-0.657128,0.053239,0.143998,-0.606175,0.1619,-0.703856,-0.346785
-0.659736,0.052957,0.144077,-0.606984,0.161253,-0.704648,-0.347588
-0.661409,0.052746,0.144219,-0.607203,0.16067,-0.705226,-0.34794
-0.663673,0.05235,0.144464,-0.607316,0.159756,-0.706021,-0.348184
-0.665379,0.051902,0.144666,-0.607266,0.158962,-0.706622,-0.348064
-0.668254,0.050977,0.14507,-0.606924,0.157427,-0.707674,-0.347486
-0.669397,0.05064,0.145254,-0.606757,0.156808,-0.708099,-0.347325
-0.672225,0.050102,0.145794,-0.606322,0.155319,-0.709186,-0.347585
-0.673355,0.049985,0.146048,-0.606101,0.154701,-0.709649,-0.347897
-0.677441,0.049218,0.147975,-0.603772,0.152037,-0.711958,-0.349245
-0.678441,0.049104,0.148174,-0.603763,0.151697,-0.712287,-0.349571
-0.679394,0.049442,0.147034,-0.605944,0.152873,-0.711611,-0.349815
-0.680539,0.049279,0.147105,-0.606511,0.153017,-0.711723,-0.350182
-0.682104,0.048907,0.147289,-0.60725,0.153312,-0.712002,-0.350695
-0.683335,0.048444,0.147554,-0.607737,0.153613,-0.712399,-0.351121
-0.685416,0.047448,0.148113,-0.608559,0.15431,-0.713228,-0.35186
-0.686284,0.047039,0.148343,-0.60888,0.154571,-0.713567,-0.35215
-0.688669,0.046118,0.148887,-0.609586,0.154932,-0.714327,-0.352809
-0.689724,0.045759,0.149111,-0.609818,0.15497,-0.714614,-0.353047
-0.692303,0.04491,0.14963,-0.610476,0.155121,-0.715325,-0.353663
-0.693202,0.044608,0.149796,-0.610845,0.155309,-0.715611,-0.353942
-0.695017,0.044034,0.149933,-0.612069,0.156319,-0.716327,-0.354674
-0.695924,0.043709,0.150019,-0.612994,0.157015,-0.716729,-0.355166
-0.697297,0.043249,0.150263,-0.614059,0.157824,-0.717388,-0.355956
-0.698626,0.042877,0.150663,-0.614543,0.158186,-0.718041,-0.35674
-0.701073,0.042239,0.151519,-0.615108,0.158623,-0.719295,-0.358262
-0.701942,0.041962,0.15177,-0.615477,0.158914,-0.719768,-0.358815
-0.703467,0.041091,0.151883,-0.617198,0.160294,-0.720764,-0.359709
-0.703851,0.040665,0.151744,-0.618179,0.161087,-0.721095,-0.359876
-0.704749,0.039612,0.151363,-0.620655,0.163075,-0.721993,-0.360385
-0.70523,0.039269,0.151321,-0.62144,0.16369,-0.722447,-0.360809
-0.707003,0.038622,0.151664,-0.622537,0.164617,-0.72411,-0.362737
-0.7081,0.038322,0.151955,-0.623099,0.16501,-0.725143,-0.364123
-0.710868,0.037379,0.153582,-0.621911,0.164187,-0.727605,-0.366148
-0.711761,0.037091,0.153721,-0.622513,0.164563,-0.728306,-0.366975
-0.713089,0.036664,0.153836,-0.623536,0.165153,-0.729234,-0.36801
-0.713597,0.036499,0.153847,-0.623972,0.165396,-0.729553,-0.36839
-0.71481,0.036088,0.153754,-0.625249,0.166142,-0.730244,-0.369457
-0.715236,0.035936,0.153652,-0.625851,0.166512,-0.730451,-0.369904
-0.716431,0.035515,0.153418,-0.627258,0.167291,-0.730963,-0.370937
-0.71706,0.035303,0.153395,-0.627671,0.167434,-0.731229,-0.371277
-0.7178,0.035153,0.152196,-0.630012,0.168575,-0.730987,-0.3714
-0.71915,0.034687,0.152306,-0.630256,0.168306,-0.731543,-0.37163
-0.722529,0.033582,0.153951,-0.628422,0.166537,-0.733528,-0.372538
-0.724116,0.033313,0.154377,-0.628342,0.166158,-0.734084,-0.373159
-0.726971,0.033002,0.155324,-0.62795,0.165404,-0.734995,-0.374431
-0.728208,0.032858,0.15576,-0.627709,0.165048,-0.735287,-0.374853
-0.731561,0.032275,0.156918,-0.62695,0.164051,-0.735671,-0.375324
-0.732991,0.03197,0.15741,-0.626598,0.163632,-0.735701,-0.375339
-0.73686,0.031189,0.158818,-0.6254,0.162301,-0.735632,-0.375076
-0.738549,0.030921,0.159485,-0.624727,0.161575,-0.735595,-0.37488
-0.743669,0.030414,0.161558,-0.621805,0.158996,-0.735713,-0.374116
-0.746786,0.030126,0.162977,-0.62004,0.157167,-0.73561,-0.373489
-0.750632,0.029789,0.164682,-0.618039,0.155037,-0.735415,-0.372606
-0.753178,0.029592,0.165734,-0.616959,0.153796,-0.73517,-0.371839
-0.757052,0.029337,0.167254,-0.615589,0.152092,-0.734658,-0.370427
-0.758445,0.029221,0.167792,-0.615168,0.151559,-0.734516,-0.369989
-0.761379,0.02881,0.168925,-0.614495,0.150746,-0.734506,-0.369597
-0.762308,0.028613,0.169269,-0.61442,0.150656,-0.7346,-0.369666
-0.764471,0.028052,0.1701,-0.614299,0.150572,-0.735081,-0.370185
-0.765424,0.027803,0.170507,-0.614134,0.150443,-0.735379,-0.370472
-0.768701,0.027124,0.1719,-0.612349,0.149639,-0.737025,-0.371627
-0.770402,0.026649,0.17278,-0.611679,0.149127,-0.737894,-0.372433
-0.772582,0.025989,0.17388,-0.610995,0.148647,-0.739001,-0.373388
-0.774123,0.025466,0.174626,-0.610711,0.148513,-0.739762,-0.373975
-0.776598,0.024541,0.175792,-0.610484,0.148543,-0.741002,-0.374832
-0.778531,0.023823,0.177174,-0.609119,0.147683,-0.742308,-0.375394
-0.780817,0.022925,0.178141,-0.609227,0.147924,-0.7433,-0.375677
-0.781676,0.022567,0.178467,-0.609374,0.148094,-0.743613,-0.375625
-0.783716,0.021738,0.179187,-0.609859,0.148557,-0.744378,-0.375453
-0.784496,0.021457,0.179451,-0.610051,0.148706,-0.744743,-0.375492
-0.785745,0.021332,0.178961,-0.611242,0.150004,-0.745337,-0.375502
-0.786753,0.021067,0.179235,-0.611606,0.150162,-0.746022,-0.375796
-0.788136,0.020791,0.179666,-0.611999,0.150325,-0.746987,-0.376479
-0.789206,0.020678,0.180059,-0.612221,0.150446,-0.74774,-0.377379
-0.792033,0.020264,0.181768,-0.611107,0.149661,-0.749925,-0.379661
-0.792834,0.020211,0.182122,-0.611104,0.149624,-0.750511,-0.380389
-0.794952,0.019918,0.183057,-0.610927,0.149276,-0.752053,-0.38153
-0.795806,0.019766,0.183429,-0.61083,0.149077,-0.75269,-0.381796
-0.79826,0.01926,0.184587,-0.610188,0.148209,-0.754427,-0.382199
-0.799473,0.018986,0.185221,-0.609656,0.147632,-0.755211,-0.382306
-0.803933,0.018168,0.187447,-0.606464,0.145259,-0.757929,-0.382335
-0.806669,0.017503,0.189093,-0.604574,0.14345,-0.759481,-0.382244
-0.809591,0.016711,0.190713,-0.602913,0.141782,-0.761165,-0.382162
-0.810996,0.016189,0.191319,-0.602591,0.141363,-0.762063,-0.382174
-0.812516,0.015365,0.191695,-0.602997,0.141529,-0.763184,-0.382264
-0.813005,0.015065,0.191763,-0.603269,0.141697,-0.763581,-0.382358
-0.814221,0.014426,0.191974,-0.603836,0.142021,-0.7646,-0.382838
-0.814623,0.01421,0.19201,-0.604123,0.142209,-0.764992,-0.383126
-0.815539,0.013751,0.192057,-0.604838,0.142676,-0.765881,-0.383935
-0.815927,0.013599,0.192101,-0.605049,0.142792,-0.766191,-0.384244
-0.817793,0.013329,0.192538,-0.604198,0.142637,-0.767463,-0.38517
-0.818479,0.013205,0.192711,-0.604247,0.142567,-0.76781,-0.385659
-0.819044,0.013087,0.192719,-0.604547,0.142651,-0.768127,-0.386145
-0.819062,0.01305,0.192437,-0.605085,0.14293,-0.768173,-0.386255
-0.818581,0.013071,0.19163,-0.60633,0.143641,-0.76801,-0.386168
-0.818331,0.013074,0.191312,-0.606828,0.143967,-0.767982,-0.386201
-0.817899,0.012992,0.190868,-0.607705,0.144698,-0.768345,-0.38687
-0.817792,0.012936,0.190818,-0.607907,0.14494,-0.768651,-0.387343
-0.817225,0.01276,0.190556,-0.608649,0.145856,-0.76937,-0.388577
-0.816728,0.012679,0.190249,-0.609242,0.146494,-0.769496,-0.388948
-0.814504,0.012478,0.188481,-0.611804,0.149382,-0.769335,-0.389421
-0.812794,0.012293,0.187311,-0.613767,0.151328,-0.769018,-0.389608
-0.810848,0.012202,0.1861,-0.615834,0.153462,-0.76864,-0.389951
-0.809821,0.012296,0.185645,-0.616666,0.154478,-0.768519,-0.390409
-0.808521,0.012653,0.185347,-0.617316,0.155584,-0.7684,-0.391322
-0.808118,0.012845,0.185295,-0.617463,0.155907,-0.768266,-0.391607
-0.806394,0.013797,0.184204,-0.619155,0.157459,-0.766552,-0.3915
-0.806221,0.014117,0.184169,-0.619238,0.157616,-0.765972,-0.391412
-0.80603,0.014892,0.184217,-0.619271,0.15783,-0.764546,-0.391019
-0.806032,0.015112,0.184314,-0.619216,0.157873,-0.764181,-0.390868
-0.807183,0.015097,0.185709,-0.61769,0.156994,-0.76456,-0.390719
-0.807531,0.015165,0.186168,-0.617302,0.15685,-0.764622,-0.39045
-0.807823,0.015218,0.186597,-0.616999,0.156786,-0.764714,-0.39013
-0.80778,0.015232,0.186663,-0.617079,0.156935,-0.764732,-0.389898
-0.80747,0.015183,0.186521,-0.617515,0.157367,-0.764805,-0.389544
-0.807364,0.015166,0.186464,-0.617673,0.157516,-0.764851,-0.389476
-0.807398,0.015167,0.186524,-0.617746,0.157633,-0.765026,-0.389662
-0.807502,0.015171,0.1866,-0.617684,0.157605,-0.765123,-0.389868
-0.80779,0.015238,0.186802,-0.617478,0.157464,-0.765377,-0.390512
-0.80786,0.015309,0.186855,-0.617424,0.157412,-0.765461,-0.39076
-0.808006,0.015655,0.18693,-0.617233,0.157218,-0.7657,-0.391431
-0.808015,0.015914,0.186949,-0.61719,0.157096,-0.765798,-0.391841
-0.807892,0.01624,0.186904,-0.617265,0.157087,-0.765842,-0.392264
-0.80763,0.016463,0.186769,-0.617497,0.157268,-0.765764,-0.392439
-0.806983,0.016824,0.186428,-0.618088,0.15779,-0.765502,-0.392562
-0.806742,0.016941,0.186325,-0.618297,0.158009,-0.765408,-0.392584
-0.8064,0.017081,0.186353,-0.618521,0.158454,-0.765352,-0.392662
-0.806343,0.017076,0.186464,-0.61852,0.158625,-0.765391,-0.392695
-0.806233,0.017052,0.186764,-0.61845,0.158981,-0.765469,-0.392688
-0.806157,0.017085,0.186823,-0.618438,0.159069,-0.765439,-0.392622
-0.805832,0.017314,0.186709,-0.618473,0.15914,-0.765161,-0.392156
-0.805616,0.017482,0.186608,-0.618497,0.159089,-0.764926,-0.391807
-0.80541,0.017703,0.186557,-0.618457,0.159021,-0.764645,-0.391517
-0.805339,0.017869,0.186609,-0.618356,0.158994,-0.764464,-0.391555
-0.805325,0.018154,0.186797,-0.61809,0.15894,-0.764186,-0.391868
-0.805361,0.018249,0.186917,-0.617951,0.15891,-0.764113,-0.391968
-0.805607,0.018374,0.187407,-0.617474,0.15878,-0.764122,-0.391879
-0.805783,0.01838,0.187695,-0.617213,0.158703,-0.764205,-0.391738
-0.806214,0.018384,0.18839,-0.616605,0.158526,-0.764428,-0.391349
-0.806315,0.018411,0.188572,-0.616451,0.158487,-0.764462,-0.391245
-0.80635,0.018585,0.188647,-0.616365,0.158558,-0.764329,-0.3911
-0.80628,0.0187,0.188609,-0.616439,0.158615,-0.764191,-0.391068
-0.806242,0.018831,0.188653,-0.616406,0.158606,-0.764166,-0.391111
-0.806324,0.018901,0.188844,-0.61617,0.158456,-0.764381,-0.391263
-0.806543,0.018993,0.189291,-0.615588,0.158072,-0.764975,-0.39166
-0.80659,0.019021,0.189448,-0.615393,0.157966,-0.765181,-0.391783
-0.806417,0.019051,0.18962,-0.615299,0.158115,-0.765325,-0.391785
-0.806244,0.01904,0.189616,-0.615405,0.158339,-0.765261,-0.391684
-0.805772,0.019044,0.18958,-0.615632,0.158821,-0.765083,-0.391384
-0.805638,0.01909,0.1896,-0.615579,0.158821,-0.765096,-0.391311
-0.805596,0.019329,0.189794,-0.614839,0.158125,-0.765516,-0.391154
-0.805592,0.019519,0.189953,-0.614277,0.157481,-0.765824,-0.391115
-0.805372,0.019859,0.190022,-0.613736,0.156863,-0.76601,-0.391287
-0.804891,0.020228,0.189861,-0.613649,0.156768,-0.765844,-0.391748
-0.803774,0.020987,0.189378,-0.613789,0.15693,-0.765252,-0.392881
-0.803386,0.021258,0.189228,-0.613806,0.15697,-0.765024,-0.393237
-0.802952,0.021659,0.189235,-0.613418,0.156671,-0.764758,-0.393321
-0.802942,0.021734,0.189357,-0.613127,0.156427,-0.764735,-0.393081
-0.803062,0.021843,0.18976,-0.612343,0.155808,-0.764706,-0.39236
-0.80309,0.021895,0.189902,-0.612091,0.155649,-0.764653,-0.392196
-0.803107,0.022056,0.190199,-0.611639,0.15562,-0.764374,-0.39227
-0.803111,0.022142,0.190378,-0.61145,0.155683,-0.764158,-0.392402
-0.803225,0.022234,0.190647,-0.611101,0.155564,-0.76398,-0.392335
-0.8035,0.022278,0.190926,-0.610629,0.15512,-0.764009,-0.391904
-0.804144,0.022319,0.191452,-0.609672,0.154058,-0.764221,-0.390821
-0.804311,0.022335,0.191599,-0.609408,0.153762,-0.764281,-0.390472
-0.804072,0.022389,0.191553,-0.609552,0.154003,-0.764122,-0.390314
-0.803732,0.022411,0.191374,-0.609918,0.154462,-0.763936,-0.390476
-0.802841,0.022484,0.190914,-0.610862,0.155645,-0.763567,-0.391076
-0.802648,0.022525,0.19085,-0.611012,0.155852,-0.76359,-0.39129
-0.802701,0.022688,0.19109,-0.61061,0.155514,-0.764311,-0.391819
-0.802888,0.022794,0.191365,-0.610152,0.155035,-0.764926,-0.392145
-0.803089,0.02292,0.191644,-0.609664,0.15452,-0.765517,-0.392479
-0.803079,0.023002,0.191665,-0.609581,0.154415,-0.765598,-0.392632
-0.802987,0.023123,0.19157,-0.609619,0.154407,-0.765417,-0.392757
-0.803042,0.023153,0.191609,-0.609518,0.154303,-0.765395,-0.392759
-0.803731,0.023121,0.192216,-0.608515,0.153369,-0.765877,-0.392593
-0.80421,0.023061,0.192639,-0.607848,0.152756,-0.766247,-0.392446
-0.805473,0.022946,0.193771,-0.606068,0.151122,-0.767186,-0.392045
-0.805881,0.022957,0.194154,-0.605456,0.150564,-0.76745,-0.391935
-0.807007,0.023144,0.195118,-0.603676,0.149153,-0.768048,-0.391856
-0.80745,0.023326,0.19558,-0.6029,0.148454,-0.76818,-0.391833
-0.807777,0.023549,0.196033,-0.602177,0.147877,-0.768246,-0.391835
-0.807751,0.023682,0.196193,-0.601982,0.147832,-0.768176,-0.391853
-0.807334,0.023884,0.196225,-0.602103,0.148263,-0.767884,-0.391932
-0.807115,0.023951,0.196224,-0.602187,0.148493,-0.767785,-0.391986
-0.806614,0.024048,0.196371,-0.602207,0.148976,-0.767819,-0.392228
-0.806406,0.024051,0.19648,-0.602173,0.14918,-0.767941,-0.39238
-0.805784,0.024084,0.196654,-0.602172,0.149733,-0.768151,-0.392717
-0.805473,0.024143,0.196614,-0.60226,0.149966,-0.768074,-0.392772
-0.804387,0.02448,0.195972,-0.602851,0.15082,-0.767284,-0.392658
-0.803602,0.024726,0.195471,-0.603397,0.151328,-0.766583,-0.39249
-0.802941,0.025024,0.195143,-0.603654,0.151582,-0.765987,-0.392267
-0.802977,0.025218,0.195369,-0.603201,0.151194,-0.766015,-0.392111
-0.803598,0.025518,0.196226,-0.601764,0.14991,-0.766531,-0.391831
-0.803804,0.025604,0.196544,-0.601237,0.149465,-0.766732,-0.39174
-0.803697,0.025645,0.196847,-0.600695,0.14921,-0.766821,-0.391593
-0.803494,0.025588,0.196836,-0.600701,0.149364,-0.766739,-0.391544
-0.80278,0.025431,0.196711,-0.600829,0.149902,-0.766555,-0.391584
-0.80246,0.025413,0.196691,-0.60079,0.150032,-0.766589,-0.391717
-0.801562,0.025506,0.196632,-0.600503,0.15017,-0.767,-0.392528
-0.800948,0.025597,0.196641,-0.600243,0.150165,-0.76737,-0.393163
-0.80007,0.025757,0.19677,-0.599733,0.150097,-0.767876,-0.393806
-0.799395,0.025882,0.197005,-0.599185,0.149978,-0.768318,-0.39406
-0.798215,0.026131,0.197586,-0.598006,0.149663,-0.769131,-0.394243
-0.797694,0.026278,0.197842,-0.597484,0.149532,-0.769342,-0.39422
-0.796233,0.026848,0.198457,-0.596142,0.149281,-0.769248,-0.393896
-0.795609,0.027146,0.198714,-0.595571,0.149196,-0.769,-0.393668
-0.793967,0.02798,0.199454,-0.59392,0.148894,-0.768119,-0.392854
-0.793284,0.02832,0.19981,-0.593123,0.148695,-0.76774,-0.392431
-0.791776,0.029092,0.201028,-0.590449,0.147808,-0.766718,-0.391011
-0.790808,0.029591,0.201846,-0.588681,0.14717,-0.765983,-0.390008
-0.789261,0.030426,0.202893,-0.586362,0.14637,-0.765069,-0.388792
-0.787915,0.031245,0.203662,-0.584643,0.145777,-0.764494,-0.388044
-0.785436,0.032839,0.20498,-0.58168,0.144743,-0.763627,-0.386948
-0.784283,0.033494,0.205445,-0.580566,0.144425,-0.763274,-0.386544
-0.780726,0.035026,0.206258,-0.578251,0.144231,-0.762303,-0.385632
-0.779039,0.035611,0.20647,-0.577488,0.144386,-0.761899,-0.385331
-0.77474,0.037107,0.206952,-0.575521,0.1447,-0.760814,-0.38456
-0.773175,0.03775,0.207196,-0.574566,0.144585,-0.760337,-0.384179
-0.769885,0.039549,0.208006,-0.571512,0.143298,-0.758897,-0.382933
-0.768066,0.040675,0.208543,-0.569478,0.14227,-0.757986,-0.38211
-0.765376,0.042046,0.209227,-0.567002,0.141317,-0.756974,-0.381149
-0.763058,0.042938,0.209756,-0.565395,0.141112,-0.75648,-0.380633
-0.758884,0.044256,0.210652,-0.56296,0.141291,-0.755949,-0.379981
-0.757101,0.044724,0.210904,-0.562132,0.141491,-0.755742,-0.379704
-0.752201,0.045723,0.210892,-0.560727,0.142335,-0.754976,-0.378686
-0.749996,0.046049,0.210613,-0.560484,0.142889,-0.754574,-0.378144
-0.74446,0.046811,0.209824,-0.560008,0.144351,-0.753648,-0.376938
-0.742439,0.047139,0.209663,-0.559646,0.144802,-0.753409,-0.376671
-0.737769,0.04806,0.209765,-0.558416,0.145515,-0.753147,-0.376818
-0.735248,0.048631,0.209957,-0.557398,0.145818,-0.753229,-0.37715
-0.731941,0.049267,0.210109,-0.556198,0.14627,-0.753298,-0.37729
-0.729377,0.0496,0.210015,-0.555602,0.146773,-0.753272,-0.376963
-0.725099,0.049991,0.20966,-0.554916,0.147751,-0.753191,-0.376012
-0.723504,0.050127,0.209548,-0.554587,0.148066,-0.75313,-0.375622
-0.720102,0.050471,0.20959,-0.553239,0.148373,-0.752893,-0.374924
-0.718935,0.050591,0.209702,-0.552549,0.148355,-0.752771,-0.374715
-0.716228,0.050924,0.209994,-0.550738,0.148112,-0.752366,-0.37416
-0.715151,0.051101,0.210051,-0.550062,0.147977,-0.752149,-0.373866
-0.712299,0.051577,0.210038,-0.548811,0.147523,-0.751355,-0.37282
-0.710693,0.05196,0.209905,-0.54799,0.147221,-0.75085,-0.372114
-0.708661,0.052592,0.209769,-0.546763,0.146649,-0.75012,-0.371352
-0.707238,0.053219,0.209704,-0.545689,0.146017,-0.749499,-0.371013
-0.704995,0.05446,0.209607,-0.54375,0.144713,-0.748356,-0.370679
-0.704127,0.054933,0.209611,-0.542952,0.144204,-0.747934,-0.370554
-0.701953,0.055869,0.209773,-0.541017,0.143227,-0.747096,-0.370106
-0.701071,0.056176,0.209875,-0.540272,0.142935,-0.746816,-0.369899
-0.698947,0.056868,0.210261,-0.538358,0.142249,-0.746253,-0.369369
-0.698167,0.057138,0.210483,-0.537532,0.141932,-0.746088,-0.369165
-0.696341,0.057671,0.211337,-0.535481,0.140921,-0.74581,-0.36862
-0.695351,0.058024,0.211851,-0.534122,0.140377,-0.745757,-0.368293
-0.694089,0.058588,0.212681,-0.532159,0.139589,-0.745737,-0.368021
-0.693253,0.059116,0.213497,-0.530468,0.138876,-0.745833,-0.368103
-0.691982,0.060127,0.215094,-0.527403,0.137565,-0.746099,-0.368514
-0.691387,0.060557,0.215673,-0.526254,0.137117,-0.746085,-0.368543
-0.690227,0.061415,0.217514,-0.52284,0.135506,-0.746016,-0.367923
-0.68957,0.061799,0.21803,-0.52169,0.135019,-0.745741,-0.367332
-0.688008,0.062714,0.219537,-0.518621,0.133853,-0.744922,-0.365774
-0.687286,0.063099,0.220152,-0.517488,0.13363,-0.744462,-0.365276
-0.685922,0.063865,0.22261,-0.514033,0.133116,-0.743403,-0.364787
-0.684983,0.064381,0.224033,-0.512059,0.133163,-0.742541,-0.364564
-0.68363,0.065165,0.225785,-0.509472,0.133098,-0.741256,-0.363902
-0.682588,0.065835,0.226977,-0.507518,0.132798,-0.740238,-0.362951
-0.682482,0.066655,0.230605,-0.502016,0.130331,-0.73958,-0.36133
-0.681871,0.067146,0.23147,-0.500498,0.129858,-0.738848,-0.360507
-0.680138,0.068442,0.233535,-0.496721,0.128713,-0.736717,-0.358686
-0.679453,0.068988,0.234373,-0.495112,0.128209,-0.73578,-0.358018
-0.679196,0.070082,0.238016,-0.489006,0.125175,-0.734404,-0.356714
-0.67864,0.070654,0.23898,-0.48711,0.124324,-0.733546,-0.356012
-0.676563,0.072294,0.240853,-0.48316,0.122255,-0.730962,-0.353888
-0.677384,0.072921,0.244048,-0.477955,0.11875,-0.730868,-0.353068
-0.676304,0.074121,0.24599,-0.473861,0.116512,-0.729149,-0.351482
-0.67496,0.074956,0.246935,-0.471468,0.115598,-0.727396,-0.350284
-0.672161,0.076289,0.247955,-0.468159,0.114813,-0.724014,-0.348274
-0.671164,0.076827,0.248463,-0.46669,0.114297,-0.722833,-0.347504
-0.669707,0.078283,0.250645,-0.461782,0.111372,-0.721057,-0.345712
-0.66944,0.078917,0.251787,-0.45944,0.10966,-0.720716,-0.345021
-0.670929,0.080049,0.257144,-0.45078,0.102815,-0.721652,-0.343935
-0.670593,0.080577,0.258333,-0.448518,0.101228,-0.721496,-0.343371
-0.669778,0.081183,0.262475,-0.44293,0.096765,-0.721612,-0.342455
-0.668626,0.081726,0.263823,-0.440317,0.095396,-0.721432,-0.341804
-0.667162,0.0826,0.265713,-0.436702,0.093405,-0.721102,-0.341001
-0.666221,0.083459,0.267311,-0.433737,0.0916,-0.720774,-0.340475
-0.666508,0.084789,0.272265,-0.42634,0.086214,-0.72128,-0.340164
-0.666033,0.085429,0.273524,-0.424164,0.084764,-0.721024,-0.339868
-0.664736,0.086902,0.276426,-0.418987,0.08135,-0.720116,-0.33899
-0.664171,0.087467,0.277504,-0.417,0.080055,-0.719651,-0.338625
-0.664827,0.088513,0.282682,-0.409548,0.074241,-0.719542,-0.337989
-0.664613,0.089005,0.284079,-0.407279,0.072546,-0.71907,-0.337425
-0.663463,0.089612,0.288539,-0.403142,0.067292,-0.717055,-0.335433
-0.66557,0.089933,0.293572,-0.397031,0.061646,-0.717381,-0.334524
-0.665858,0.09086,0.29711,-0.392011,0.057355,-0.716308,-0.332977
-0.667805,0.09145,0.302409,-0.385948,0.051559,-0.716666,-0.33274
-0.668178,0.093017,0.307519,-0.379378,0.045674,-0.715579,-0.332033
-0.670038,0.093387,0.312126,-0.374688,0.040784,-0.716035,-0.332128
-0.670326,0.094746,0.317082,-0.368654,0.035153,-0.714205,-0.330557
-0.672052,0.094996,0.321564,-0.364393,0.03044,-0.714207,-0.330158
-0.672329,0.096186,0.326578,-0.358712,0.024872,-0.711787,-0.327926
-0.674159,0.096441,0.331641,-0.354338,0.019635,-0.711749,-0.327548
-0.673043,0.095802,0.343655,-0.351468,0.007843,-0.708591,-0.326327
-0.673574,0.096582,0.348274,-0.347418,0.003085,-0.70733,-0.325216
-0.675777,0.097318,0.357491,-0.340542,-0.00648,-0.706352,-0.324373
-0.677318,0.097849,0.364544,-0.335707,-0.014006,-0.705595,-0.324016
-0.677031,0.099238,0.370363,-0.331056,-0.021018,-0.70293,-0.322786
-0.677015,0.099692,0.372719,-0.329271,-0.023931,-0.70178,-0.322224
-0.679352,0.099778,0.383741,-0.323107,-0.036385,-0.699373,-0.320937
-0.679893,0.099722,0.386855,-0.32134,-0.040187,-0.697999,-0.320013
-0.682737,0.098911,0.399622,-0.315975,-0.05457,-0.695005,-0.318374
-0.684568,0.098236,0.408202,-0.313431,-0.063624,-0.6941,-0.318348
-0.677561,0.092612,0.427528,-0.3244,-0.083027,-0.686426,-0.318494
-0.678759,0.092409,0.435954,-0.322328,-0.092328,-0.684284,-0.318157
-0.680698,0.090972,0.452874,-0.319945,-0.109935,-0.681954,-0.318896
-0.680783,0.090386,0.460997,-0.319116,-0.118617,-0.67998,-0.319174
-0.680114,0.089362,0.473361,-0.318473,-0.131757,-0.676841,-0.319996
-0.679657,0.088932,0.478043,-0.318426,-0.136744,-0.675565,-0.320294
-0.678223,0.087791,0.48934,-0.318761,-0.148961,-0.672146,-0.320618
-0.677671,0.086055,0.499012,-0.319935,-0.158678,-0.670866,-0.321487
-0.675502,0.084932,0.50862,-0.321049,-0.169262,-0.667253,-0.321313
-0.674534,0.084496,0.51228,-0.321566,-0.173139,-0.665837,-0.321228
-0.659302,0.075251,0.524647,-0.343643,-0.183596,-0.657352,-0.322486
-0.658138,0.074611,0.530525,-0.343949,-0.189176,-0.655643,-0.32245
-0.656448,0.073787,0.538276,-0.344574,-0.196782,-0.653222,-0.32237
-0.655095,0.073222,0.544071,-0.345214,-0.202847,-0.651215,-0.322268
-0.652669,0.070901,0.558665,-0.347763,-0.217837,-0.647812,-0.322925
-0.651599,0.070433,0.562606,-0.3485,-0.22206,-0.646408,-0.32289
-0.648786,0.069186,0.572017,-0.350445,-0.231867,-0.643159,-0.322884
-0.647614,0.068663,0.575662,-0.351268,-0.235591,-0.64194,-0.322913
-0.644408,0.06584,0.58913,-0.354876,-0.248772,-0.639056,-0.323852
-0.643138,0.065251,0.59261,-0.35582,-0.252276,-0.637868,-0.323888
-0.631652,0.058368,0.59978,-0.371672,-0.258568,-0.631431,-0.324553
-0.630042,0.057661,0.604631,-0.372552,-0.263421,-0.629835,-0.324528
-0.62775,0.055291,0.615347,-0.375029,-0.273855,-0.627918,-0.325422
-0.625857,0.054705,0.619386,-0.37591,-0.278129,-0.62639,-0.325459
-0.622524,0.053906,0.625307,-0.377256,-0.284618,-0.623906,-0.325527
-0.621183,0.053606,0.627558,-0.377789,-0.287063,-0.622922,-0.325575
-0.617839,0.051362,0.637456,-0.380571,-0.296769,-0.620602,-0.326661
-0.616555,0.051054,0.639627,-0.381143,-0.29891,-0.619632,-0.326818
-0.61334,0.050234,0.64513,-0.382646,-0.304257,-0.617186,-0.327213
-0.61203,0.049844,0.647484,-0.383321,-0.30656,-0.616177,-0.327327
-0.603942,0.044244,0.655947,-0.394073,-0.314123,-0.611761,-0.328609
-0.602062,0.043456,0.660269,-0.395153,-0.318324,-0.61028,-0.328743
-0.599603,0.040975,0.669745,-0.397908,-0.327534,-0.608257,-0.329524
-0.59787,0.040318,0.673126,-0.39887,-0.33136,-0.606291,-0.32914
-0.595101,0.039394,0.677921,-0.400294,-0.337311,-0.602659,-0.328071
-0.59397,0.039015,0.679829,-0.400867,-0.339574,-0.601288,-0.327701
-0.590882,0.036277,0.689464,-0.403994,-0.348835,-0.598744,-0.328311
-0.589609,0.035688,0.691943,-0.404751,-0.350997,-0.597898,-0.328435
-0.586332,0.034213,0.698155,-0.406674,-0.356255,-0.595914,-0.328868
-0.584992,0.033666,0.70055,-0.407438,-0.35838,-0.595034,-0.328981
-0.578335,0.029038,0.707637,-0.415623,-0.364553,-0.591326,-0.329915
-0.576313,0.028363,0.711095,-0.416613,-0.367836,-0.589856,-0.329958
-0.573694,0.025897,0.719794,-0.419462,-0.376187,-0.587995,-0.330875
-0.571809,0.025221,0.723316,-0.420615,-0.379997,-0.586298,-0.33093
-0.568755,0.024163,0.729071,-0.422595,-0.386608,-0.58328,-0.330977
-0.567514,0.023718,0.731334,-0.423385,-0.389184,-0.58212,-0.330944
-0.564241,0.020761,0.74105,-0.426885,-0.39887,-0.579794,-0.331448
-0.562871,0.020114,0.743389,-0.427699,-0.401188,-0.578889,-0.331154
-0.559416,0.018577,0.748952,-0.429649,-0.40665,-0.576795,-0.330563
-0.558054,0.018072,0.750994,-0.430379,-0.408718,-0.576003,-0.33057
-0.552441,0.014856,0.755628,-0.436386,-0.413317,-0.573305,-0.332007
-0.550486,0.014547,0.757951,-0.437141,-0.415853,-0.572376,-0.332808
-0.548028,0.012342,0.765506,-0.439845,-0.423455,-0.571244,-0.334507
-0.54622,0.011566,0.768982,-0.441104,-0.427329,-0.570021,-0.334727
-0.543309,0.010048,0.775334,-0.443481,-0.434514,-0.567794,-0.334725
-0.54212,0.009459,0.777832,-0.444427,-0.437337,-0.56692,-0.334749
-0.539012,0.006566,0.787451,-0.44812,-0.447274,-0.565246,-0.336142
-0.537653,0.006086,0.789667,-0.448969,-0.449706,-0.564573,-0.336481
-0.534278,0.004903,0.795193,-0.451102,-0.455723,-0.56284,-0.337424
-0.533009,0.004398,0.797494,-0.452002,-0.458209,-0.562042,-0.337782
-0.528631,0.001352,0.803604,-0.45748,-0.464726,-0.559,-0.339086
-0.527229,-0.001178,0.811484,-0.460455,-0.472549,-0.557789,-0.340605
-0.525088,-0.002389,0.816731,-0.462409,-0.477875,-0.555867,-0.341222
-0.523326,-0.003179,0.820194,-0.463647,-0.480985,-0.554618,-0.341352
-0.520295,-0.004438,0.825686,-0.465559,-0.485426,-0.552643,-0.341236
-0.519389,-0.00674,0.832209,-0.468047,-0.491281,-0.552007,-0.342221
-0.517239,-0.00868,0.840402,-0.471271,-0.49954,-0.548887,-0.343063
-0.516708,-0.010329,0.846031,-0.473513,-0.50533,-0.547518,-0.344089
-0.515808,-0.015323,0.86225,-0.479985,-0.522042,-0.543944,-0.346946
-0.515403,-0.017407,0.868551,-0.482669,-0.528488,-0.542452,-0.347794
-0.513336,-0.022635,0.88087,-0.490245,-0.541301,-0.537715,-0.348262
-0.513395,-0.026998,0.89327,-0.495021,-0.553615,-0.535622,-0.349247
-0.51298,-0.030769,0.905005,-0.499587,-0.565471,-0.532681,-0.349875
-0.512771,-0.03435,0.915562,-0.503703,-0.57578,-0.530992,-0.35145
-0.512185,-0.039375,0.93106,-0.509698,-0.590805,-0.528392,-0.354193
-0.511734,-0.04069,0.935633,-0.511464,-0.595283,-0.52724,-0.3549
-0.510986,-0.04571,0.950891,-0.517289,-0.609878,-0.52471,-0.357206
-0.510968,-0.04872,0.959274,-0.520444,-0.617721,-0.523971,-0.358605
-0.51013,-0.053593,0.974133,-0.526013,-0.63182,-0.521437,-0.360526
-0.509613,-0.054851,0.978547,-0.527679,-0.636176,-0.520172,-0.36093
-0.508717,-0.06069,0.99425,-0.534869,-0.651601,-0.516878,-0.363373
-0.508793,-0.063926,1.00464,-0.538556,-0.661918,-0.515094,-0.364936
-0.508852,-0.0679,1.017674,-0.543139,-0.675031,-0.51273,-0.366775
-0.509195,-0.071371,1.028655,-0.546931,-0.686032,-0.511229,-0.368393
-0.509509,-0.076265,1.044841,-0.552455,-0.702601,-0.508581,-0.370494
-0.510244,-0.079153,1.053779,-0.555404,-0.71152,-0.507885,-0.37194
-0.511056,-0.084002,1.070174,-0.560772,-0.728555,-0.50564,-0.37418
-0.512019,-0.086775,1.079048,-0.563564,-0.737575,-0.50515,-0.375662
-0.513365,-0.091559,1.095847,-0.568747,-0.755129,-0.503284,-0.37803
-0.514762,-0.094471,1.105653,-0.571586,-0.764815,-0.502907,-0.379667
-0.409626,0.055936,0.663087,-0.462729,-0.343907,-0.513901,-0.281687
-0.404611,0.058744,0.653549,-0.462994,-0.334676,-0.512692,-0.279003
-0.397027,0.062836,0.63856,-0.463988,-0.320262,-0.510459,-0.274942
-0.392419,0.064866,0.632233,-0.464223,-0.314359,-0.509769,-0.272594
-0.383744,0.068727,0.619037,-0.465142,-0.302063,-0.507969,-0.26804
-0.38089,0.069904,0.615794,-0.465184,-0.299213,-0.507665,-0.266663
-0.37345,0.073305,0.605629,-0.465822,-0.290477,-0.506167,-0.263529
-0.369943,0.075039,0.599603,-0.466606,-0.285249,-0.504959,-0.262152
-0.364541,0.077521,0.594719,-0.466165,-0.282697,-0.504584,-0.259554
-0.362627,0.078348,0.593796,-0.465723,-0.282338,-0.504746,-0.258892
-0.407486,0.122871,0.562518,-0.374351,-0.260238,-0.52702,-0.247439
-0.40386,0.125769,0.553664,-0.37303,-0.252263,-0.526656,-0.24468
-0.398201,0.130982,0.535317,-0.371083,-0.235114,-0.525381,-0.239992
-0.39406,0.133625,0.525718,-0.370367,-0.225974,-0.524775,-0.237213
-0.386687,0.137792,0.509277,-0.369749,-0.209921,-0.523578,-0.232537
-0.382893,0.140265,0.498374,-0.369939,-0.19924,-0.522404,-0.23009
-0.375722,0.143408,0.486361,-0.37015,-0.187619,-0.521433,-0.226686
-0.372116,0.145266,0.478313,-0.370749,-0.179832,-0.520443,-0.224967
-0.36487,0.148276,0.467014,-0.371376,-0.168991,-0.519336,-0.222154
-0.36224,0.149217,0.46375,-0.371491,-0.165801,-0.519102,-0.221237
-0.388872,0.169806,0.441157,-0.319923,-0.150002,-0.531967,-0.215555
-0.385148,0.17156,0.433812,-0.319562,-0.142678,-0.531668,-0.214085
-0.379387,0.174477,0.419832,-0.319593,-0.128641,-0.530777,-0.211267
-0.373692,0.17719,0.404581,-0.320839,-0.113151,-0.529359,-0.208165
-0.362228,0.180953,0.379551,-0.325906,-0.087051,-0.526159,-0.202685
-0.358138,0.181956,0.372593,-0.327775,-0.079622,-0.525201,-0.200868
-0.347599,0.184436,0.355426,-0.333341,-0.061369,-0.522387,-0.196481
-0.343343,0.185395,0.348881,-0.335801,-0.054414,-0.521174,-0.194752
-0.332525,0.187557,0.333481,-0.342653,-0.037879,-0.517814,-0.190675
-0.329632,0.188027,0.330444,-0.343871,-0.034518,-0.517275,-0.189574
-0.348497,0.201913,0.296123,-0.306525,-0.005611,-0.527491,-0.183848
-0.342596,0.202623,0.288447,-0.310579,0.002924,-0.525593,-0.18223
-0.336908,0.203142,0.282634,-0.31351,0.00955,-0.524236,-0.180733
-0.33206,0.203623,0.277297,-0.316447,0.015569,-0.522792,-0.17961
-0.325356,0.204169,0.270876,-0.319803,0.022892,-0.521048,-0.178251
-0.32256,0.204405,0.268192,-0.321328,0.025932,-0.520258,-0.177666
-0.314881,0.205128,0.260689,-0.326125,0.034317,-0.517829,-0.175782
-0.310947,0.205589,0.25636,-0.32918,0.039096,-0.516266,-0.174747
-0.304802,0.206223,0.251184,-0.332176,0.044746,-0.514725,-0.172903
-0.302275,0.20649,0.249167,-0.333415,0.047008,-0.514105,-0.172252
-0.309034,0.214158,0.223279,-0.315439,0.07023,-0.51912,-0.168791
-0.304796,0.214602,0.220255,-0.317736,0.073866,-0.518106,-0.168057
-0.297808,0.215437,0.214302,-0.322552,0.080746,-0.515761,-0.166785
-0.293431,0.215986,0.210808,-0.32511,0.084576,-0.514405,-0.16596
-0.286171,0.216893,0.205148,-0.329405,0.090583,-0.512009,-0.164591
-0.282027,0.217424,0.201413,-0.332763,0.094705,-0.510175,-0.16374
-0.272926,0.218391,0.193799,-0.339592,0.103183,-0.506341,-0.161382
-0.270491,0.218489,0.192187,-0.34076,0.104923,-0.505628,-0.160486
-0.262225,0.219158,0.18574,-0.346545,0.11209,-0.502267,-0.157612
-0.259699,0.219368,0.184116,-0.347733,0.113799,-0.501568,-0.156633
-0.257205,0.224024,0.165688,-0.343682,0.131181,-0.501608,-0.152642
-0.250688,0.225087,0.160689,-0.348961,0.136793,-0.498711,-0.150633
-0.24304,0.226375,0.155203,-0.354538,0.142831,-0.49556,-0.148338
-0.239193,0.226968,0.153154,-0.356012,0.14496,-0.494707,-0.147429
-0.233096,0.227938,0.150154,-0.357872,0.148031,-0.493591,-0.146428
-0.230842,0.228304,0.149076,-0.358396,0.148993,-0.493231,-0.146004
-0.225986,0.229124,0.146695,-0.358982,0.150293,-0.492541,-0.144395
-0.224382,0.229417,0.145898,-0.358874,0.150327,-0.492373,-0.143589
-0.218614,0.230526,0.142194,-0.361018,0.152646,-0.490539,-0.141337
-0.216559,0.230848,0.141127,-0.36142,0.153303,-0.490156,-0.140554
-0.211586,0.233561,0.130694,-0.361391,0.163373,-0.488931,-0.137987
-0.208106,0.233912,0.129254,-0.362275,0.16502,-0.488431,-0.13711
-0.20338,0.234545,0.127326,-0.363307,0.167033,-0.487887,-0.135868
-0.199845,0.235203,0.125932,-0.363791,0.168188,-0.487681,-0.134811
-0.19382,0.236516,0.123606,-0.36439,0.169885,-0.487528,-0.132936
-0.18949,0.237548,0.120898,-0.367275,0.17289,-0.485851,-0.132049
-0.182358,0.23917,0.11746,-0.369442,0.175903,-0.484579,-0.130351
-0.179573,0.239833,0.116115,-0.370221,0.177005,-0.484078,-0.129784
-0.17015,0.242057,0.110551,-0.375624,0.182784,-0.480652,-0.127967
-0.166678,0.24276,0.108696,-0.377334,0.184787,-0.479588,-0.127181
-0.158567,0.244856,0.101811,-0.380581,0.192247,-0.477165,-0.124613
-0.153427,0.245546,0.099391,-0.38298,0.195283,-0.475718,-0.123123
-0.144356,0.247146,0.094366,-0.389308,0.202056,-0.47184,-0.120917
-0.138411,0.248083,0.091607,-0.392726,0.206206,-0.469954,-0.119548
-0.127973,0.249794,0.086864,-0.399079,0.213876,-0.466517,-0.11733
-0.124616,0.250246,0.085696,-0.4004,0.215847,-0.465932,-0.116575
-0.115453,0.251947,0.081596,-0.404878,0.221347,-0.463248,-0.114424
-0.111894,0.252679,0.079914,-0.406533,0.223284,-0.462136,-0.113522
-0.102062,0.255009,0.074884,-0.411952,0.229023,-0.45836,-0.111229
-0.098897,0.255715,0.073608,-0.412873,0.230345,-0.457763,-0.110547
-0.089823,0.257834,0.070486,-0.416609,0.233983,-0.455539,-0.10916
-0.085112,0.259061,0.068805,-0.417591,0.235693,-0.455044,-0.108524
-0.078047,0.260931,0.065929,-0.420074,0.238894,-0.453481,-0.107506
-0.072655,0.262277,0.063702,-0.422042,0.241433,-0.452185,-0.106696
-0.063595,0.264471,0.059971,-0.425375,0.245723,-0.44992,-0.105315
-0.059247,0.265664,0.057787,-0.42789,0.248375,-0.448085,-0.104544
-0.049679,0.268177,0.053238,-0.432544,0.253335,-0.444565,-0.102282
-0.044985,0.2696,0.050592,-0.435841,0.25635,-0.441972,-0.101044
-0.035472,0.272196,0.045782,-0.441025,0.261472,-0.437814,-0.098144
-0.031886,0.273102,0.044088,-0.442961,0.263505,-0.436325,-0.09708
-0.021701,0.274958,0.041426,-0.450229,0.268417,-0.431451,-0.094607
-0.016848,0.275941,0.039513,-0.452915,0.271583,-0.429642,-0.093218
-0.009928,0.277578,0.036382,-0.457578,0.276538,-0.426166,-0.09143
-0.005865,0.278336,0.034729,-0.459643,0.278974,-0.424525,-0.090355
4e-05,0.279272,0.032402,-0.46225,0.282221,-0.422272,-0.088865
0.002316,0.279669,0.031484,-0.463186,0.283385,-0.421408,-0.08836
0.008239,0.281081,0.028878,-0.465636,0.28619,-0.419012,-0.08737
0.010611,0.281783,0.027742,-0.466575,0.28718,-0.417999,-0.087112
0.016587,0.283567,0.024928,-0.468981,0.289747,-0.41547,-0.086488
0.019022,0.284198,0.023895,-0.470031,0.290964,-0.414503,-0.086134
0.025925,0.284689,0.024066,-0.473928,0.292518,-0.41218,-0.085197
0.030479,0.285797,0.022235,-0.477011,0.295972,-0.409835,-0.084299
0.035569,0.286874,0.020318,-0.479556,0.299061,-0.407784,-0.083103
0.039349,0.287861,0.018541,-0.481474,0.301038,-0.405858,-0.082056
0.045628,0.289703,0.015205,-0.484737,0.304023,-0.402173,-0.08009
0.04813,0.290476,0.013839,-0.486041,0.305177,-0.400653,-0.079302
0.05443,0.292501,0.010492,-0.48937,0.308201,-0.396903,-0.077481
0.056998,0.29339,0.009115,-0.490796,0.309484,-0.395328,-0.07678
0.063238,0.295496,0.005821,-0.494028,0.312374,-0.3916,-0.075084
0.065616,0.296195,0.00465,-0.495075,0.313267,-0.390271,-0.074425
0.071637,0.296658,0.004318,-0.497519,0.312527,-0.387635,-0.07275
0.074695,0.297255,0.002846,-0.498074,0.313131,-0.386347,-0.071691
0.078707,0.298072,0.000902,-0.498708,0.313864,-0.384629,-0.070855
0.081662,0.29878,-0.000581,-0.499115,0.314355,-0.38328,-0.071021
0.086409,0.299951,-0.002991,-0.4995,0.314935,-0.381128,-0.07218
0.088857,0.300739,-0.004378,-0.500638,0.315977,-0.379334,-0.072446
0.094422,0.301849,-0.006981,-0.502425,0.31788,-0.376245,-0.071992
0.096796,0.302238,-0.008041,-0.503374,0.318967,-0.374886,-0.071468
0.10298,0.303431,-0.010986,-0.506303,0.32202,-0.370913,-0.069594
0.105514,0.304126,-0.012392,-0.507692,0.323246,-0.368996,-0.068674
0.112426,0.305821,-0.01478,-0.512554,0.324504,-0.363062,-0.06586
0.116879,0.307927,-0.018055,-0.516356,0.327195,-0.358004,-0.063728
0.122456,0.310482,-0.02195,-0.520399,0.330042,-0.352357,-0.06108
0.126986,0.312649,-0.024967,-0.523685,0.332499,-0.347922,-0.059235
0.134952,0.316682,-0.030185,-0.529538,0.33698,-0.340105,-0.056248
0.138138,0.318298,-0.032199,-0.531767,0.338734,-0.337093,-0.055151
0.145806,0.321988,-0.036738,-0.536509,0.34265,-0.330501,-0.052848
0.148806,0.323357,-0.038392,-0.53814,0.34408,-0.328179,-0.052097
0.156348,0.326828,-0.042418,-0.542015,0.347561,-0.322645,-0.050337
0.159368,0.328255,-0.043991,-0.543464,0.348841,-0.320576,-0.049593
0.168194,0.331936,-0.046353,-0.548922,0.350616,-0.314193,-0.048022
0.173058,0.334649,-0.049002,-0.551458,0.352808,-0.310652,-0.046921
0.179551,0.337917,-0.052276,-0.554779,0.355901,-0.306137,-0.04483
0.18441,0.339831,-0.054377,-0.557189,0.358443,-0.303053,-0.042387
0.192782,0.342774,-0.057726,-0.56172,0.36343,-0.297451,-0.037334
0.196023,0.343912,-0.058987,-0.56327,0.365183,-0.295487,-0.035483
0.204015,0.347574,-0.062589,-0.566947,0.368954,-0.290323,-0.032539
0.207181,0.349332,-0.064199,-0.568359,0.370259,-0.288139,-0.031932
0.215225,0.35396,-0.068357,-0.572265,0.373971,-0.282158,-0.030449
0.218494,0.355626,-0.069854,-0.57395,0.375733,-0.279779,-0.029448
0.227786,0.358675,-0.071212,-0.579862,0.379359,-0.27326,-0.025794
0.233176,0.361186,-0.073359,-0.583705,0.383676,-0.26827,-0.023105
0.239921,0.364026,-0.075791,-0.5879,0.388757,-0.262916,-0.019604
0.244871,0.36617,-0.077536,-0.591132,0.392633,-0.258731,-0.017144
0.252911,0.369563,-0.080189,-0.596373,0.399092,-0.251967,-0.01308
0.256097,0.370921,-0.081217,-0.598364,0.401587,-0.249366,-0.01149
0.264073,0.374361,-0.083769,-0.602808,0.407264,-0.243475,-0.007627
0.267469,0.376222,-0.085085,-0.605211,0.410062,-0.239978,-0.006126
0.275477,0.379919,-0.087675,-0.609318,0.415381,-0.234285,-0.002491
0.278601,0.381323,-0.088624,-0.610766,0.417341,-0.23231,-0.00112
0.28729,0.383945,-0.088581,-0.615284,0.419664,-0.22758,0.002053
0.291777,0.385841,-0.089804,-0.616801,0.421999,-0.225646,0.003913
0.297771,0.388407,-0.091323,-0.619083,0.425524,-0.22284,0.006051
0.302315,0.390447,-0.092363,-0.621205,0.428753,-0.220322,0.007239
0.309893,0.393909,-0.09391,-0.625058,0.43468,-0.215885,0.008689
0.312886,0.395217,-0.09448,-0.626528,0.437007,-0.214195,0.009275
0.320281,0.397984,-0.095727,-0.629809,0.442529,-0.210404,0.011216
0.323247,0.398882,-0.096109,-0.631076,0.444807,-0.208972,0.012127
0.330381,0.401213,-0.097261,-0.633703,0.449588,-0.205841,0.014401
0.333017,0.402381,-0.097978,-0.634375,0.450742,-0.204864,0.015214
0.340097,0.405629,-0.09857,-0.636851,0.450361,-0.20171,0.016622
0.343446,0.408083,-0.100408,-0.636782,0.449907,-0.20105,0.017502
0.347523,0.411557,-0.103295,-0.63628,0.448292,-0.200091,0.019083
0.35008,0.414363,-0.105963,-0.635445,0.445905,-0.199219,0.020805
0.353651,0.419044,-0.110963,-0.632932,0.439807,-0.198615,0.024337
0.355201,0.421096,-0.113028,-0.632334,0.437847,-0.197644,0.025723
0.360102,0.425832,-0.11743,-0.631784,0.435152,-0.194987,0.028775
0.362368,0.427682,-0.119032,-0.631915,0.43476,-0.193641,0.029911
0.368345,0.431886,-0.122577,-0.632162,0.434203,-0.191115,0.032567
0.370818,0.43388,-0.124038,-0.632879,0.434551,-0.189039,0.033454
0.376841,0.438526,-0.127658,-0.633778,0.435543,-0.185825,0.035213
0.380651,0.441264,-0.129516,-0.634659,0.436433,-0.1837,0.036088
0.385809,0.444628,-0.131767,-0.635887,0.437928,-0.180932,0.037573
0.389676,0.446787,-0.133263,-0.636748,0.439156,-0.178981,0.039238
0.396246,0.449662,-0.135266,-0.637822,0.441237,-0.176823,0.042547
0.399001,0.450793,-0.135952,-0.638346,0.442337,-0.176012,0.043698
0.406469,0.454222,-0.137513,-0.640557,0.446568,-0.173084,0.04523
0.409718,0.455532,-0.137928,-0.641421,0.448512,-0.172443,0.045439
0.418002,0.458531,-0.138651,-0.643421,0.453502,-0.171647,0.045676
0.421205,0.45959,-0.138886,-0.644121,0.455378,-0.171467,0.045877
0.428886,0.462047,-0.139425,-0.645784,0.459793,-0.170923,0.046632
0.433421,0.463236,-0.139606,-0.646532,0.462298,-0.17119,0.047148
0.439504,0.464523,-0.139607,-0.647493,0.465808,-0.171877,0.047846
0.444178,0.465107,-0.139285,-0.648229,0.468777,-0.172733,0.048444
0.451962,0.465966,-0.138523,-0.649898,0.474478,-0.173428,0.049394
0.455014,0.466333,-0.138272,-0.65045,0.476531,-0.173896,0.049662
0.462227,0.468198,-0.138385,-0.65188,0.480932,-0.174139,0.04953
0.464988,0.469239,-0.138649,-0.652476,0.482493,-0.173958,0.049145
0.471583,0.47216,-0.139636,-0.653906,0.485922,-0.173108,0.048265
0.47409,0.473338,-0.14011,-0.654415,0.487092,-0.172687,0.048247
0.480148,0.47594,-0.140871,-0.65562,0.488071,-0.17159,0.049431
0.483336,0.477811,-0.141984,-0.656096,0.488909,-0.17059,0.050493
0.487993,0.480359,-0.143169,-0.657126,0.490911,-0.169241,0.051519
0.492104,0.482297,-0.143616,-0.658391,0.493612,-0.168374,0.051662
0.499563,0.485602,-0.143917,-0.66104,0.499364,-0.166981,0.051353
0.502362,0.487289,-0.14421,-0.66251,0.502003,-0.165164,0.051214
0.508634,0.490894,-0.14523,-0.664914,0.506452,-0.162354,0.051827
0.510834,0.492412,-0.14584,-0.665784,0.507849,-0.160897,0.052284
0.516184,0.496117,-0.147307,-0.667931,0.5113,-0.157252,0.053721
0.51846,0.497467,-0.147695,-0.668833,0.512938,-0.156065,0.054357
0.524953,0.50019,-0.147471,-0.671488,0.517536,-0.154169,0.056196
0.528801,0.501797,-0.147429,-0.672983,0.520821,-0.153272,0.057426
0.533711,0.504027,-0.147527,-0.674902,0.524914,-0.151841,0.059013
0.537066,0.505903,-0.147896,-0.676246,0.527529,-0.150311,0.060139
0.542323,0.509168,-0.148731,-0.67839,0.531496,-0.147373,0.06197
0.544436,0.510404,-0.148999,-0.679252,0.53315,-0.146254,0.062651
0.550114,0.513044,-0.149128,-0.681584,0.538095,-0.143951,0.064119
0.552543,0.513939,-0.148986,-0.682588,0.540374,-0.143201,0.064623
0.558444,0.516066,-0.148592,-0.684997,0.545905,-0.141486,0.06578
0.560356,0.5173,-0.148674,-0.686164,0.548091,-0.139579,0.066118
0.565183,0.519598,-0.148333,-0.688288,0.550708,-0.137472,0.067222
0.567517,0.52115,-0.148742,-0.689115,0.552308,-0.136333,0.067868
0.570759,0.52285,-0.148937,-0.690285,0.554847,-0.135198,0.068647
0.573432,0.523689,-0.148608,-0.691325,0.557411,-0.134762,0.069155
0.578049,0.524571,-0.147564,-0.69317,0.562248,-0.134572,0.069881
0.579889,0.524889,-0.147157,-0.693861,0.564109,-0.134555,0.070128
0.584392,0.525857,-0.146543,-0.695243,0.567979,-0.13455,0.070691
0.586194,0.526256,-0.146389,-0.695685,0.569314,-0.13463,0.070909
0.590546,0.527252,-0.146141,-0.696633,0.572293,-0.134861,0.071255
0.592164,0.527653,-0.146084,-0.69698,0.573374,-0.134895,0.071249
0.596335,0.528465,-0.145121,-0.698437,0.575091,-0.134209,0.070583
0.598383,0.5291,-0.145198,-0.698847,0.576349,-0.134031,0.070042
0.600881,0.530001,-0.145378,-0.699382,0.577871,-0.133558,0.069507
0.602513,0.530775,-0.14561,-0.699782,0.578852,-0.132938,0.069334
0.604865,0.532166,-0.146132,-0.700422,0.580229,-0.131538,0.069263
0.605787,0.532675,-0.146315,-0.700681,0.580799,-0.130957,0.069313
0.608261,0.533608,-0.14653,-0.701369,0.582519,-0.129677,0.069724
0.609271,0.533864,-0.146537,-0.701659,0.583294,-0.129183,0.070034
0.611868,0.534431,-0.146508,-0.702372,0.585274,-0.128047,0.070781
0.612956,0.534699,-0.146523,-0.702636,0.586036,-0.127663,0.070935
0.616093,0.535336,-0.146037,-0.703657,0.587399,-0.126541,0.070822
0.617871,0.535841,-0.146131,-0.703998,0.588473,-0.126154,0.070619
0.620331,0.536504,-0.146245,-0.704417,0.589886,-0.125832,0.070364
0.622233,0.537038,-0.146353,-0.704694,0.590884,-0.125752,0.070213
0.625526,0.537946,-0.14654,-0.7051,0.592495,-0.125889,0.069953
0.626901,0.538221,-0.146553,-0.705265,0.593207,-0.126036,0.069875
0.6306,0.538371,-0.146199,-0.705734,0.59543,-0.126755,0.069838
0.632207,0.538207,-0.145895,-0.70594,0.596502,-0.127227,0.069889
0.636156,0.537851,-0.145178,-0.706475,0.599151,-0.12824,0.069989
0.637577,0.537932,-0.145056,-0.706688,0.60004,-0.128365,0.069958
0.641151,0.538691,-0.144536,-0.707691,0.601215,-0.127626,0.069469
0.642867,0.539513,-0.144851,-0.708006,0.602072,-0.127001,0.069142
0.644831,0.540479,-0.145256,-0.708402,0.603089,-0.125947,0.069041
0.646006,0.541029,-0.14552,-0.708671,0.603748,-0.124971,0.069368
0.647486,0.541819,-0.145975,-0.709084,0.60464,-0.122961,0.070374
0.647978,0.542066,-0.146126,-0.709246,0.604983,-0.122127,0.070826
0.649053,0.542376,-0.146307,-0.709668,0.605958,-0.120099,0.071971
0.649371,0.54236,-0.146304,-0.70985,0.60639,-0.119211,0.07252
0.650124,0.542347,-0.146283,-0.710254,0.607374,-0.117335,0.073634
0.650501,0.542481,-0.146328,-0.710371,0.607666,-0.116922,0.073799
0.652019,0.543191,-0.146119,-0.710868,0.607678,-0.116765,0.073185
0.652843,0.543846,-0.146358,-0.710906,0.607801,-0.117241,0.072495
0.653754,0.544572,-0.146608,-0.710958,0.607956,-0.117788,0.071759
0.654209,0.544902,-0.1467,-0.711013,0.6081,-0.11799,0.071498
0.654716,0.545263,-0.146764,-0.711099,0.608315,-0.118263,0.07127
0.654884,0.545399,-0.146786,-0.711131,0.608384,-0.118373,0.071206
0.655324,0.545847,-0.146899,-0.711199,0.608503,-0.118683,0.07104
0.655487,0.54605,-0.146958,-0.711224,0.608531,-0.118805,0.070997
0.655848,0.546551,-0.147102,-0.711271,0.60856,-0.119176,0.070871
0.655975,0.546731,-0.147147,-0.711281,0.60856,-0.11938,0.070783
0.656242,0.547158,-0.147295,-0.711225,0.608551,-0.120152,0.070371
0.656389,0.547374,-0.147329,-0.711202,0.608496,-0.120671,0.07009
0.656497,0.547619,-0.147345,-0.711201,0.608458,-0.121223,0.06988
0.656478,0.54777,-0.147332,-0.711241,0.608475,-0.121444,0.069931
0.656315,0.547962,-0.14727,-0.711351,0.608549,-0.121616,0.070245
0.656248,0.548012,-0.147234,-0.711392,0.608585,-0.121686,0.07038
0.656178,0.54803,-0.147103,-0.711457,0.608687,-0.122031,0.070625
0.656178,0.547987,-0.147026,-0.711474,0.608743,-0.122221,0.070726
0.656169,0.547873,-0.146854,-0.711493,0.608841,-0.122693,0.070867
0.656142,0.547863,-0.146822,-0.711489,0.608834,-0.122842,0.070827
0.655955,0.548001,-0.146978,-0.71137,0.608748,-0.123129,0.070347
0.655847,0.548097,-0.147048,-0.711322,0.608589,-0.123242,0.069942
0.655666,0.548197,-0.147115,-0.71127,0.608397,-0.123372,0.069553
0.655477,0.548221,-0.147124,-0.71125,0.608282,-0.123441,0.069481
0.655098,0.548223,-0.147108,-0.711231,0.608109,-0.123514,0.069565
0.654967,0.548231,-0.1471,-0.711227,0.608053,-0.123556,0.069598
0.654797,0.54833,-0.147097,-0.71123,0.607965,-0.123754,0.069518
0.654781,0.548399,-0.147102,-0.711237,0.607952,-0.123858,0.069447
0.654781,0.548563,-0.147101,-0.711253,0.607933,-0.124177,0.069242
0.654771,0.548598,-0.147089,-0.71125,0.607919,-0.12433,0.069168
0.654641,0.548656,-0.147211,-0.711093,0.608003,-0.124912,0.068973
0.654615,0.548624,-0.147156,-0.711061,0.607964,-0.12525,0.068857
0.65456,0.548555,-0.147077,-0.711026,0.607923,-0.125627,0.068781
0.654478,0.548467,-0.147009,-0.711009,0.607904,-0.125806,0.068843
0.654303,0.548272,-0.146883,-0.71099,0.607887,-0.126,0.069073
0.654255,0.548209,-0.146839,-0.710982,0.607883,-0.126089,0.069129
0.654285,0.548172,-0.146773,-0.710955,0.607878,-0.126461,0.068951
0.65435,0.548197,-0.146763,-0.71094,0.607877,-0.126661,0.068762
0.65454,0.548284,-0.146743,-0.710911,0.607889,-0.127151,0.068304
0.654594,0.548303,-0.146728,-0.710908,0.607905,-0.127297,0.068226
0.654669,0.548373,-0.146743,-0.710908,0.608125,-0.127551,0.068385
0.654718,0.548383,-0.146692,-0.71095,0.60822,-0.127624,0.068588
0.654688,0.548316,-0.146658,-0.710927,0.60819,-0.127726,0.068813
0.654537,0.548159,-0.146674,-0.710802,0.60796,-0.127837,0.06893
0.654138,0.547775,-0.14675,-0.710476,0.607347,-0.128027,0.069091
0.653996,0.547632,-0.146784,-0.710353,0.607118,-0.128076,0.069102
0.653849,0.54743,-0.146865,-0.710177,0.606811,-0.128035,0.068847
0.653854,0.547399,-0.146901,-0.710145,0.606764,-0.127949,0.068624
0.653907,0.547331,-0.146978,-0.710082,0.606694,-0.127754,0.068073
0.653913,0.547274,-0.146992,-0.710042,0.606644,-0.12775,0.067957
0.653905,0.547029,-0.146988,-0.709882,0.606505,-0.128004,0.068046
0.653895,0.546853,-0.146951,-0.709785,0.606394,-0.128225,0.068201
0.653814,0.54666,-0.146929,-0.709649,0.606193,-0.128496,0.068299
0.653679,0.546585,-0.146955,-0.709546,0.605985,-0.128652,0.068211
0.653357,0.546523,-0.147037,-0.709364,0.605563,-0.128893,0.067922
0.653217,0.54648,-0.147067,-0.709286,0.605387,-0.128989,0.067803
0.652851,0.546227,-0.147098,-0.709059,0.60494,-0.12923,0.067599
0.65268,0.546074,-0.147101,-0.708953,0.604742,-0.129318,0.06754
0.652314,0.545677,-0.14708,-0.708703,0.604307,-0.129584,0.067393
0.652235,0.54555,-0.147057,-0.708628,0.604196,-0.129733,0.067319
0.65227,0.545299,-0.14694,-0.708505,0.604145,-0.130308,0.067087
0.652374,0.545182,-0.146844,-0.708469,0.604188,-0.130682,0.066931
0.652481,0.545069,-0.146751,-0.708419,0.604206,-0.131114,0.066729
0.652496,0.545037,-0.146733,-0.708368,0.604146,-0.131357,0.066583
0.652486,0.545053,-0.146754,-0.708282,0.603997,-0.13168,0.066345
0.652493,0.545049,-0.146761,-0.70825,0.603948,-0.131785,0.066262
0.652593,0.544911,-0.146725,-0.708178,0.603919,-0.131994,0.066117
0.652657,0.544809,-0.146693,-0.708151,0.603935,-0.132056,0.066085
0.652861,0.544573,-0.146623,-0.708097,0.60401,-0.13215,0.066006
0.652959,0.544529,-0.146615,-0.708086,0.604045,-0.132165,0.065953
0.653299,0.544612,-0.146649,-0.708106,0.604105,-0.132147,0.065675
0.653513,0.544721,-0.14671,-0.708124,0.604173,-0.132089,0.065496
0.653763,0.544765,-0.14674,-0.708153,0.604296,-0.13198,0.06543
0.653887,0.544651,-0.146689,-0.708185,0.604435,-0.131846,0.065656
0.654036,0.544315,-0.146531,-0.708251,0.604718,-0.13156,0.06631
0.654114,0.544188,-0.146476,-0.708266,0.604817,-0.131483,0.066484
0.654501,0.544028,-0.146427,-0.708239,0.604984,-0.131571,0.066212
0.654745,0.544014,-0.146433,-0.708209,0.605037,-0.13172,0.065852
0.655234,0.543972,-0.146479,-0.708096,0.605062,-0.132051,0.064896
0.65527,0.543914,-0.146506,-0.708042,0.605001,-0.13206,0.06467
0.654839,0.543619,-0.146542,-0.707915,0.604498,-0.131575,0.064633
0.654367,0.543412,-0.146627,-0.70779,0.604146,-0.131173,0.06476
0.653836,0.543134,-0.146682,-0.707648,0.603772,-0.130821,0.06482
0.653586,0.542925,-0.146656,-0.70757,0.603619,-0.130767,0.064726
0.653272,0.542563,-0.146533,-0.707471,0.603481,-0.130899,0.06445
0.653181,0.542429,-0.146469,-0.707436,0.603449,-0.131031,0.064289
0.653077,0.542164,-0.146274,-0.707361,0.603432,-0.131649,0.063669
0.653102,0.542082,-0.146168,-0.707343,0.603474,-0.13204,0.06331
0.653132,0.541895,-0.145936,-0.707271,0.60351,-0.133004,0.062476
0.653064,0.541814,-0.145891,-0.707215,0.603433,-0.133258,0.062286
0.652691,0.541557,-0.145863,-0.707016,0.602909,-0.133532,0.062333
0.652356,0.541417,-0.145941,-0.706844,0.602512,-0.133547,0.062517
0.651884,0.541268,-0.146081,-0.70662,0.601965,-0.133467,0.062623
0.651519,0.54121,-0.146218,-0.706464,0.601552,-0.133322,0.062484
0.650858,0.541171,-0.146509,-0.706203,0.600817,-0.132917,0.062071
0.650593,0.541145,-0.146621,-0.7061,0.600529,-0.132745,0.061914
0.649932,0.540981,-0.146839,-0.705844,0.599849,-0.132378,0.061685
0.649648,0.540884,-0.146912,-0.705739,0.599579,-0.132231,0.061629
0.649037,0.540622,-0.147064,-0.705494,0.598977,-0.131913,0.061574
0.648886,0.540527,-0.147112,-0.705409,0.598791,-0.131829,0.06159
0.6488,0.540316,-0.147281,-0.705156,0.598591,-0.131871,0.061775
0.648892,0.540184,-0.147302,-0.705062,0.598498,-0.131918,0.061941
0.648932,0.540074,-0.14736,-0.704973,0.598373,-0.131827,0.062143
0.648845,0.540096,-0.14745,-0.704959,0.59828,-0.131518,0.062268
0.648604,0.540243,-0.147641,-0.704994,0.598146,-0.130768,0.062462
0.648484,0.54027,-0.147707,-0.70499,0.598066,-0.130521,0.062525
0.648141,0.540077,-0.147782,-0.704835,0.597709,-0.13037,0.062641
0.647982,0.53991,-0.147782,-0.704723,0.59751,-0.130462,0.06268
0.647546,0.539458,-0.147765,-0.70442,0.596978,-0.130779,0.062697
0.647364,0.539321,-0.147769,-0.704322,0.596787,-0.130851,0.062649
0.646898,0.539127,-0.147835,-0.704144,0.596423,-0.130837,0.062289
0.646605,0.539044,-0.147869,-0.704064,0.596204,-0.130789,0.062005
0.64616,0.538907,-0.14791,-0.703923,0.595839,-0.130815,0.061748
0.645753,0.538775,-0.147939,-0.703776,0.595471,-0.130947,0.06174
0.644985,0.538527,-0.147986,-0.703484,0.594753,-0.131288,0.061902
0.64469,0.538411,-0.147999,-0.703361,0.594467,-0.131441,0.061943
0.644092,0.538061,-0.148002,-0.703061,0.593852,-0.131831,0.061771
0.643899,0.537897,-0.147987,-0.702942,0.59364,-0.132008,0.061612
0.643425,0.537454,-0.147968,-0.70262,0.593078,-0.132415,0.061198
0.643208,0.53727,-0.147986,-0.70247,0.592801,-0.13253,0.061092
0.64249,0.536776,-0.148195,-0.701952,0.591966,-0.132749,0.061034
0.642063,0.536458,-0.148301,-0.701654,0.591373,-0.132784,0.061053
0.641603,0.53609,-0.148449,-0.701297,0.590674,-0.132765,0.061043
0.641378,0.535887,-0.148568,-0.701086,0.590267,-0.132665,0.060978
0.641147,0.535628,-0.148784,-0.70079,0.589709,-0.132383,0.060827
0.641091,0.535522,-0.148863,-0.700672,0.589504,-0.132299,0.060765
0.64101,0.535167,-0.149018,-0.700324,0.588961,-0.132338,0.060647
0.641004,0.534994,-0.149067,-0.700162,0.58873,-0.132441,0.060617
0.641088,0.534589,-0.149162,-0.699801,0.588263,-0.132715,0.060499
0.64117,0.53447,-0.149188,-0.699707,0.58817,-0.132768,0.060407
0.641535,0.534342,-0.149253,-0.699622,0.588305,-0.132729,0.05996
0.641835,0.53431,-0.149248,-0.69965,0.588486,-0.132631,0.059644
0.642213,0.53422,-0.149243,-0.699646,0.588657,-0.132568,0.059386
0.642446,0.53406,-0.14924,-0.699569,0.588664,-0.132622,0.059431
0.642809,0.533721,-0.149231,-0.699385,0.588588,-0.132808,0.059747
0.642966,0.533615,-0.149235,-0.699321,0.588567,-0.13288,0.059837
0.643449,0.533577,-0.149285,-0.699251,0.588637,-0.132986,0.059648
0.643673,0.533642,-0.149321,-0.699252,0.588702,-0.133015,0.059428
0.644241,0.53383,-0.149418,-0.69927,0.588882,-0.133039,0.058894
0.644446,0.533859,-0.149451,-0.699266,0.588938,-0.133019,0.058805
0.64491,0.533766,-0.149472,-0.699251,0.588988,-0.132846,0.059036
0.645153,0.533677,-0.149507,-0.699218,0.589028,-0.132709,0.059301
0.645493,0.533582,-0.149557,-0.699176,0.589091,-0.132553,0.059521
0.64579,0.533543,-0.149593,-0.699154,0.589167,-0.132475,0.059498
0.646314,0.533502,-0.149654,-0.699123,0.589312,-0.132377,0.059288
0.646495,0.533495,-0.149684,-0.699107,0.589351,-0.132344,0.059188
0.64677,0.533508,-0.14979,-0.699042,0.589319,-0.13225,0.058959
0.64681,0.533524,-0.149848,-0.699003,0.589253,-0.132205,0.058849
0.646906,0.533592,-0.14998,-0.698921,0.589104,-0.132141,0.058639
0.646997,0.53363,-0.150011,-0.698911,0.589101,-0.132156,0.058625
0.647407,0.533714,-0.149942,-0.698983,0.589206,-0.132327,0.058862
0.647689,0.533798,-0.149915,-0.69903,0.589365,-0.132493,0.059088
0.648091,0.533982,-0.149901,-0.699119,0.589607,-0.132663,0.059289
0.648415,0.534212,-0.149926,-0.699216,0.589816,-0.132705,0.059293
0.649003,0.534708,-0.149997,-0.699424,0.59022,-0.132704,0.059166
0.649237,0.534895,-0.15002,-0.699503,0.590378,-0.13272,0.059119
0.649794,0.535218,-0.150028,-0.699646,0.590727,-0.132896,0.059143
0.650018,0.535306,-0.150015,-0.699689,0.590859,-0.133013,0.0592
0.650523,0.53549,-0.149974,-0.699776,0.591148,-0.133327,0.059315
0.65068,0.535569,-0.149965,-0.699807,0.591239,-0.133436,0.059307
0.650921,0.535779,-0.149958,-0.699884,0.591372,-0.133611,0.059102
0.651002,0.535905,-0.149968,-0.699916,0.591424,-0.133712,0.058917
0.651126,0.536061,-0.149966,-0.699951,0.591494,-0.133929,0.05869
0.651256,0.536171,-0.149941,-0.699972,0.591562,-0.134207,0.058541
0.651489,0.536341,-0.149875,-0.699995,0.591673,-0.134793,0.058303
0.651578,0.536397,-0.149852,-0.699999,0.591707,-0.135011,0.058234
0.65177,0.536501,-0.149829,-0.699994,0.591753,-0.13539,0.058202
0.651838,0.53653,-0.149826,-0.699988,0.591761,-0.135501,0.058248
0.651995,0.536571,-0.149847,-0.699952,0.59174,-0.135688,0.05837
0.652052,0.536576,-0.149869,-0.699925,0.59171,-0.135728,0.058377
0.652152,0.536562,-0.150016,-0.699794,0.591633,-0.135727,0.058318
0.65222,0.536527,-0.150093,-0.699719,0.591526,-0.135653,0.058232
0.652311,0.536484,-0.150223,-0.699588,0.591326,-0.135573,0.058013
0.652354,0.536462,-0.150359,-0.699444,0.591084,-0.13555,0.057711
0.652411,0.53643,-0.150633,-0.69915,0.590578,-0.135528,0.057041
0.652473,0.53641,-0.150731,-0.699045,0.590415,-0.135516,0.0568
0.652829,0.536328,-0.150876,-0.698886,0.59028,-0.135463,0.05644
0.653037,0.536282,-0.150904,-0.698852,0.590311,-0.135436,0.056359
0.653665,0.536159,-0.150943,-0.698808,0.590497,-0.135346,0.056288
0.653945,0.536112,-0.15096,-0.698795,0.590586,-0.135294,0.056311
0.6547,0.535997,-0.151058,-0.698742,0.5909,-0.135131,0.056617
0.655225,0.535923,-0.151081,-0.698745,0.591104,-0.134997,0.056872
0.655971,0.535859,-0.151117,-0.69876,0.591403,-0.134828,0.057079
0.656589,0.535855,-0.151159,-0.698777,0.591649,-0.134715,0.057049
0.657701,0.535901,-0.151241,-0.698821,0.592103,-0.134535,0.056816
0.658127,0.53592,-0.151265,-0.698843,0.59229,-0.13447,0.056725
0.659039,0.535934,-0.151277,-0.698925,0.592755,-0.134323,0.056635
0.659361,0.535938,-0.151265,-0.69897,0.592952,-0.134266,0.056631
0.660093,0.535911,-0.151215,-0.699072,0.59341,-0.134168,0.056664
0.660363,0.535873,-0.151193,-0.699093,0.59356,-0.13416,0.056691
0.661062,0.535636,-0.150948,-0.699194,0.593723,-0.134204,0.056851
0.661389,0.535484,-0.150895,-0.699166,0.593852,-0.134311,0.056969
0.661776,0.535298,-0.150858,-0.699115,0.593972,-0.134386,0.057016
0.662022,0.535174,-0.150874,-0.699064,0.594014,-0.134325,0.056916
0.662356,0.534979,-0.150947,-0.698957,0.594006,-0.134118,0.056594
0.662474,0.534918,-0.150974,-0.698915,0.593995,-0.134073,0.056454
0.662743,0.534865,-0.151014,-0.698824,0.593962,-0.134226,0.056138
0.66283,0.534886,-0.151032,-0.698786,0.593927,-0.134368,0.055999
0.663054,0.534928,-0.151015,-0.698723,0.593916,-0.134836,0.05572
0.663169,0.5349,-0.150958,-0.698724,0.593988,-0.135047,0.055674
0.663666,0.5346,-0.150434,-0.698934,0.594379,-0.135674,0.055834
0.663935,0.534404,-0.150156,-0.699033,0.594772,-0.136117,0.056008
0.664188,0.534224,-0.149902,-0.699105,0.595109,-0.136591,0.056106
0.664256,0.534216,-0.149874,-0.699084,0.595116,-0.136798,0.055989
0.66423,0.534324,-0.149988,-0.698971,0.594876,-0.136983,0.055608
0.664193,0.534344,-0.150032,-0.698917,0.594762,-0.137042,0.05546
0.664068,0.534179,-0.150005,-0.698806,0.594598,-0.137245,0.055266
0.663992,0.534045,-0.149953,-0.698764,0.594557,-0.137336,0.055237
0.663784,0.533662,-0.149831,-0.69864,0.594424,-0.137528,0.055182
0.663713,0.533525,-0.149815,-0.698572,0.594333,-0.137572,0.055141
0.663656,0.533177,-0.149711,-0.698448,0.59386,-0.137541,0.054986
0.66358,0.533005,-0.149783,-0.698291,0.593608,-0.137504,0.054877
0.663485,0.532766,-0.149886,-0.698071,0.593257,-0.137449,0.054698
0.663438,0.532568,-0.149953,-0.697897,0.593,-0.137451,0.054496
0.663378,0.53222,-0.150077,-0.697585,0.592548,-0.137459,0.054093
0.663323,0.532092,-0.150143,-0.697462,0.592347,-0.137403,0.053975
0.662988,0.531849,-0.150407,-0.697171,0.591734,-0.136898,0.053966
0.662776,0.531781,-0.150559,-0.697056,0.591435,-0.136541,0.054065
0.662249,0.53161,-0.150907,-0.69679,0.59073,-0.135696,0.054363
0.662106,0.531517,-0.150984,-0.696698,0.590526,-0.13552,0.054438
0.661997,0.531128,-0.150904,-0.696536,0.590219,-0.135623,0.054524
0.661985,0.530889,-0.150821,-0.696441,0.590156,-0.135862,0.054537
0.661969,0.530694,-0.150758,-0.696345,0.590071,-0.136113,0.054495
0.661939,0.53071,-0.15079,-0.696305,0.589985,-0.136166,0.054383
0.661899,0.530915,-0.150903,-0.696284,0.589857,-0.136178,0.054097
0.66188,0.530993,-0.150944,-0.696276,0.589807,-0.136193,0.05401
0.661821,0.531055,-0.150976,-0.696237,0.589695,-0.136331,0.054024
0.661792,0.531055,-0.150971,-0.696222,0.589659,-0.136413,0.054114
0.661716,0.530977,-0.150935,-0.696155,0.589546,-0.136667,0.054338
0.661684,0.530902,-0.150918,-0.696103,0.589478,-0.136789,0.054358
0.661624,0.53055,-0.150814,-0.695908,0.58923,-0.137251,0.054216
0.661576,0.530284,-0.15076,-0.695752,0.58906,-0.137544,0.054052
0.661491,0.529957,-0.150743,-0.695541,0.588796,-0.137769,0.053783
0.661382,0.529766,-0.150813,-0.695377,0.588535,-0.13771,0.053497
0.66116,0.529482,-0.151014,-0.695091,0.588028,-0.137369,0.052917
0.661101,0.529361,-0.151078,-0.694988,0.587861,-0.137247,0.05274
0.661133,0.528975,-0.151076,-0.694798,0.587676,-0.137239,0.052685
0.661203,0.528786,-0.151019,-0.694744,0.58768,-0.137331,0.052802
0.661459,0.528349,-0.15087,-0.694642,0.587764,-0.137547,0.053148
0.661576,0.52823,-0.150848,-0.69461,0.587793,-0.13755,0.053215
0.662019,0.528126,-0.15082,-0.694647,0.587801,-0.137253,0.053129
0.662277,0.528145,-0.150904,-0.694647,0.587866,-0.136994,0.053021
0.662548,0.52807,-0.150989,-0.694608,0.587898,-0.136702,0.052962
0.662635,0.527863,-0.151016,-0.69452,0.587832,-0.136541,0.053048
0.66267,0.527375,-0.15103,-0.694317,0.587634,-0.136322,0.053311
0.662714,0.527195,-0.151024,-0.694245,0.587582,-0.136279,0.053403
0.663076,0.52694,-0.150964,-0.694169,0.587681,-0.136398,0.05345
0.663312,0.526897,-0.150918,-0.694172,0.587801,-0.136545,0.053404
0.66391,0.526818,-0.150807,-0.694193,0.588117,-0.136899,0.053313
0.664083,0.526762,-0.150785,-0.694185,0.58819,-0.136945,0.053347
0.66441,0.526497,-0.150627,-0.69424,0.588059,-0.136651,0.053687
0.664483,0.526349,-0.150667,-0.694188,0.588016,-0.136416,0.053968
0.664577,0.526141,-0.150694,-0.694112,0.587964,-0.13621,0.054245
0.664669,0.525972,-0.15068,-0.694045,0.587939,-0.136216,0.054323
0.664814,0.525669,-0.150624,-0.69392,0.587892,-0.13637,0.054325
0.664858,0.525551,-0.150596,-0.693878,0.587883,-0.136425,0.054314
0.664918,0.525303,-0.150521,-0.693832,0.587925,-0.136422,0.054307
0.664929,0.525222,-0.150486,-0.693837,0.587971,-0.136384,0.054297
0.664896,0.525001,-0.150398,-0.693845,0.588061,-0.136255,0.054289
0.664849,0.524883,-0.150369,-0.693824,0.588051,-0.136206,0.054305
0.664728,0.52441,-0.150072,-0.693843,0.587705,-0.136027,0.054418
0.664537,0.524134,-0.150041,-0.693741,0.587553,-0.13596,0.054514
0.664289,0.523799,-0.150023,-0.693606,0.587341,-0.135834,0.054607
0.664128,0.523601,-0.150042,-0.693512,0.587179,-0.135687,0.054628
0.663865,0.523316,-0.150112,-0.693354,0.586885,-0.135384,0.054616
0.663752,0.523197,-0.150133,-0.693291,0.58677,-0.135278,0.054607
0.663432,0.522838,-0.150116,-0.693143,0.586521,-0.135127,0.054591
0.663292,0.522673,-0.150089,-0.693086,0.586434,-0.135099,0.054581
0.662915,0.522261,-0.150002,-0.692947,0.586216,-0.13509,0.054567
0.66275,0.522111,-0.149969,-0.69289,0.586118,-0.135109,0.054571
0.662414,0.521717,-0.149668,-0.692885,0.585689,-0.135193,0.054626
0.662125,0.521535,-0.149613,-0.692802,0.585519,-0.135314,0.054674
0.661706,0.521292,-0.149563,-0.692675,0.585246,-0.135443,0.054703
0.661348,0.521108,-0.149558,-0.692556,0.584978,-0.135487,0.05468
0.660697,0.520805,-0.149582,-0.69233,0.584459,-0.135519,0.054594
0.660446,0.520683,-0.149587,-0.692243,0.584263,-0.135537,0.054556
0.659889,0.520373,-0.149548,-0.692065,0.583878,-0.135647,0.054476
0.659677,0.520247,-0.149517,-0.692004,0.58375,-0.135712,0.054446
0.659229,0.519933,-0.149427,-0.691869,0.583492,-0.135881,0.054369
0.659101,0.519809,-0.149393,-0.69182,0.583414,-0.135937,0.054337
0.659046,0.519447,-0.149179,-0.691777,0.583239,-0.13608,0.05424
0.659045,0.519258,-0.14912,-0.691722,0.583225,-0.136155,0.054183
0.65898,0.519052,-0.149086,-0.691649,0.583156,-0.136151,0.054123
0.658836,0.518971,-0.149123,-0.691594,0.583028,-0.136011,0.054088
0.658515,0.518911,-0.149255,-0.691506,0.582745,-0.135617,0.054047
0.658384,0.51886,-0.149295,-0.691467,0.582635,-0.135473,0.054051
0.658109,0.51853,-0.149268,-0.691351,0.582446,-0.135306,0.054181
0.65801,0.518326,-0.149213,-0.691301,0.582401,-0.135296,0.05429
0.657767,0.517789,-0.149074,-0.691155,0.582267,-0.135306,0.05452
0.657666,0.517608,-0.14905,-0.691084,0.582175,-0.135294,0.054533
0.657474,0.517214,-0.148954,-0.690943,0.581691,-0.135185,0.05426
0.657311,0.517034,-0.149013,-0.690789,0.581428,-0.135133,0.054013
0.65709,0.516793,-0.149072,-0.690608,0.581118,-0.135059,0.053777
0.656909,0.516594,-0.14908,-0.690502,0.58094,-0.134993,0.053717
0.656595,0.516261,-0.149067,-0.690357,0.580692,-0.134871,0.053729
0.656485,0.516144,-0.149063,-0.690305,0.580601,-0.134828,0.053769
0.656289,0.515923,-0.149088,-0.690174,0.580366,-0.134759,0.053978
0.656236,0.515859,-0.149108,-0.690121,0.580269,-0.134746,0.054118
0.656144,0.51574,-0.149158,-0.690012,0.580064,-0.134718,0.054474
0.656115,0.515701,-0.149169,-0.689984,0.580012,-0.134702,0.054572
0.656171,0.515628,-0.149055,-0.690051,0.579942,-0.134623,0.054696
0.656183,0.515619,-0.149042,-0.690071,0.579985,-0.134584,0.054722
0.656108,0.515564,-0.149042,-0.690051,0.579942,-0.134529,0.054706
0.655947,0.515472,-0.149072,-0.689976,0.579782,-0.134479,0.054631
0.655553,0.515262,-0.149148,-0.689786,0.57938,-0.134389,0.054419
0.655379,0.515162,-0.149175,-0.689703,0.579207,-0.134363,0.054348
0.654935,0.514853,-0.149198,-0.6895,0.578803,-0.134343,0.054336
0.65474,0.514696,-0.149193,-0.689412,0.578635,-0.134349,0.054392
0.654266,0.514329,-0.149174,-0.689205,0.578238,-0.134398,0.054505
0.654107,0.514231,-0.149172,-0.689138,0.578103,-0.134433,0.054483
0.653842,0.514145,-0.149132,-0.689064,0.577803,-0.134563,0.054167
0.653699,0.514157,-0.149147,-0.689018,0.57768,-0.134669,0.053908
0.653494,0.514114,-0.149155,-0.688938,0.577498,-0.134811,0.053651
0.653303,0.513976,-0.149136,-0.688845,0.577329,-0.134929,0.053593
0.652965,0.51366,-0.149084,-0.688664,0.577025,-0.13514,0.053618
0.652848,0.51356,-0.149077,-0.688598,0.576908,-0.135201,0.053621
0.652663,0.513522,-0.149155,-0.688482,0.576646,-0.135214,0.053484
0.652623,0.513577,-0.149221,-0.68845,0.576548,-0.135166,0.05338
0.652577,0.513763,-0.149401,-0.688389,0.576331,-0.135029,0.05314
0.65257,0.513819,-0.149456,-0.688367,0.57626,-0.135004,0.053098
0.652565,0.513908,-0.149591,-0.688277,0.576166,-0.135075,0.053183
0.652602,0.513948,-0.149627,-0.688251,0.576111,-0.135124,0.05329
0.652673,0.514034,-0.149685,-0.688227,0.57605,-0.135174,0.05339
0.652736,0.514141,-0.149745,-0.688219,0.57601,-0.135192,0.053402
0.652872,0.514364,-0.149859,-0.688222,0.575963,-0.135206,0.053371
0.652948,0.514454,-0.149905,-0.688226,0.575957,-0.135201,0.053351
0.653218,0.514644,-0.150015,-0.68824,0.575988,-0.13514,0.053307
0.653353,0.514712,-0.15006,-0.688247,0.576015,-0.135095,0.053286
0.653754,0.514879,-0.150164,-0.688276,0.576129,-0.13498,0.053229
0.653938,0.514951,-0.150198,-0.688297,0.576197,-0.134949,0.053206
0.654395,0.515151,-0.150345,-0.688305,0.576469,-0.134934,0.053141
0.654739,0.515265,-0.150374,-0.688355,0.576633,-0.134927,0.053101
0.655293,0.515458,-0.150396,-0.688459,0.57694,-0.134944,0.053082
0.655817,0.515666,-0.150395,-0.688584,0.577271,-0.134995,0.053102
0.656835,0.516079,-0.150367,-0.688851,0.577956,-0.135127,0.053181
0.657246,0.516228,-0.150354,-0.688956,0.578234,-0.135163,0.053224
0.658196,0.516457,-0.150329,-0.689163,0.578846,-0.135134,0.05338
0.658562,0.516497,-0.150317,-0.68923,0.579073,-0.135084,0.053471
0.659449,0.516592,-0.150295,-0.689393,0.579628,-0.134923,0.053667
0.659788,0.516667,-0.150292,-0.689468,0.579849,-0.134865,0.053699
0.66057,0.516987,-0.150291,-0.689725,0.580363,-0.134607,0.053595
0.661012,0.517218,-0.150317,-0.68987,0.580686,-0.134486,0.053483
0.661657,0.517482,-0.150305,-0.690048,0.581137,-0.134512,0.053397
0.662233,0.5176,-0.150223,-0.690156,0.581513,-0.134794,0.053414
0.663279,0.51773,-0.150012,-0.690313,0.582173,-0.135554,0.05352
0.663674,0.51781,-0.149946,-0.690381,0.582423,-0.135813,0.053576
0.664474,0.518224,-0.149941,-0.690604,0.582948,-0.135984,0.053749
0.664731,0.518472,-0.149996,-0.690712,0.583121,-0.135895,0.053843
0.665338,0.519082,-0.150138,-0.690981,0.583543,-0.135627,0.054051
0.665605,0.519252,-0.150153,-0.691073,0.583733,-0.135606,0.054091
0.666388,0.519451,-0.150013,-0.691298,0.584285,-0.135819,0.054036
0.666863,0.519493,-0.149908,-0.691398,0.584645,-0.136043,0.053956
0.667429,0.519532,-0.1498,-0.691508,0.585053,-0.136258,0.053884
0.667765,0.519555,-0.149766,-0.691565,0.585269,-0.136299,0.053887
0.66823,0.519555,-0.149747,-0.691621,0.58553,-0.136259,0.053935
0.668412,0.519565,-0.149746,-0.691641,0.585625,-0.136239,0.053948
0.66894,0.519687,-0.14975,-0.691724,0.585914,-0.136262,0.05391
0.669178,0.519776,-0.149756,-0.691769,0.586048,-0.136291,0.05387
0.66972,0.519969,-0.149784,-0.691855,0.586323,-0.136348,0.053773
0.669878,0.519994,-0.149799,-0.69186,0.586378,-0.136346,0.053755
0.670099,0.519864,-0.149787,-0.691836,0.586253,-0.136148,0.053804
0.670138,0.519738,-0.149836,-0.691751,0.586148,-0.136033,0.053855
0.670241,0.519573,-0.149869,-0.691636,0.586037,-0.136039,0.053856
0.670422,0.519447,-0.149842,-0.691547,0.586009,-0.136289,0.053765
0.670797,0.519222,-0.149747,-0.691386,0.585995,-0.136953,0.053519
0.670916,0.519165,-0.149724,-0.691335,0.585984,-0.137159,0.053424
0.671012,0.519229,-0.149807,-0.691294,0.585915,-0.137127,0.053259
0.670988,0.519339,-0.149892,-0.691311,0.585878,-0.136919,0.053204
0.670835,0.519607,-0.150097,-0.691355,0.585753,-0.136398,0.053127
0.670753,0.51964,-0.150133,-0.691344,0.585684,-0.136344,0.053136
0.670502,0.519449,-0.15003,-0.691247,0.585435,-0.136673,0.053369
0.670297,0.519266,-0.14994,-0.691147,0.585274,-0.137037,0.053554
0.669998,0.519084,-0.149843,-0.691011,0.585031,-0.13755,0.053642
0.669738,0.519035,-0.14982,-0.690906,0.584798,-0.137901,0.053513
0.669255,0.519027,-0.149812,-0.69072,0.584354,-0.138537,0.053082
0.669083,0.519036,-0.149791,-0.690657,0.584207,-0.13884,0.052884
0.668812,0.519064,-0.149623,-0.690573,0.584052,-0.139842,0.05239
0.668762,0.519086,-0.149513,-0.690564,0.584065,-0.14035,0.052159
0.668641,0.519142,-0.149225,-0.690559,0.584129,-0.141605,0.051655
0.668552,0.519158,-0.149136,-0.690551,0.584117,-0.142005,0.051544
0.668131,0.519176,-0.149068,-0.690442,0.584008,-0.142785,0.051618
0.66786,0.51918,-0.149007,-0.690416,0.583884,-0.143084,0.051762
0.667596,0.519191,-0.148929,-0.690379,0.583754,-0.143504,0.051852
0.66751,0.519213,-0.14886,-0.690355,0.583709,-0.1439,0.051783
0.667492,0.519262,-0.148747,-0.690313,0.583681,-0.144588,0.051545
0.667519,0.519276,-0.148718,-0.69029,0.583669,-0.14482,0.051426
0.667635,0.519269,-0.148727,-0.690188,0.583571,-0.145166,0.051065
0.667702,0.519253,-0.148764,-0.690127,0.5835,-0.145223,0.050869
0.667979,0.519204,-0.148863,-0.689993,0.583389,-0.145278,0.050466
0.668154,0.519187,-0.14888,-0.68997,0.583418,-0.1453,0.05042
0.668778,0.519123,-0.148951,-0.689921,0.583776,-0.145407,0.050795
0.669265,0.519087,-0.148914,-0.689979,0.584049,-0.145393,0.051137
0.669906,0.519119,-0.14886,-0.690075,0.584433,-0.145468,0.05136
0.670393,0.51927,-0.148816,-0.690178,0.584755,-0.145655,0.051183
0.671225,0.519652,-0.148729,-0.69039,0.585352,-0.146104,0.050556
0.671499,0.519765,-0.148696,-0.690454,0.585544,-0.146268,0.050339
0.671852,0.519719,-0.148635,-0.690459,0.585718,-0.146482,0.050263
0.671867,0.519582,-0.148619,-0.690402,0.58567,-0.146504,0.050388
0.671843,0.51922,-0.14857,-0.690258,0.585535,-0.146547,0.050691
0.671888,0.519154,-0.148537,-0.690247,0.585564,-0.146601,0.050686
0.672235,0.519266,-0.148344,-0.69044,0.585894,-0.14681,0.050186
0.672462,0.519412,-0.148251,-0.690573,0.586198,-0.146994,0.049765
0.672681,0.519494,-0.14813,-0.690687,0.586496,-0.147238,0.049381
0.672709,0.519363,-0.148036,-0.690668,0.586546,-0.147435,0.049349
0.672628,0.518973,-0.147875,-0.690543,0.586474,-0.14778,0.049536
0.672629,0.51887,-0.147824,-0.690518,0.586477,-0.147881,0.049607
0.672908,0.51905,-0.147778,-0.690666,0.586781,-0.147922,0.049541
0.673112,0.519277,-0.147791,-0.690797,0.586999,-0.147858,0.049433
0.673677,0.519875,-0.147827,-0.691152,0.587596,-0.147664,0.049229
0.673874,0.520012,-0.147815,-0.691257,0.587797,-0.147627,0.049258
0.674269,0.519981,-0.147656,-0.691427,0.58816,-0.147632,0.04978
0.674482,0.519872,-0.147557,-0.691481,0.588364,-0.147687,0.050212
0.674829,0.519849,-0.147467,-0.691576,0.588658,-0.147747,0.050571
0.675185,0.520025,-0.147461,-0.691686,0.588916,-0.147778,0.050527
0.675873,0.520491,-0.147511,-0.691899,0.589377,-0.14782,0.05015
0.67613,0.520649,-0.147524,-0.69198,0.589557,-0.147822,0.050016
0.676624,0.520773,-0.14747,-0.692154,0.58999,-0.147742,0.050018
0.676784,0.520743,-0.14742,-0.692221,0.590172,-0.147672,0.050118
0.677092,0.52058,-0.147292,-0.692338,0.590536,-0.147514,0.050396
0.677174,0.52051,-0.14726,-0.692346,0.590604,-0.147498,0.050454
0.677347,0.520275,-0.147093,-0.692335,0.590459,-0.147574,0.050429
0.677351,0.520121,-0.147091,-0.692214,0.590317,-0.147736,0.050373
0.677248,0.519945,-0.147136,-0.692063,0.590081,-0.147755,0.050281
0.677079,0.519877,-0.147232,-0.691989,0.589889,-0.14747,0.05021
0.676644,0.519814,-0.14747,-0.691878,0.589496,-0.146696,0.050062
0.67643,0.519757,-0.147549,-0.691815,0.58931,-0.146449,0.049989
0.675784,0.519395,-0.147604,-0.691542,0.588739,-0.146392,0.049751
0.675462,0.519167,-0.147579,-0.691389,0.588458,-0.146547,0.049631
0.674667,0.518589,-0.147492,-0.690995,0.587758,-0.14706,0.049329
0.674412,0.518417,-0.147474,-0.690865,0.587522,-0.147219,0.049229
0.674025,0.518127,-0.147409,-0.690629,0.587023,-0.147648,0.049002
0.673838,0.518036,-0.147415,-0.690512,0.586803,-0.147834,0.048888
0.673545,0.517929,-0.147468,-0.690365,0.586482,-0.147894,0.048831
0.673224,0.517849,-0.147572,-0.690254,0.586172,-0.147673,0.048919
0.672621,0.517744,-0.147818,-0.690083,0.58561,-0.147009,0.049215
0.672424,0.51771,-0.147898,-0.690026,0.585424,-0.146799,0.049304
0.672193,0.517631,-0.147944,-0.689919,0.585183,-0.146802,0.049227
0.672184,0.517599,-0.147912,-0.689887,0.585158,-0.146977,0.049091
0.672286,0.517562,-0.147803,-0.689848,0.585203,-0.147491,0.048759
0.672358,0.517582,-0.147778,-0.689854,0.585245,-0.147618,0.048716
0.672668,0.517713,-0.147777,-0.689906,0.585474,-0.147829,0.048891
0.672914,0.517846,-0.147777,-0.689991,0.585652,-0.147836,0.049089
0.673194,0.518069,-0.14782,-0.690106,0.585843,-0.147752,0.049377
0.673322,0.518308,-0.147919,-0.690192,0.585911,-0.147541,0.049632
0.673468,0.518792,-0.148159,-0.690343,0.585962,-0.147019,0.050122
0.673536,0.51895,-0.148231,-0.690392,0.585988,-0.146876,0.050272
0.673821,0.519082,-0.148218,-0.690448,0.586147,-0.147043,0.050349
0.673976,0.519043,-0.148143,-0.690446,0.586243,-0.147305,0.050269
0.67435,0.518902,-0.147948,-0.690425,0.586468,-0.147963,0.050033
0.674456,0.518886,-0.147919,-0.690424,0.58652,-0.148074,0.050002
0.674613,0.519033,-0.148035,-0.690456,0.586576,-0.147833,0.050096
0.67466,0.51914,-0.148143,-0.690477,0.586551,-0.147549,0.050215
0.67464,0.519179,-0.148255,-0.690469,0.586471,-0.147213,0.050404
0.674534,0.519073,-0.14829,-0.690421,0.586362,-0.147033,0.050613
0.674227,0.518749,-0.148309,-0.690292,0.586105,-0.146762,0.051035
0.674106,0.518618,-0.148312,-0.690236,0.586003,-0.146682,0.051137
0.673913,0.518394,-0.148321,-0.690118,0.585812,-0.146604,0.050962
0.673866,0.518329,-0.14832,-0.690075,0.585756,-0.146619,0.050732
0.673755,0.518179,-0.148321,-0.689957,0.585603,-0.146706,0.050104
0.673697,0.51811,-0.148328,-0.6899,0.585515,-0.146739,0.049943
0.673484,0.517876,-0.148361,-0.689698,0.585163,-0.146842,0.049793
0.673345,0.517736,-0.148393,-0.689564,0.584931,-0.146911,0.049789
0.673223,0.517632,-0.148437,-0.689446,0.584715,-0.14695,0.049818
0.673198,0.517648,-0.148477,-0.689424,0.584651,-0.146898,0.049852
0.673239,0.517789,-0.148552,-0.689467,0.584663,-0.14673,0.049965
0.673277,0.517863,-0.148566,-0.689505,0.584709,-0.146682,0.05003
0.673446,0.51805,-0.148512,-0.689664,0.584975,-0.146721,0.050275
0.67356,0.518141,-0.148453,-0.689764,0.585163,-0.146787,0.050416
0.673799,0.518362,-0.148307,-0.689998,0.585592,-0.146996,0.050739
0.673822,0.518432,-0.148279,-0.690045,0.585664,-0.147075,0.050809
0.673681,0.518559,-0.148314,-0.690014,0.585512,-0.147258,0.0508
0.673505,0.518613,-0.148367,-0.689942,0.585309,-0.147376,0.050724
0.673201,0.518657,-0.148405,-0.689864,0.58506,-0.147525,0.050606
0.672897,0.518673,-0.148397,-0.689842,0.58492,-0.147595,0.050529
0.672271,0.518661,-0.148346,-0.689825,0.584695,-0.147685,0.050373
0.672031,0.518636,-0.148309,-0.689813,0.584614,-0.147772,0.050285
0.67158,0.518499,-0.148143,-0.689743,0.584458,-0.1483,0.049957
0.671442,0.518411,-0.148042,-0.689704,0.584417,-0.148633,0.049787
0.671132,0.518173,-0.147795,-0.689586,0.584304,-0.149481,0.049299
0.671006,0.518092,-0.147731,-0.689533,0.584233,-0.149733,0.04909
0.670683,0.517927,-0.147732,-0.689302,0.584058,-0.150311,0.048445
0.670512,0.517845,-0.147723,-0.689207,0.583895,-0.150474,0.048031
0.670237,0.517745,-0.147766,-0.689071,0.583615,-0.150523,0.047659
0.669941,0.517681,-0.14787,-0.688952,0.583305,-0.150357,0.047606
0.669369,0.517591,-0.148136,-0.688737,0.582679,-0.149815,0.047775
0.669188,0.517553,-0.148228,-0.688663,0.582469,-0.149617,0.04785
0.669036,0.51742,-0.148307,-0.688552,0.582245,-0.149431,0.047878
0.669072,0.517352,-0.148288,-0.688535,0.582258,-0.149447,0.047853
0.669285,0.517204,-0.148233,-0.688506,0.582355,-0.149528,0.047777
0.669388,0.517176,-0.148246,-0.688485,0.582361,-0.149523,0.047759
0.669692,0.517224,-0.148483,-0.688313,0.582305,-0.149527,0.047751
0.669935,0.517283,-0.148612,-0.688244,0.582224,-0.14944,0.047753
0.67023,0.517334,-0.148759,-0.688189,0.582177,-0.149237,0.047779
0.670412,0.517325,-0.148831,-0.688194,0.582221,-0.148962,0.047847
0.670682,0.517272,-0.148922,-0.688254,0.582376,-0.148361,0.048005
0.67078,0.517256,-0.148951,-0.688279,0.58244,-0.148151,0.048039
0.671026,0.517278,-0.149012,-0.688308,0.58255,-0.147892,0.047917
0.671129,0.517306,-0.149032,-0.688312,0.582585,-0.14787,0.047791
0.671319,0.517386,-0.149062,-0.688321,0.582653,-0.147894,0.047463
0.67134,0.517407,-0.149064,-0.688329,0.58267,-0.147898,0.047386
0.671207,0.517451,-0.149052,-0.688375,0.582741,-0.147854,0.047383
0.671062,0.517458,-0.149017,-0.688407,0.582746,-0.147857,0.047432
0.670844,0.517461,-0.148993,-0.688405,0.582673,-0.147915,0.047437
0.670675,0.517454,-0.149005,-0.688344,0.58252,-0.148035,0.047367
0.670349,0.51743,-0.149055,-0.688177,0.582144,-0.14832,0.047177
0.670205,0.517424,-0.149077,-0.688113,0.581993,-0.148417,0.047076
0.669813,0.51745,-0.149117,-0.688035,0.581728,-0.148483,0.046718
0.669644,0.51748,-0.149132,-0.688032,0.581658,-0.148444,0.046516
0.669186,0.517528,-0.149164,-0.688008,0.581452,-0.148362,0.046065
0.668988,0.517512,-0.149174,-0.687967,0.581322,-0.148389,0.045976
0.668363,0.517342,-0.149299,-0.687661,0.580885,-0.148746,0.046133
0.667997,0.517191,-0.149305,-0.687494,0.580524,-0.148972,0.046317
0.667563,0.517066,-0.14932,-0.687309,0.580108,-0.149258,0.046389
0.667302,0.517094,-0.149344,-0.687229,0.579886,-0.149429,0.046195
0.666938,0.517251,-0.149396,-0.687147,0.579601,-0.149697,0.045631
0.666806,0.517288,-0.149407,-0.687109,0.579492,-0.149817,0.045417
0.666466,0.517133,-0.149366,-0.686926,0.579164,-0.150237,0.045106
0.666325,0.516982,-0.149322,-0.686821,0.579012,-0.150463,0.045037
0.666042,0.516611,-0.149221,-0.686581,0.578684,-0.150947,0.044941
0.665982,0.51654,-0.149208,-0.686528,0.578607,-0.151032,0.044919
0.665937,0.51661,-0.149402,-0.686407,0.578626,-0.151075,0.044921
0.666012,0.516734,-0.149476,-0.686458,0.578668,-0.150861,0.044947
0.666177,0.516873,-0.149549,-0.686542,0.578786,-0.150584,0.045039
0.666367,0.516935,-0.149565,-0.686619,0.578944,-0.150415,0.04516
0.666791,0.517017,-0.149559,-0.686782,0.579311,-0.150124,0.045443
