wangss533/urdfTest/left_arm_joints.csv
left_arm_joint1,left_arm_joint2,left_arm_joint3,left_arm_joint4,left_arm_joint5,left_arm_joint6,left_arm_joint7
0.158324,0.415327,-0.434051,-0.423823,0.636355,-0.119075,0.102484
0.12718,0.421868,-0.595513,-0.390624,0.762964,-0.144978,0.102407
0.102035,0.428547,-0.698392,-0.361998,0.856291,-0.166955,0.102388
0.085418,0.433331,-0.777719,-0.343409,0.929216,-0.183456,0.101295
0.073152,0.436916,-0.842502,-0.330378,0.98915,-0.196647,0.099924
0.063349,0.439934,-0.897232,-0.320678,1.040168,-0.207021,0.098495
0.055785,0.442199,-0.944385,-0.313019,1.084741,-0.216617,0.097056
0.048859,0.444349,-0.986105,-0.307027,1.124153,-0.223922,0.095643
0.043515,0.445902,-1.023042,-0.301986,1.159767,-0.23142,0.094144
0.038477,0.447523,-1.056762,-0.297828,1.191741,-0.237435,0.09284
0.034348,0.448575,-1.087433,-0.294292,1.220987,-0.243741,0.091887
0.030379,0.449816,-1.115619,-0.291211,1.247841,-0.248889,0.090653
0.026884,0.450798,-1.141694,-0.28855,1.272708,-0.253696,0.089481
0.023587,0.451857,-1.165993,-0.286227,1.295859,-0.257629,0.088011
0.020558,0.452738,-1.188743,-0.284301,1.317588,-0.260946,0.086469
0.017782,0.453352,-1.209894,-0.281873,1.337874,-0.264422,0.084767
0.014982,0.454084,-1.2299,-0.280448,1.35704,-0.267317,0.08354
0.012511,0.454884,-1.248738,-0.278959,1.375083,-0.270368,0.08236
0.010399,0.455239,-1.266521,-0.277671,1.392161,-0.273669,0.081388
0.008013,0.455965,-1.283453,-0.27656,1.408311,-0.276047,0.080382
0.005953,0.455342,-1.299288,-0.27435,1.423416,-0.278926,0.078879
0.003832,0.455897,-1.314487,-0.273533,1.437846,-0.281028,0.077856
0.002022,0.45638,-1.32894,-0.272673,1.451618,-0.283305,0.076637
8.8e-05,0.456917,-1.342895,-0.271962,1.464663,-0.28521,0.075674
-0.00167,0.457393,-1.356214,-0.271222,1.477119,-0.2872,0.074429
-0.003508,0.457067,-1.368777,-0.269561,1.488963,-0.289006,0.073387
-0.005423,0.45729,-1.380915,-0.268752,1.500188,-0.290617,0.072671
-0.007082,0.457817,-1.39242,-0.26818,1.511132,-0.292152,0.071952
-0.008882,0.458232,-1.403633,-0.267686,1.521459,-0.293719,0.071608
-0.010453,0.458678,-1.414261,-0.267214,1.53155,-0.295115,0.070974
-0.012174,0.459076,-1.424555,-0.266756,1.541138,-0.296609,0.070635
-0.013699,0.459538,-1.434388,-0.266314,1.550431,-0.297972,0.070023
-0.015322,0.459939,-1.443862,-0.2659,1.559327,-0.299441,0.069579
-0.016849,0.460303,-1.452892,-0.265546,1.567993,-0.300798,0.069055
-0.018594,0.460683,-1.461587,-0.265207,1.576266,-0.302395,0.068526
-0.019999,0.461054,-1.469993,-0.264867,1.584273,-0.30365,0.068006
-0.021683,0.461305,-1.478205,-0.264579,1.5918,-0.30524,0.067655
-0.023105,0.460574,-1.486037,-0.263288,1.599027,-0.306451,0.067336
-0.02493,0.460481,-1.493739,-0.262702,1.605709,-0.30784,0.067227
-0.026145,0.460805,-1.500946,-0.262456,1.612474,-0.30887,0.066717
-0.027562,0.461156,-1.507958,-0.262212,1.618887,-0.310084,0.066178
-0.028805,0.461535,-1.514711,-0.261939,1.625136,-0.311084,0.065683
-0.030111,0.461908,-1.521194,-0.261674,1.631194,-0.31212,0.065238
-0.031377,0.462168,-1.527406,-0.261467,1.637124,-0.313052,0.065047
-0.032898,0.462183,-1.533558,-0.261273,1.642694,-0.31431,0.065846
-0.033941,0.462342,-1.539366,-0.261094,1.648251,-0.315127,0.065792
-0.035141,0.462521,-1.54499,-0.260938,1.653561,-0.316085,0.065548
-0.035993,0.462684,-1.55043,-0.260847,1.658784,-0.316742,0.065113
-0.037032,0.462842,-1.555693,-0.260806,1.663805,-0.317419,0.064344
-0.0378,0.463004,-1.560824,-0.260719,1.668716,-0.317996,0.063926
-0.038608,0.463173,-1.565846,-0.260627,1.673411,-0.31855,0.063441
-0.039309,0.463352,-1.570665,-0.260523,1.678039,-0.319072,0.063085
-0.040019,0.46345,-1.575391,-0.260437,1.682488,-0.319447,0.06279
-0.040765,0.463551,-1.579942,-0.260329,1.686825,-0.319854,0.062545
-0.041477,0.463543,-1.584332,-0.260229,1.691076,-0.320148,0.062396
-0.042101,0.463698,-1.588595,-0.260147,1.69517,-0.320602,0.062078
-0.042589,0.463869,-1.592694,-0.260044,1.699212,-0.320914,0.061831
-0.043142,0.463973,-1.596641,-0.259988,1.703162,-0.321243,0.061586
-0.043667,0.464031,-1.600562,-0.259908,1.706938,-0.321344,0.061498
-0.044163,0.464147,-1.604328,-0.259858,1.710613,-0.321659,0.061226
-0.045047,0.463719,-1.607957,-0.259206,1.714169,-0.321254,0.06082
-0.045511,0.463799,-1.611513,-0.259196,1.717585,-0.32156,0.060519
-0.045893,0.463862,-1.614865,-0.259212,1.721037,-0.321761,0.060228
-0.046328,0.464119,-1.618018,-0.259134,1.72446,-0.321971,0.059657
-0.046536,0.464563,-1.620934,-0.259417,1.727968,-0.32248,0.05911
-0.047045,0.464659,-1.624022,-0.259388,1.731111,-0.322819,0.058872
-0.047558,0.464784,-1.626852,-0.259349,1.734333,-0.323163,0.05864
-0.04807,0.464899,-1.629813,-0.259298,1.737234,-0.323524,0.058409
-0.048764,0.465063,-1.63252,-0.259213,1.740172,-0.324057,0.058165
-0.04927,0.465145,-1.635269,-0.259194,1.742946,-0.324406,0.057929
-0.049569,0.466105,-1.637437,-0.259869,1.746114,-0.325317,0.05691
-0.050193,0.466176,-1.639804,-0.259908,1.748983,-0.325756,0.056458
-0.050492,0.466755,-1.641859,-0.260227,1.752009,-0.326609,0.055529
-0.051143,0.466752,-1.644107,-0.260281,1.754734,-0.327055,0.055289
-0.051513,0.466943,-1.645803,-0.260237,1.757817,-0.328254,0.054706
-0.052068,0.466973,-1.64797,-0.260251,1.760332,-0.328778,0.054532
-0.052472,0.467312,-1.649753,-0.26058,1.763032,-0.330148,0.053994
-0.053027,0.46735,-1.651921,-0.260583,1.765293,-0.330536,0.053778
-0.054138,0.467521,-1.653644,-0.260576,1.767697,-0.331367,0.052897
-0.054825,0.467532,-1.655536,-0.26062,1.769937,-0.331894,0.052564
-0.055318,0.467873,-1.656479,-0.260944,1.772857,-0.333912,0.051344
-0.056037,0.467928,-1.65772,-0.261004,1.775417,-0.335024,0.050534
-0.056253,0.467878,-1.65874,-0.261107,1.778045,-0.337324,0.049642
-0.056559,0.467747,-1.660018,-0.261028,1.780293,-0.339175,0.048899
-0.056937,0.467695,-1.660903,-0.260961,1.782635,-0.342317,0.047572
-0.057317,0.4675,-1.662439,-0.26098,1.784442,-0.343585,0.047374
-0.058382,0.467534,-1.663739,-0.260884,1.786186,-0.345097,0.046505
-0.058991,0.46758,-1.66542,-0.260835,1.787653,-0.345609,0.046272
-0.060407,0.467707,-1.667029,-0.260727,1.788944,-0.346007,0.045582
-0.061363,0.467751,-1.668524,-0.260686,1.790415,-0.346046,0.04532
-0.063504,0.467885,-1.669551,-0.260813,1.792164,-0.345472,0.044844
-0.064605,0.468005,-1.670577,-0.260872,1.793958,-0.345444,0.044331
-0.066057,0.468141,-1.671438,-0.260957,1.795752,-0.345706,0.043546
-0.06718,0.468072,-1.672384,-0.261096,1.797402,-0.346449,0.042942
-0.06876,0.468381,-1.672754,-0.261143,1.799279,-0.348115,0.04077
-0.06932,0.468488,-1.673707,-0.261188,1.800798,-0.349149,0.039941
-0.07038,0.468638,-1.674187,-0.261502,1.80248,-0.351638,0.038546
-0.071254,0.468555,-1.675207,-0.261565,1.803806,-0.352368,0.038205
-0.072935,0.468549,-1.675778,-0.261531,1.805198,-0.354274,0.036968
-0.073758,0.468457,-1.67672,-0.261602,1.806459,-0.35499,0.036576
-0.075529,0.468743,-1.676949,-0.261577,1.808041,-0.356322,0.034508
-0.07675,0.468937,-1.67751,-0.2616,1.809443,-0.357014,0.033211
-0.07844,0.469175,-1.67803,-0.261598,1.810755,-0.357811,0.03195
-0.080156,0.469682,-1.679018,-0.26199,1.811662,-0.358117,0.031695
-0.082642,0.469963,-1.680104,-0.261926,1.812274,-0.358821,0.031739
-0.083462,0.470021,-1.681023,-0.261846,1.813268,-0.359433,0.031582
-0.085577,0.470336,-1.681126,-0.261826,1.814754,-0.360177,0.030346
-0.08656,0.470488,-1.681596,-0.26193,1.816104,-0.360412,0.029654
-0.088714,0.471824,-1.680972,-0.263369,1.818278,-0.361157,0.027864
-0.089536,0.471918,-1.681259,-0.263443,1.819819,-0.361688,0.027097
-0.091125,0.472641,-1.680416,-0.264289,1.822236,-0.36338,0.025648
-0.092228,0.472714,-1.680181,-0.2644,1.82418,-0.364411,0.024714
-0.092928,0.473112,-1.679257,-0.265109,1.8267,-0.367048,0.023279
-0.093354,0.47314,-1.678508,-0.265422,1.829057,-0.369478,0.021861
-0.093561,0.472983,-1.676215,-0.265913,1.832702,-0.374418,0.019153
-0.093676,0.472826,-1.675812,-0.266018,1.834676,-0.376679,0.017869
-0.093586,0.472251,-1.673548,-0.266094,1.838002,-0.383023,0.014233
-0.093504,0.471814,-1.673118,-0.265934,1.839776,-0.386031,0.012445
-0.093329,0.470943,-1.670886,-0.265668,1.842761,-0.393257,0.008137
-0.093652,0.470743,-1.670556,-0.265596,1.844293,-0.395601,0.00662
-0.095015,0.471021,-1.668919,-0.265913,1.846658,-0.399933,0.003591
-0.096298,0.47143,-1.668396,-0.26619,1.848205,-0.401873,0.002066
-0.098569,0.471762,-1.667584,-0.266156,1.849879,-0.403664,0.000446
-0.100594,0.47307,-1.667274,-0.267258,1.85122,-0.40477,-0.000188
-0.104839,0.474862,-1.666511,-0.268399,1.852775,-0.405279,-0.0006
-0.106473,0.475193,-1.666643,-0.268288,1.853866,-0.405712,-0.000985
-0.110887,0.477052,-1.665969,-0.269594,1.855218,-0.407259,-0.001497
-0.11245,0.477134,-1.666148,-0.269474,1.856224,-0.408455,-0.001766
-0.116796,0.478795,-1.665398,-0.270326,1.857503,-0.410908,-0.002905
-0.118388,0.47887,-1.665452,-0.270254,1.858589,-0.412146,-0.003366
-0.121428,0.479703,-1.663702,-0.270345,1.860889,-0.415594,-0.005801
-0.1231,0.480361,-1.662843,-0.270774,1.862656,-0.417992,-0.007322
-0.125644,0.481137,-1.661603,-0.271263,1.864586,-0.421002,-0.009154
-0.128195,0.482488,-1.661199,-0.272495,1.865817,-0.422879,-0.010039
-0.132389,0.482698,-1.660153,-0.272333,1.867274,-0.426006,-0.011432
-0.134205,0.48272,-1.660143,-0.272332,1.868241,-0.427391,-0.012046
-0.138202,0.48283,-1.658312,-0.272399,1.870248,-0.43172,-0.014704
-0.139535,0.482678,-1.6578,-0.272515,1.871587,-0.434147,-0.015852
-0.142642,0.481325,-1.655465,-0.272119,1.873931,-0.440673,-0.018833
-0.144297,0.481069,-1.654975,-0.272145,1.875018,-0.443126,-0.020242
-0.147583,0.478119,-1.653132,-0.270163,1.876501,-0.45058,-0.023847
-0.149787,0.476231,-1.652262,-0.268855,1.87736,-0.455171,-0.02623
-0.15285,0.473981,-1.650926,-0.267319,1.878276,-0.461203,-0.029359
-0.155298,0.47239,-1.649922,-0.26617,1.879044,-0.465543,-0.031708
-0.159549,0.470025,-1.648011,-0.264474,1.879999,-0.472691,-0.035592
-0.161388,0.468897,-1.647413,-0.263554,1.880482,-0.475479,-0.037138
-0.166251,0.466694,-1.645775,-0.261793,1.880976,-0.48225,-0.040548
-0.168398,0.465664,-1.645307,-0.260837,1.88117,-0.48476,-0.041821
-0.173737,0.463471,-1.643828,-0.258924,1.881313,-0.491414,-0.044897
-0.175803,0.46215,-1.64316,-0.257765,1.881538,-0.494385,-0.046293
-0.180655,0.458837,-1.641036,-0.255185,1.882103,-0.50286,-0.049943
-0.183511,0.456272,-1.639591,-0.253129,1.882565,-0.50833,-0.052327
-0.187213,0.452935,-1.637491,-0.250545,1.883263,-0.516039,-0.055667
-0.18995,0.450171,-1.635705,-0.248376,1.883912,-0.522057,-0.058389
-0.194392,0.44554,-1.632504,-0.244863,1.885195,-0.532684,-0.063184
-0.196186,0.443232,-1.631156,-0.242969,1.885676,-0.536968,-0.065223
-0.2005,0.43804,-1.628237,-0.238767,1.886639,-0.548168,-0.070174
-0.202246,0.435401,-1.627111,-0.236442,1.88691,-0.552733,-0.072235
-0.206479,0.429693,-1.624349,-0.231626,1.887786,-0.564289,-0.077488
-0.208244,0.427137,-1.623028,-0.229439,1.888366,-0.568599,-0.079868
-0.212648,0.422137,-1.61937,-0.225584,1.890275,-0.578918,-0.086176
-0.215363,0.418914,-1.616959,-0.22311,1.89176,-0.584765,-0.090298
-0.218752,0.414881,-1.613546,-0.22025,1.894004,-0.592614,-0.095873
-0.221098,0.411644,-1.610703,-0.218086,1.896166,-0.598515,-0.100284
-0.224694,0.406496,-1.605487,-0.215002,1.900156,-0.608338,-0.107851
-0.226275,0.404067,-1.603765,-0.213354,1.901858,-0.612124,-0.110838
-0.230293,0.398403,-1.600245,-0.209258,1.904676,-0.621591,-0.117354
-0.23208,0.395724,-1.599517,-0.207063,1.905929,-0.625251,-0.119804
-0.23648,0.389581,-1.597669,-0.20194,1.907838,-0.634418,-0.125506
-0.238442,0.38683,-1.597668,-0.199424,1.909079,-0.638011,-0.127959
-0.243215,0.380391,-1.597174,-0.193307,1.910492,-0.647279,-0.134057
-0.246331,0.376213,-1.597875,-0.189055,1.911856,-0.652697,-0.137868
-0.250718,0.371238,-1.598764,-0.184017,1.913354,-0.659254,-0.1426
-0.254429,0.367807,-1.600236,-0.180508,1.915129,-0.663414,-0.145921
-0.260924,0.362798,-1.601974,-0.175412,1.916837,-0.669336,-0.150888
-0.26367,0.360709,-1.604194,-0.173202,1.919218,-0.671632,-0.153075
-0.269893,0.356055,-1.606048,-0.168627,1.921922,-0.677206,-0.158317
-0.272497,0.354162,-1.608568,-0.166689,1.925087,-0.679382,-0.16073
-0.278472,0.349706,-1.610624,-0.162462,1.928759,-0.684737,-0.166121
-0.280958,0.347625,-1.613647,-0.16037,1.932609,-0.687203,-0.168431
-0.286594,0.34209,-1.616406,-0.15507,1.937065,-0.693733,-0.172936
-0.289894,0.338586,-1.619988,-0.151643,1.941873,-0.698005,-0.175758
-0.294176,0.333781,-1.623307,-0.147179,1.947495,-0.703743,-0.180054
-0.297383,0.330059,-1.626935,-0.143837,1.953776,-0.708175,-0.18429
-0.302371,0.323674,-1.629464,-0.138509,1.961598,-0.715544,-0.191936
-0.304638,0.320998,-1.634201,-0.136105,1.968707,-0.718665,-0.19547
-0.310015,0.314343,-1.637968,-0.130421,1.977212,-0.72594,-0.202844
-0.312495,0.311572,-1.643841,-0.127826,1.985112,-0.728993,-0.206211
-0.318158,0.304602,-1.64885,-0.121732,1.99447,-0.736234,-0.213425
-0.320614,0.301704,-1.655684,-0.118938,2.003386,-0.739413,-0.216862
-0.326119,0.294261,-1.66164,-0.112285,2.013871,-0.747077,-0.224022
-0.32954,0.289582,-1.669075,-0.107845,2.024316,-0.751888,-0.228786
-0.333841,0.283487,-1.676481,-0.102047,2.035527,-0.75826,-0.235048
-0.337038,0.279005,-1.684856,-0.097478,2.046932,-0.763174,-0.240321
-0.341981,0.271464,-1.692742,-0.089829,2.059438,-0.771167,-0.24875
-0.344074,0.268488,-1.702367,-0.086494,2.071433,-0.774543,-0.252948
-0.348743,0.26069,-1.710846,-0.078645,2.084842,-0.782328,-0.261763
-0.350657,0.257578,-1.721007,-0.07521,2.09758,-0.785593,-0.266142
-0.355183,0.204172,-1.72636,-0.006522,2.118225,-0.778643,-0.289231
-0.356683,0.206428,-1.737148,-0.010053,2.13052,-0.78315,-0.29208
-0.361341,0.211019,-1.746935,-0.018846,2.142862,-0.794023,-0.29803
-0.364269,0.213721,-1.757157,-0.023795,2.154901,-0.800333,-0.302165
-0.368694,0.217196,-1.767255,-0.030327,2.166644,-0.808085,-0.306746
-0.372381,0.219692,-1.777774,-0.034741,2.178097,-0.813192,-0.309876
-0.379195,0.223472,-1.788501,-0.041835,2.189139,-0.820677,-0.3136
-0.381777,0.223792,-1.798972,-0.042694,2.200528,-0.82336,-0.316143
-0.389459,0.228563,-1.809883,-0.050988,2.211351,-0.830504,-0.319243
-0.392599,0.22997,-1.820607,-0.053261,2.222684,-0.833178,-0.321314
-0.400565,0.233224,-1.831529,-0.059432,2.233826,-0.83961,-0.324769
-0.403628,0.233749,-1.842208,-0.060429,2.245406,-0.842,-0.327331
-0.412068,0.238151,-1.853404,-0.06783,2.256693,-0.848656,-0.331278
-0.417183,0.240226,-1.864673,-0.071185,2.26857,-0.852439,-0.334534
-0.424078,0.242912,-1.876252,-0.075717,2.280454,-0.857407,-0.338326
-0.429444,0.244835,-1.888166,-0.078876,2.292651,-0.861171,-0.341426
-0.43834,0.247741,-1.900669,-0.084074,2.304763,-0.867303,-0.345609
-0.44228,0.248906,-1.913193,-0.085756,2.317651,-0.869525,-0.348054
-0.451778,0.251399,-1.926433,-0.089912,2.330144,-0.873882,-0.351596
-0.455727,0.251544,-1.939207,-0.089957,2.3435,-0.875017,-0.354127
-0.46598,0.25443,-1.953264,-0.094245,2.356071,-0.878011,-0.356633
-0.470064,0.254501,-1.966742,-0.094128,2.356196,-0.87886,-0.358696
-0.478846,0.254484,-1.969949,-0.094529,2.356196,-0.880867,-0.3592
-0.484535,0.255114,-1.972172,-0.095466,2.356196,-0.881804,-0.358857
-0.491686,0.255339,-1.974728,-0.096157,2.356196,-0.882948,-0.35856
-0.497504,0.255825,-1.976825,-0.097196,2.356196,-0.883322,-0.358205
-0.506253,0.25578,-1.979354,-0.09788,2.356196,-0.883907,-0.358171
-0.510425,0.256527,-1.980949,-0.099219,2.356196,-0.883941,-0.357772
-0.518868,0.256457,-1.983346,-0.100063,2.356196,-0.884745,-0.358001
-0.522669,0.257273,-1.984771,-0.101506,2.356196,-0.885242,-0.358203
-0.530854,0.257292,-1.987059,-0.102496,2.356196,-0.886345,-0.359013
-0.534289,0.258072,-1.988401,-0.103984,2.356196,-0.887303,-0.359277
-0.542668,0.258125,-1.991151,-0.104797,2.356196,-0.88857,-0.360118
-0.547613,0.258532,-1.993126,-0.105902,2.356196,-0.88989,-0.360654
-0.554305,0.258767,-1.995053,-0.106979,2.356196,-0.891379,-0.361494
-0.559262,0.25883,-1.996221,-0.108053,2.356196,-0.892863,-0.362076
-0.567348,0.258586,-1.99709,-0.109402,2.356196,-0.895378,-0.363532
-0.570712,0.258805,-1.997741,-0.11034,2.356196,-0.896402,-0.363949
-0.578904,0.25846,-1.999618,-0.111689,2.356196,-0.899157,-0.364662
-0.582199,0.258806,-2.000802,-0.112824,2.356196,-0.900458,-0.364739
-0.590299,0.258471,-2.003341,-0.114172,2.356196,-0.903487,-0.365146
-0.593641,0.25902,-2.004548,-0.115512,2.356196,-0.904829,-0.365474
-0.601467,0.259127,-2.006785,-0.117068,2.356196,-0.908001,-0.367288
-0.606431,0.260012,-2.008371,-0.119012,2.356196,-0.910063,-0.368557
-0.612894,0.260501,-2.009785,-0.120968,2.356196,-0.912726,-0.370348
-0.618027,0.261047,-2.010468,-0.12286,2.356196,-0.914656,-0.371705
-0.626313,0.261235,-2.010373,-0.125428,2.356196,-0.91796,-0.374348
-0.630053,0.262126,-2.010812,-0.127493,2.356196,-0.919558,-0.375231
-0.638524,0.262303,-2.011123,-0.129854,2.356196,-0.923794,-0.377495
-0.641699,0.261872,-2.011399,-0.130132,2.356196,-0.925695,-0.378459
-0.65034,0.262146,-2.012146,-0.132547,2.356196,-0.930821,-0.380438
-0.654183,0.263045,-2.01305,-0.134704,2.356196,-0.93304,-0.381035
-0.662931,0.263104,-2.013527,-0.137361,2.356196,-0.937945,-0.382829
-0.668647,0.263835,-2.014386,-0.13994,2.356196,-0.940918,-0.383707
-0.675824,0.263902,-2.015204,-0.142116,2.356196,-0.945046,-0.384912
-0.680706,0.262939,-2.015608,-0.141995,2.356196,-0.947991,-0.386349
-0.689721,0.263244,-2.017564,-0.144404,2.356196,-0.953924,-0.387957
-0.692936,0.262562,-2.017934,-0.144151,2.356196,-0.955919,-0.38903
-0.702237,0.263216,-2.018687,-0.147147,2.356196,-0.961146,-0.391445
-0.705687,0.263201,-2.018809,-0.147779,2.356196,-0.962871,-0.392842
-0.715109,0.264195,-2.018819,-0.151249,2.356196,-0.967526,-0.395906
-0.71852,0.264206,-2.018657,-0.151939,2.356196,-0.969357,-0.397103
-0.727503,0.265186,-2.018435,-0.155392,2.356196,-0.974705,-0.399452
-0.732442,0.264539,-2.017944,-0.155713,2.356196,-0.977404,-0.400866
-0.739686,0.26549,-2.017875,-0.15862,2.356196,-0.981502,-0.402302
-0.744341,0.264567,-2.017211,-0.158431,2.356196,-0.984009,-0.403657
-0.753001,0.26488,-2.016886,-0.160715,2.356196,-0.988474,-0.405206
-0.756025,0.264402,-2.016511,-0.160608,2.356196,-0.989989,-0.406041
-0.764428,0.264941,-2.01596,-0.162863,2.356196,-0.99374,-0.407839
-0.767373,0.264658,-2.015414,-0.162856,2.356196,-0.994974,-0.408868
-0.775245,0.264908,-2.014485,-0.164388,2.356196,-0.998025,-0.410931
-0.778271,0.264981,-2.01425,-0.164816,2.356196,-0.999124,-0.411703
-0.785512,0.264699,-2.013807,-0.165412,2.356196,-1.001655,-0.413304
-0.789673,0.264447,-2.013659,-0.165509,2.356196,-1.003007,-0.414156
-0.795307,0.264026,-2.013379,-0.165787,2.356196,-1.004697,-0.414917
-0.799606,0.263571,-2.013106,-0.166005,2.356196,-1.005865,-0.415074
-0.806945,0.262901,-2.012649,-0.166778,2.356196,-1.007659,-0.414749
-0.809756,0.262528,-2.012476,-0.166844,2.356196,-1.008325,-0.414697
-0.816654,0.26192,-2.011996,-0.167357,2.356196,-1.010152,-0.415464
-0.819338,0.261775,-2.011827,-0.16753,2.356196,-1.010893,-0.416049
-0.82593,0.261408,-2.011587,-0.168045,2.356196,-1.012725,-0.417626
-0.828586,0.261433,-2.011858,-0.168354,2.356196,-1.01339,-0.41813
-0.835143,0.261544,-2.013278,-0.16924,2.356196,-1.014858,-0.419009
-0.839056,0.261779,-2.014581,-0.169849,2.356196,-1.015647,-0.419437
-0.84421,0.262049,-2.016317,-0.170676,2.356196,-1.016757,-0.420057
-0.84806,0.262287,-2.017785,-0.171261,2.356196,-1.017595,-0.420568
-0.854373,0.262625,-2.020315,-0.172197,2.356196,-1.019034,-0.421466
-0.856741,0.262492,-2.021137,-0.172332,2.356196,-1.019711,-0.421931
-0.863293,0.26323,-2.023024,-0.17456,2.356196,-1.021625,-0.423081
-0.865703,0.263115,-2.023455,-0.175133,2.356196,-1.02251,-0.42369
-0.872286,0.263905,-2.02465,-0.17817,2.356196,-1.024952,-0.425136
-0.874619,0.263769,-2.024922,-0.178871,2.356196,-1.02611,-0.425883
-0.880947,0.26449,-2.025727,-0.182163,2.356196,-1.02945,-0.427732
-0.884392,0.264391,-2.025961,-0.183593,2.356196,-1.031718,-0.429065
-0.889328,0.26502,-2.026598,-0.186289,2.356196,-1.034659,-0.430743
-0.892675,0.264934,-2.027053,-0.187516,2.356196,-1.036934,-0.43217
-0.898638,0.265705,-2.028146,-0.190476,2.356196,-1.040666,-0.434486
-0.900728,0.265511,-2.028553,-0.191084,2.356196,-1.042143,-0.435487
-0.906573,0.266359,-2.029859,-0.19448,2.356196,-1.045344,-0.437612
-0.908602,0.266135,-2.030285,-0.195306,2.356196,-1.046536,-0.438543
-0.912544,0.266806,-2.017921,-0.198334,2.356196,-1.047198,-0.438213
-0.910656,0.266955,-1.989161,-0.198469,2.348599,-1.047198,-0.434521
-0.908169,0.265039,-1.93688,-0.196367,2.288969,-1.047198,-0.427494
-0.906961,0.263788,-1.907176,-0.195008,2.254682,-1.047198,-0.42327
-0.906241,0.262977,-1.871151,-0.19457,2.213064,-1.047198,-0.41804
-0.906138,0.261251,-1.848407,-0.193157,2.187441,-1.047198,-0.415252
-0.906573,0.259374,-1.812131,-0.192273,2.146748,-1.047198,-0.410642
-0.90712,0.259495,-1.7989,-0.192936,2.13168,-1.047198,-0.408727
-0.908522,0.257942,-1.769103,-0.192818,2.098773,-1.047198,-0.405102
-0.909489,0.256754,-1.760379,-0.192064,2.089518,-1.047198,-0.404352
-0.91164,0.255829,-1.736003,-0.192728,2.063094,-1.047198,-0.40155
-0.912896,0.255323,-1.728805,-0.192619,2.055328,-1.047198,-0.400813
-0.914754,0.253715,-1.705699,-0.192203,2.030396,-1.047198,-0.398469
-0.916168,0.25299,-1.693835,-0.192024,2.017573,-1.047198,-0.397292
-0.918136,0.252145,-1.679392,-0.19193,2.001929,-1.047198,-0.396008
-0.919973,0.252368,-1.670865,-0.192696,1.992472,-1.047198,-0.395251
-0.923668,0.252842,-1.661338,-0.193737,1.981918,-1.047198,-0.394836
-0.924688,0.25262,-1.655626,-0.193929,1.975657,-1.047198,-0.3945
-0.927666,0.252385,-1.64529,-0.194182,1.964312,-1.047198,-0.3944
-0.92901,0.253103,-1.642746,-0.195142,1.961089,-1.047198,-0.39428
-0.931371,0.25277,-1.631525,-0.19528,1.948726,-1.047198,-0.394132
-0.932435,0.25326,-1.627996,-0.195974,1.944463,-1.047198,-0.393857
-0.934289,0.252372,-1.614511,-0.195493,1.929437,-1.047198,-0.392985
-0.935419,0.252293,-1.607089,-0.195699,1.920788,-1.047198,-0.392165
-0.936771,0.251134,-1.596618,-0.194945,1.90887,-1.047198,-0.390934
-0.937737,0.250269,-1.589453,-0.194514,1.90048,-1.047198,-0.389719
-0.939126,0.248888,-1.577279,-0.193981,1.886299,-1.047198,-0.387359
-0.939793,0.247994,-1.573061,-0.193307,1.881353,-1.047198,-0.386603
-0.941263,0.247017,-1.561668,-0.192718,1.868087,-1.047198,-0.385172
-0.941836,0.246515,-1.557039,-0.192244,1.862836,-1.047198,-0.38497
-0.943284,0.245914,-1.546343,-0.191823,1.850306,-1.047198,-0.384178
-0.943837,0.245065,-1.541782,-0.191042,1.845569,-1.047198,-0.384297
-0.945958,0.244781,-1.535673,-0.191174,1.838859,-1.047198,-0.383971
-0.947315,0.244836,-1.533047,-0.191486,1.836256,-1.047198,-0.384028
-0.948792,0.244373,-1.526562,-0.191585,1.829866,-1.047198,-0.383913
-0.949895,0.243284,-1.520209,-0.191081,1.823839,-1.047198,-0.383798
-0.951472,0.242435,-1.50778,-0.191599,1.811988,-1.047198,-0.383322
-0.952155,0.242347,-1.503166,-0.192012,1.807854,-1.047198,-0.38334
-0.953881,0.241737,-1.491383,-0.192815,1.795967,-1.047198,-0.382411
-0.954961,0.241318,-1.488374,-0.192689,1.793474,-1.047198,-0.382691
-0.956837,0.240436,-1.476561,-0.193065,1.781364,-1.047198,-0.381773
-0.957778,0.240308,-1.473045,-0.19331,1.778105,-1.047198,-0.38179
-0.95942,0.239727,-1.46109,-0.193945,1.766582,-1.047198,-0.381407
-0.960597,0.239467,-1.455019,-0.194422,1.760822,-1.047198,-0.381197
-0.961768,0.239075,-1.443951,-0.195013,1.750217,-1.047198,-0.381011
-0.962776,0.238611,-1.43555,-0.19517,1.742218,-1.047198,-0.381068
-0.964305,0.237771,-1.419885,-0.19554,1.726889,-1.047198,-0.381011
-0.965076,0.237242,-1.414325,-0.195471,1.721621,-1.047198,-0.381134
-0.966596,0.236648,-1.399298,-0.196763,1.707248,-1.047198,-0.380652
-0.967176,0.23605,-1.392697,-0.197031,1.701038,-1.047198,-0.380341
-0.968816,0.235374,-1.3786,-0.198545,1.687913,-1.047104,-0.379651
-0.969559,0.234768,-1.373005,-0.198614,1.682679,-1.047052,-0.379686
-0.970318,0.234292,-1.352414,-0.200163,1.662036,-1.046816,-0.379461
-0.971004,0.233727,-1.341043,-0.200526,1.650729,-1.046691,-0.379834
-0.971624,0.232829,-1.325276,-0.200966,1.634794,-1.046511,-0.379902
-0.972784,0.232512,-1.318772,-0.201407,1.628013,-1.046294,-0.379649
-0.974054,0.231772,-1.308291,-0.201619,1.618071,-1.046306,-0.3803
-0.974319,0.231315,-1.300175,-0.201919,1.609512,-1.045735,-0.379594
-0.975615,0.230835,-1.290604,-0.202743,1.599988,-1.045723,-0.379717
-0.975648,0.230338,-1.28029,-0.203151,1.589329,-1.044963,-0.379264
-0.976824,0.230066,-1.26829,-0.204288,1.577369,-1.044437,-0.379393
-0.976811,0.229301,-1.255431,-0.204763,1.563675,-1.043349,-0.3783
-0.978353,0.228131,-1.240856,-0.205196,1.548349,-1.042382,-0.377519
-0.978579,0.227209,-1.22462,-0.205884,1.531016,-1.04117,-0.376177
-0.979835,0.225366,-1.206524,-0.205711,1.511715,-1.039368,-0.37482
-0.979814,0.224239,-1.186002,-0.206563,1.489893,-1.037438,-0.373191
-0.981503,0.222253,-1.162798,-0.206032,1.465679,-1.034994,-0.372637
-0.980836,0.220811,-1.136681,-0.207031,1.438063,-1.031874,-0.370491
-0.98253,0.218067,-1.10699,-0.206686,1.407137,-1.02786,-0.368673
-0.981801,0.216147,-1.073047,-0.20818,1.371539,-1.022972,-0.365822
-0.983296,0.212318,-1.034191,-0.208149,1.331094,-1.017202,-0.362639
-0.982029,0.209749,-0.988948,-0.210572,1.283799,-1.010341,-0.359025
-0.983677,0.204657,-0.93672,-0.210537,1.229091,-1.001963,-0.354789
-0.983069,0.200083,-0.874735,-0.213204,1.164621,-0.991912,-0.350405
-0.982301,0.19463,-0.799525,-0.21762,1.087015,-0.979334,-0.345607
-0.977907,0.189237,-0.704411,-0.228063,0.990084,-0.962788,-0.34069
-0.972723,0.18016,-0.57991,-0.242933,0.864977,-0.940103,-0.336047
-0.952819,0.167729,-0.404387,-0.279981,0.692217,-0.905463,-0.333953
-0.89676,0.13763,-0.161187,-0.376625,0.452764,-0.843523,-0.338935
-0.778193,0.053164,0.094164,-0.578071,0.206015,-0.747428,-0.36256
-0.697982,-0.068661,0.316654,-0.760715,0.002502,-0.672819,-0.399292
-0.670568,-0.158518,0.406373,-0.861542,-0.094114,-0.632275,-0.428208
-0.666323,-0.1745,0.45329,-0.908278,-0.146573,-0.614763,-0.446253
-0.66619,-0.1745,0.45989,-0.916091,-0.154061,-0.612524,-0.44936
-0.669375,-0.1745,0.462326,-0.914901,-0.155654,-0.61388,-0.450702
-0.669773,-0.1745,0.461932,-0.915681,-0.154404,-0.614462,-0.451219
-0.67401,-0.1745,0.464651,-0.91427,-0.155893,-0.615978,-0.452324
-0.673639,-0.1745,0.463536,-0.915281,-0.154332,-0.616326,-0.452339
-0.677391,-0.1745,0.465675,-0.91425,-0.154977,-0.617515,-0.452965
-0.677451,-0.1745,0.464773,-0.914993,-0.153798,-0.617724,-0.452584
-0.680751,-0.1745,0.465894,-0.914406,-0.153793,-0.61859,-0.452364
-0.680672,-0.1745,0.465178,-0.915158,-0.152663,-0.618958,-0.452298
-0.682972,-0.1745,0.465737,-0.915218,-0.152244,-0.620069,-0.452679
-0.684943,-0.1745,0.467004,-0.915166,-0.15346,-0.620829,-0.453074
-0.68608,-0.1745,0.466698,-0.915689,-0.152602,-0.621801,-0.453602
-0.687963,-0.1745,0.468582,-0.915808,-0.153833,-0.622525,-0.45504
-0.688761,-0.1745,0.467992,-0.916935,-0.152235,-0.623725,-0.456886
-0.690778,-0.1745,0.470285,-0.916775,-0.154352,-0.6242,-0.458041
-0.692488,-0.1745,0.47054,-0.917138,-0.154029,-0.625672,-0.459059
-0.693135,-0.1745,0.471566,-0.917773,-0.154499,-0.626075,-0.459834
-0.696295,-0.1745,0.473983,-0.917144,-0.156365,-0.627884,-0.460734
-0.69699,-0.1745,0.474398,-0.917472,-0.15677,-0.628517,-0.460856
-0.701219,-0.1745,0.478227,-0.915976,-0.160218,-0.630885,-0.46154
-0.702967,-0.1745,0.479467,-0.915661,-0.161541,-0.632264,-0.461464
-0.706677,-0.1745,0.482851,-0.91411,-0.164575,-0.634183,-0.462029
-0.707497,-0.1745,0.482718,-0.914419,-0.164429,-0.635075,-0.461853
-0.709403,-0.1745,0.482733,-0.914214,-0.163866,-0.636343,-0.461857
-0.710139,-0.1745,0.483109,-0.91442,-0.16424,-0.636831,-0.461984
-0.71155,-0.1745,0.4829,-0.914535,-0.163309,-0.637901,-0.462466
-0.712171,-0.1745,0.483287,-0.914841,-0.163685,-0.638328,-0.462815
-0.713422,-0.1745,0.483188,-0.915051,-0.163063,-0.639336,-0.463628
-0.713913,-0.1745,0.483473,-0.915364,-0.163207,-0.639583,-0.464046
-0.715029,-0.1745,0.483365,-0.915576,-0.162885,-0.640294,-0.464783
-0.715746,-0.1745,0.483712,-0.915789,-0.163138,-0.640608,-0.465365
-0.716483,-0.1745,0.483739,-0.915868,-0.163046,-0.640988,-0.465892
-0.715877,-0.1745,0.482728,-0.916655,-0.161951,-0.641066,-0.465988
-0.715474,-0.1745,0.481239,-0.917272,-0.160699,-0.640977,-0.465696
-0.715854,-0.1745,0.481347,-0.91739,-0.161072,-0.640826,-0.465667
-0.715324,-0.1745,0.480337,-0.917918,-0.159756,-0.641277,-0.466249
-0.715659,-0.1745,0.481013,-0.918113,-0.16035,-0.641457,-0.466871
-0.714901,-0.1745,0.480228,-0.918767,-0.158897,-0.642159,-0.468028
-0.715211,-0.1745,0.480923,-0.918941,-0.159156,-0.642113,-0.468709
-0.714061,-0.1745,0.479344,-0.919458,-0.156696,-0.642451,-0.469087
-0.712884,-0.1745,0.477933,-0.920401,-0.154677,-0.642139,-0.469146
-0.711554,-0.1745,0.476191,-0.921099,-0.152227,-0.641903,-0.469203
-0.710029,-0.1745,0.474732,-0.922156,-0.150423,-0.641588,-0.469332
-0.708284,-0.1745,0.473626,-0.923142,-0.148511,-0.641116,-0.469991
-0.708443,-0.1745,0.474133,-0.923086,-0.148975,-0.640878,-0.470279
-0.706786,-0.1745,0.473091,-0.92401,-0.147507,-0.639992,-0.470268
-0.707528,-0.1745,0.473721,-0.923488,-0.14809,-0.639291,-0.470173
-0.706542,-0.1745,0.472936,-0.924072,-0.147215,-0.63785,-0.469475
-0.707267,-0.1745,0.473701,-0.923534,-0.147734,-0.637441,-0.46945
-0.707809,-0.1745,0.474916,-0.923218,-0.148417,-0.637215,-0.469177
-0.707771,-0.1745,0.474969,-0.923305,-0.148134,-0.637148,-0.468804
-0.707969,-0.1745,0.47537,-0.923283,-0.148173,-0.63716,-0.46845
-0.708375,-0.1745,0.476067,-0.923089,-0.148568,-0.637212,-0.468416
-0.707209,-0.1745,0.474765,-0.923714,-0.147021,-0.637493,-0.467824
-0.70839,-0.1745,0.476181,-0.923231,-0.14828,-0.63738,-0.468092
-0.70718,-0.1745,0.474748,-0.923947,-0.146883,-0.637719,-0.467871
-0.708422,-0.1745,0.476246,-0.923463,-0.148104,-0.637546,-0.468495
-0.708313,-0.1745,0.47614,-0.923627,-0.148081,-0.637855,-0.469006
-0.708241,-0.1745,0.476144,-0.923875,-0.147985,-0.637746,-0.469319
-0.708167,-0.1745,0.476302,-0.924099,-0.148423,-0.63795,-0.469955
-0.708224,-0.1745,0.476762,-0.924291,-0.148957,-0.637981,-0.470532
-0.708188,-0.1745,0.477092,-0.92448,-0.149291,-0.637979,-0.471104
-0.707025,-0.1745,0.476093,-0.925292,-0.148217,-0.637897,-0.471179
-0.707829,-0.1745,0.477325,-0.924999,-0.149218,-0.637505,-0.471655
-0.706596,-0.1745,0.476206,-0.925696,-0.148106,-0.637575,-0.471438
-0.706989,-0.1745,0.476724,-0.925629,-0.148187,-0.63722,-0.471531
-0.706699,-0.1745,0.476571,-0.925837,-0.14778,-0.637212,-0.471488
-0.706727,-0.1745,0.476984,-0.925762,-0.14756,-0.637256,-0.471443
-0.70713,-0.1745,0.477775,-0.925483,-0.148097,-0.637255,-0.471606
-0.705854,-0.1745,0.476832,-0.926028,-0.147219,-0.637111,-0.470992
-0.706425,-0.1745,0.477393,-0.925659,-0.147962,-0.636692,-0.470715
-0.705176,-0.1745,0.476413,-0.926203,-0.147108,-0.636554,-0.470267
-0.706261,-0.1745,0.47776,-0.925556,-0.148367,-0.636205,-0.470566
-0.705062,-0.1745,0.476934,-0.926155,-0.147404,-0.635962,-0.470687
-0.706317,-0.1745,0.478483,-0.925399,-0.14881,-0.635799,-0.471075
-0.705288,-0.1745,0.477776,-0.925926,-0.147781,-0.635811,-0.470712
-0.706326,-0.1745,0.478983,-0.925375,-0.148772,-0.635707,-0.470701
-0.706413,-0.1745,0.479552,-0.925277,-0.14883,-0.635917,-0.470241
-0.707086,-0.1745,0.480652,-0.924879,-0.149615,-0.635954,-0.470449
-0.706211,-0.1745,0.479923,-0.925354,-0.148747,-0.635916,-0.470157
-0.706654,-0.1745,0.480223,-0.92524,-0.149093,-0.635551,-0.470114
-0.705767,-0.1745,0.479464,-0.925707,-0.148303,-0.635634,-0.470019
-0.706992,-0.1745,0.481227,-0.92511,-0.149916,-0.635664,-0.470562
-0.70589,-0.1745,0.480659,-0.925627,-0.149231,-0.636293,-0.470816
-0.70708,-0.1745,0.48238,-0.925114,-0.150864,-0.636283,-0.471297
-0.706097,-0.1745,0.481888,-0.925482,-0.150043,-0.6366,-0.471193
-0.706297,-0.1745,0.481967,-0.92545,-0.150008,-0.636312,-0.470987
-0.705466,-0.1745,0.481497,-0.925685,-0.149067,-0.636282,-0.470612
-0.705823,-0.1745,0.481939,-0.925491,-0.149541,-0.636093,-0.470555
-0.705571,-0.1745,0.482669,-0.925307,-0.150759,-0.636515,-0.47057
-0.705452,-0.1745,0.483321,-0.92521,-0.151793,-0.63675,-0.470749
-0.70423,-0.1745,0.48297,-0.925654,-0.151816,-0.636867,-0.471012
-0.704349,-0.1745,0.483663,-0.92543,-0.152904,-0.636568,-0.471568
-0.702929,-0.1745,0.483602,-0.925917,-0.152977,-0.635981,-0.472971
-0.702194,-0.1745,0.483118,-0.926227,-0.152525,-0.6356,-0.473265
-0.702174,-0.1745,0.483887,-0.925916,-0.153835,-0.635243,-0.473386
-0.701412,-0.1745,0.483401,-0.926044,-0.153312,-0.63534,-0.473118
-0.701768,-0.1745,0.484261,-0.925565,-0.15451,-0.635097,-0.47237
-0.701936,-0.1745,0.484718,-0.925285,-0.154798,-0.635026,-0.47236
-0.701209,-0.1745,0.484579,-0.925421,-0.154291,-0.634792,-0.472389
-0.702504,-0.1745,0.486227,-0.924529,-0.155646,-0.634518,-0.47279
-0.701879,-0.1745,0.486007,-0.92469,-0.155235,-0.634473,-0.472655
-0.701542,-0.1745,0.485546,-0.924757,-0.154973,-0.634398,-0.472013
-0.703202,-0.1745,0.487885,-0.923712,-0.157689,-0.634528,-0.471411
-0.702647,-0.1745,0.487533,-0.923785,-0.157449,-0.63484,-0.471001
-0.702394,-0.1745,0.487281,-0.923918,-0.156967,-0.634586,-0.47081
-0.702122,-0.1745,0.486948,-0.92407,-0.156426,-0.634426,-0.470876
-0.701892,-0.1745,0.486805,-0.924313,-0.155442,-0.633931,-0.471534
-0.701501,-0.1745,0.486488,-0.924616,-0.155042,-0.633909,-0.471672
-0.700856,-0.1745,0.486287,-0.925022,-0.154978,-0.634519,-0.472133
-0.701507,-0.1745,0.487539,-0.924857,-0.156659,-0.634968,-0.47262
-0.700875,-0.1745,0.487523,-0.925222,-0.156631,-0.635534,-0.473112
-0.701565,-0.1745,0.488465,-0.924945,-0.157781,-0.635509,-0.473394
-0.701204,-0.1745,0.488426,-0.925184,-0.157519,-0.635301,-0.473731
-0.700942,-0.1745,0.487992,-0.925204,-0.157301,-0.635377,-0.473567
-0.702244,-0.1745,0.489784,-0.924453,-0.159335,-0.635625,-0.473691
-0.701759,-0.1745,0.489679,-0.924527,-0.159344,-0.636208,-0.473525
-0.703799,-0.1745,0.492689,-0.923309,-0.16256,-0.636859,-0.473697
-0.703475,-0.1745,0.492876,-0.923395,-0.16263,-0.637163,-0.473725
-0.704172,-0.1745,0.494204,-0.922852,-0.164606,-0.637487,-0.47362
-0.703926,-0.1745,0.494557,-0.922796,-0.164902,-0.637674,-0.473779
-0.704675,-0.1745,0.495921,-0.92233,-0.166454,-0.637603,-0.473919
-0.704628,-0.1745,0.496514,-0.922276,-0.16654,-0.637496,-0.474237
-0.704626,-0.1745,0.497108,-0.922182,-0.166645,-0.637179,-0.474423
-0.704701,-0.1745,0.497456,-0.922046,-0.166736,-0.637113,-0.474552
-0.70452,-0.1745,0.497987,-0.921846,-0.166726,-0.637243,-0.47482
-0.70451,-0.1745,0.498476,-0.921816,-0.16688,-0.637326,-0.475067
-0.70427,-0.1745,0.499222,-0.921698,-0.166851,-0.637481,-0.475519
-0.704285,-0.1745,0.499647,-0.921606,-0.167061,-0.637404,-0.475683
-0.702727,-0.1745,0.497738,-0.922293,-0.165396,-0.636324,-0.474939
-0.702564,-0.1745,0.498062,-0.922025,-0.165457,-0.635884,-0.475103
-0.702377,-0.1745,0.498261,-0.921924,-0.165801,-0.635278,-0.474938
-0.702153,-0.1745,0.498565,-0.921823,-0.166134,-0.635307,-0.474879
-0.701777,-0.1745,0.499208,-0.921886,-0.167125,-0.635589,-0.474633
-0.701792,-0.1745,0.499644,-0.921758,-0.167628,-0.63574,-0.474604
-0.701644,-0.1745,0.500294,-0.921531,-0.168163,-0.63577,-0.474559
-0.701802,-0.1745,0.500646,-0.921192,-0.168322,-0.635757,-0.474581
-0.701699,-0.1745,0.501028,-0.920765,-0.168339,-0.635601,-0.47463
-0.700293,-0.1745,0.499227,-0.921401,-0.166746,-0.635413,-0.474133
-0.699539,-0.1745,0.50018,-0.921226,-0.167271,-0.63589,-0.475397
-0.699119,-0.1745,0.500996,-0.921197,-0.167992,-0.636162,-0.476294
-0.698389,-0.1745,0.501962,-0.921005,-0.168771,-0.636562,-0.477194
-0.697839,-0.1745,0.502907,-0.920838,-0.169617,-0.636887,-0.477616
-0.695949,-0.1745,0.503319,-0.920939,-0.169876,-0.637304,-0.477637
-0.695533,-0.1745,0.504606,-0.920705,-0.17071,-0.637552,-0.478073
-0.693574,-0.1745,0.505503,-0.920674,-0.171406,-0.636992,-0.477629
-0.693279,-0.1745,0.50679,-0.91995,-0.172143,-0.63692,-0.477796
-0.690575,-0.1745,0.507071,-0.920041,-0.172246,-0.635447,-0.476575
-0.690263,-0.1745,0.508556,-0.918997,-0.173148,-0.635329,-0.476561
-0.68775,-0.1745,0.509998,-0.918397,-0.17434,-0.633649,-0.474921
-0.686921,-0.1745,0.511992,-0.916689,-0.175633,-0.633175,-0.47429
-0.683933,-0.1745,0.512471,-0.916605,-0.176064,-0.631628,-0.472673
-0.683006,-0.1745,0.51509,-0.915053,-0.177991,-0.631238,-0.472472
-0.679171,-0.1745,0.517105,-0.91507,-0.179796,-0.629528,-0.471327
-0.679007,-0.1745,0.51964,-0.913536,-0.181719,-0.629392,-0.471536
-0.673814,-0.1745,0.520351,-0.914002,-0.182027,-0.627545,-0.470237
-0.671721,-0.1745,0.520302,-0.913524,-0.181473,-0.627104,-0.46987
-0.666953,-0.1745,0.522329,-0.913286,-0.182592,-0.625438,-0.469282
-0.665416,-0.1745,0.523068,-0.912567,-0.18307,-0.624872,-0.468985
-0.661018,-0.1745,0.525461,-0.912114,-0.185686,-0.622829,-0.468073
-0.659753,-0.1745,0.528356,-0.910293,-0.188403,-0.622033,-0.468019
-0.65542,-0.1745,0.528779,-0.910381,-0.189361,-0.620349,-0.466614
-0.652655,-0.1745,0.529678,-0.909654,-0.189572,-0.619585,-0.4663
-0.647347,-0.1745,0.53164,-0.909535,-0.190399,-0.618543,-0.465684
-0.64595,-0.1745,0.532663,-0.908718,-0.190885,-0.618207,-0.465488
-0.640093,-0.1745,0.533124,-0.908889,-0.190509,-0.616917,-0.464341
-0.637666,-0.1745,0.532516,-0.908546,-0.189562,-0.616497,-0.463675
-0.632587,-0.1745,0.53319,-0.908157,-0.189684,-0.615238,-0.462409
-0.629727,-0.1745,0.532186,-0.908277,-0.188316,-0.614901,-0.462015
-0.625056,-0.1745,0.533868,-0.908002,-0.189097,-0.614306,-0.462349
-0.622509,-0.1745,0.534948,-0.907702,-0.18957,-0.614038,-0.462902
-0.618361,-0.1745,0.535707,-0.907869,-0.189396,-0.613772,-0.463272
-0.615625,-0.1745,0.535622,-0.907567,-0.189061,-0.6136,-0.462704
-0.611431,-0.1745,0.536324,-0.907412,-0.18913,-0.613121,-0.46177
-0.60937,-0.1745,0.535805,-0.907288,-0.188401,-0.613073,-0.461301
-0.606358,-0.1745,0.537679,-0.906591,-0.189789,-0.612415,-0.460879
-0.604761,-0.1745,0.537284,-0.90606,-0.18932,-0.612309,-0.460487
-0.601317,-0.1745,0.538279,-0.905532,-0.18995,-0.611604,-0.460126
-0.600178,-0.1745,0.53829,-0.904867,-0.190138,-0.611411,-0.459634
-0.597169,-0.1745,0.539193,-0.904276,-0.191369,-0.610428,-0.458755
-0.595041,-0.1745,0.538703,-0.903719,-0.191295,-0.609959,-0.457883
-0.592564,-0.1745,0.539314,-0.903401,-0.192533,-0.609048,-0.45727
-0.590879,-0.1745,0.539528,-0.902554,-0.193307,-0.608507,-0.456881
-0.587289,-0.1745,0.539974,-0.902707,-0.194949,-0.606922,-0.456844
-0.586557,-0.1745,0.540382,-0.901688,-0.195723,-0.606673,-0.456679
-0.583754,-0.1745,0.541754,-0.901348,-0.197799,-0.60546,-0.456539
-0.582598,-0.1745,0.541662,-0.900688,-0.197757,-0.605217,-0.456211
-0.579569,-0.1745,0.542544,-0.900333,-0.19877,-0.604317,-0.455818
-0.578812,-0.1745,0.543208,-0.899635,-0.199388,-0.604173,-0.455663
-0.576599,-0.1745,0.545107,-0.898906,-0.201211,-0.603612,-0.45542
-0.575083,-0.1745,0.545646,-0.898256,-0.201637,-0.603501,-0.455042
-0.573303,-0.1745,0.54748,-0.89774,-0.203189,-0.603244,-0.455058
-0.57224,-0.1745,0.54915,-0.896882,-0.204531,-0.603308,-0.455287
-0.570886,-0.1745,0.553539,-0.895926,-0.208172,-0.603275,-0.456512
-0.569834,-0.1745,0.554102,-0.895475,-0.208538,-0.603199,-0.456411
-0.567329,-0.1745,0.556846,-0.895077,-0.210685,-0.602314,-0.456087
-0.566418,-0.1745,0.557323,-0.89423,-0.211009,-0.602006,-0.455447
-0.563724,-0.1745,0.559466,-0.893374,-0.212549,-0.600724,-0.453888
-0.562545,-0.1745,0.5599,-0.892705,-0.212412,-0.600258,-0.453358
-0.560926,-0.1745,0.563948,-0.891194,-0.214273,-0.59865,-0.452934
-0.55953,-0.1745,0.565221,-0.889926,-0.213803,-0.597669,-0.452562
-0.558188,-0.1745,0.568783,-0.888739,-0.215538,-0.59619,-0.452032
-0.556743,-0.1745,0.570388,-0.887321,-0.215717,-0.595344,-0.451261
-0.555467,-0.1745,0.575833,-0.885625,-0.219614,-0.593531,-0.449931
-0.554383,-0.1745,0.575578,-0.884279,-0.219079,-0.592783,-0.448499
-0.552214,-0.1745,0.580122,-0.882907,-0.222317,-0.59041,-0.447083
-0.550463,-0.1745,0.579443,-0.881502,-0.221129,-0.589706,-0.4459
-0.548361,-0.1745,0.583958,-0.879646,-0.224602,-0.586933,-0.44461
-0.546949,-0.1745,0.584108,-0.878223,-0.224466,-0.586209,-0.443556
-0.54528,-0.1745,0.589831,-0.875994,-0.229728,-0.583939,-0.442405
-0.543431,-0.1745,0.590976,-0.873983,-0.230888,-0.582894,-0.440927
-0.54088,-0.1745,0.594051,-0.872857,-0.233753,-0.580807,-0.439725
-0.539009,-0.1745,0.594686,-0.870677,-0.234193,-0.579222,-0.438107
-0.535153,-0.1745,0.596966,-0.869684,-0.236029,-0.575349,-0.436175
-0.534057,-0.1745,0.597201,-0.867397,-0.235931,-0.574696,-0.435184
-0.531249,-0.1745,0.601134,-0.866034,-0.240175,-0.572355,-0.433841
-0.530762,-0.1745,0.602692,-0.863951,-0.241999,-0.572366,-0.433147
-0.528525,-0.1745,0.608073,-0.862114,-0.247962,-0.571713,-0.432462
-0.526951,-0.1745,0.608532,-0.861078,-0.248594,-0.571591,-0.431683
-0.524617,-0.1745,0.613347,-0.859278,-0.253131,-0.570878,-0.431144
-0.522117,-0.1745,0.614151,-0.858183,-0.253683,-0.570634,-0.430341
-0.519987,-0.1745,0.617899,-0.856918,-0.256992,-0.570077,-0.43014
-0.518373,-0.1745,0.620179,-0.855482,-0.259183,-0.569679,-0.42969
-0.515602,-0.1745,0.62541,-0.854246,-0.264134,-0.56869,-0.429736
-0.513968,-0.1745,0.625821,-0.853094,-0.264484,-0.568493,-0.429149
-0.511563,-0.1745,0.631206,-0.851653,-0.269684,-0.567185,-0.429132
-0.509878,-0.1745,0.631205,-0.850381,-0.269678,-0.566859,-0.428392
-0.507861,-0.1745,0.636483,-0.848435,-0.274898,-0.565408,-0.428085
-0.506313,-0.1745,0.636619,-0.847211,-0.275136,-0.565022,-0.427133
-0.505059,-0.1745,0.64235,-0.844809,-0.280981,-0.563662,-0.425906
-0.504319,-0.1745,0.644494,-0.842301,-0.283264,-0.563071,-0.424437
-0.502523,-0.1745,0.648014,-0.840831,-0.287006,-0.561995,-0.423204
-0.50188,-0.1745,0.650978,-0.838425,-0.289901,-0.561556,-0.422603
-0.501605,-0.1745,0.659823,-0.835967,-0.298378,-0.560691,-0.423436
-0.499393,-0.1745,0.658135,-0.834946,-0.297003,-0.559913,-0.422
-0.498184,-0.1745,0.66445,-0.832991,-0.303245,-0.558143,-0.421263
-0.496977,-0.1745,0.664002,-0.831024,-0.302878,-0.557572,-0.419705
-0.496148,-0.1745,0.669874,-0.828505,-0.308538,-0.555315,-0.418106
-0.494817,-0.1745,0.669644,-0.826836,-0.30838,-0.554681,-0.41662
-0.494717,-0.1745,0.678114,-0.82377,-0.316065,-0.553166,-0.415853
-0.493617,-0.1745,0.679719,-0.821235,-0.317643,-0.552211,-0.414012
-0.492424,-0.1745,0.684463,-0.819599,-0.322138,-0.55058,-0.412975
-0.491062,-0.1745,0.685726,-0.817378,-0.323531,-0.549528,-0.411707
-0.489032,-0.1745,0.690235,-0.816054,-0.32867,-0.547093,-0.410872
-0.488,-0.1745,0.689763,-0.814055,-0.328649,-0.546478,-0.409647
-0.488494,-0.1745,0.696688,-0.811483,-0.336427,-0.544299,-0.408654
-0.487482,-0.1745,0.694336,-0.809133,-0.334911,-0.543332,-0.406382
-0.488503,-0.1745,0.699893,-0.805759,-0.341751,-0.5412,-0.40444
-0.4883,-0.1745,0.699301,-0.803423,-0.341882,-0.540476,-0.402807
-0.488885,-0.1745,0.704797,-0.800646,-0.34856,-0.538633,-0.401456
-0.490727,-0.1745,0.709002,-0.796844,-0.353257,-0.538255,-0.400818
-0.491687,-0.1745,0.714541,-0.794836,-0.359616,-0.536788,-0.400563
-0.492251,-0.1745,0.716757,-0.791924,-0.362462,-0.536121,-0.399996
-0.492238,-0.1745,0.722643,-0.790084,-0.368931,-0.534654,-0.400619
-0.490906,-0.1745,0.720761,-0.788447,-0.367756,-0.534144,-0.399525
-0.490739,-0.1745,0.726207,-0.786772,-0.374064,-0.532422,-0.399594
-0.49246,-0.1745,0.730101,-0.783706,-0.378072,-0.532638,-0.399833
-0.489803,-0.1745,0.73032,-0.782771,-0.379833,-0.530416,-0.398225
-0.491172,-0.1745,0.734271,-0.780325,-0.383624,-0.530481,-0.398454
-0.490857,-0.1745,0.739461,-0.778441,-0.388774,-0.529039,-0.398007
-0.488995,-0.1745,0.738487,-0.777058,-0.38783,-0.528085,-0.396546
-0.488776,-0.1745,0.743289,-0.775648,-0.392499,-0.527147,-0.396399
-0.489351,-0.1745,0.746907,-0.773229,-0.396277,-0.526586,-0.396071
-0.488237,-0.1745,0.751563,-0.772048,-0.401779,-0.524923,-0.395476
-0.489186,-0.1745,0.754658,-0.769561,-0.40487,-0.524975,-0.395399
-0.488008,-0.1745,0.75914,-0.768466,-0.409926,-0.52354,-0.394898
-0.486958,-0.1745,0.75846,-0.767117,-0.409603,-0.52309,-0.39393
-0.485677,-0.1745,0.762355,-0.76592,-0.413822,-0.521783,-0.393333
-0.485983,-0.1745,0.765304,-0.764183,-0.416486,-0.522076,-0.393495
-0.484814,-0.1745,0.768924,-0.762965,-0.420515,-0.520531,-0.3927
-0.484483,-0.1745,0.771702,-0.761027,-0.423113,-0.520418,-0.392398
-0.483579,-0.1745,0.774988,-0.760056,-0.426668,-0.51933,-0.391997
-0.483015,-0.1745,0.777479,-0.758264,-0.429272,-0.519073,-0.391813
-0.480891,-0.1745,0.780781,-0.757432,-0.433169,-0.517818,-0.39161
-0.480809,-0.1745,0.782786,-0.755725,-0.435143,-0.517846,-0.39163
-0.478776,-0.1745,0.785818,-0.754961,-0.438529,-0.516504,-0.391512
-0.478642,-0.1745,0.787586,-0.753386,-0.440103,-0.516446,-0.391557
-0.476564,-0.1745,0.790285,-0.752491,-0.442613,-0.515135,-0.391501
-0.476322,-0.1745,0.791667,-0.751191,-0.443998,-0.514852,-0.391431
-0.473622,-0.1745,0.794004,-0.750278,-0.446298,-0.514012,-0.390922
-0.472459,-0.1745,0.795101,-0.748654,-0.447339,-0.513598,-0.390309
-0.473052,-0.1745,0.801768,-0.746828,-0.453784,-0.513147,-0.390769
-0.472024,-0.1745,0.802276,-0.745327,-0.454912,-0.511924,-0.389668
-0.471056,-0.1745,0.806171,-0.743576,-0.459859,-0.510013,-0.388533
-0.470111,-0.1745,0.806245,-0.74264,-0.460228,-0.509194,-0.38788
-0.469482,-0.173562,0.809884,-0.739631,-0.463917,-0.508349,-0.386929
-0.468487,-0.173234,0.810325,-0.73926,-0.464172,-0.507735,-0.386568
-0.467926,-0.17269,0.815399,-0.736419,-0.468166,-0.507845,-0.386677
-0.467574,-0.172062,0.816805,-0.735018,-0.469284,-0.507754,-0.38647
-0.4646,-0.171088,0.817913,-0.734004,-0.470208,-0.506368,-0.385542
-0.465291,-0.170457,0.822506,-0.731086,-0.474309,-0.506583,-0.385685
-0.462926,-0.169494,0.823255,-0.730326,-0.475252,-0.505206,-0.384924
-0.461062,-0.168626,0.823577,-0.729526,-0.476007,-0.504362,-0.384225
-0.462274,-0.167972,0.831234,-0.725792,-0.484104,-0.503808,-0.384541
-0.461032,-0.167403,0.831552,-0.725428,-0.484696,-0.503063,-0.384144
-0.460549,-0.166854,0.836638,-0.722817,-0.490112,-0.502422,-0.383441
-0.459373,-0.166402,0.837116,-0.722462,-0.490494,-0.501727,-0.382891
-0.458536,-0.16555,0.841486,-0.719225,-0.49484,-0.501751,-0.38162
-0.457412,-0.165118,0.841842,-0.718873,-0.495267,-0.501107,-0.381251
-0.454229,-0.164004,0.842593,-0.717963,-0.496384,-0.500426,-0.381355
-0.452407,-0.162928,0.842679,-0.716955,-0.496729,-0.500108,-0.381602
-0.453652,-0.162648,0.849649,-0.713879,-0.503664,-0.500602,-0.382899
-0.451956,-0.161845,0.849967,-0.713455,-0.504556,-0.499749,-0.38245
-0.45223,-0.161721,0.857008,-0.710984,-0.512155,-0.49979,-0.382451
-0.45105,-0.161125,0.857279,-0.710723,-0.512755,-0.499162,-0.382051
-0.447799,-0.159994,0.857827,-0.709901,-0.514368,-0.498437,-0.381219
-0.450318,-0.159762,0.864624,-0.706773,-0.520809,-0.499414,-0.382348
-0.448752,-0.159526,0.869323,-0.705739,-0.52592,-0.499028,-0.383068
-0.448457,-0.159004,0.871184,-0.704651,-0.527922,-0.49896,-0.383211
-0.447693,-0.158496,0.876313,-0.703121,-0.533518,-0.49823,-0.383833
-0.446027,-0.157685,0.876615,-0.702718,-0.534381,-0.497278,-0.383497
-0.447177,-0.157174,0.883607,-0.699982,-0.541068,-0.49727,-0.384289
-0.446724,-0.156412,0.88634,-0.698389,-0.543411,-0.497005,-0.384042
-0.443901,-0.155459,0.887691,-0.697665,-0.543977,-0.495676,-0.382843
-0.44546,-0.15543,0.893235,-0.695658,-0.548842,-0.496148,-0.383331
-0.446282,-0.155151,0.90119,-0.693858,-0.556699,-0.495175,-0.383892
-0.445165,-0.15423,0.90123,-0.693455,-0.557233,-0.494432,-0.383564
-0.45015,-0.15271,0.914432,-0.688081,-0.570863,-0.494169,-0.384951
-0.451697,-0.152263,0.919319,-0.686405,-0.575955,-0.493948,-0.385147
-0.45516,-0.151634,0.930868,-0.682845,-0.587901,-0.493055,-0.384517
-0.457843,-0.150779,0.938443,-0.679742,-0.595642,-0.492782,-0.383793
-0.460875,-0.150749,0.948938,-0.677257,-0.606179,-0.492265,-0.383615
-0.463173,-0.150096,0.956572,-0.674659,-0.613667,-0.492315,-0.383947
-0.4664,-0.150213,0.969708,-0.672131,-0.626305,-0.492321,-0.385472
-0.46522,-0.149592,0.970052,-0.672001,-0.6268,-0.491614,-0.38507
-0.470976,-0.149667,0.988451,-0.667568,-0.644137,-0.492516,-0.387028
-0.469737,-0.1491,0.98892,-0.66741,-0.644542,-0.491733,-0.386499
-0.474197,-0.149059,1.005214,-0.663504,-0.659881,-0.492209,-0.387659
-0.475679,-0.149159,1.01158,-0.66247,-0.666005,-0.492142,-0.38815
-0.4784,-0.148481,1.02451,-0.659505,-0.678753,-0.491461,-0.38882
-0.480708,-0.147394,1.033147,-0.656625,-0.687386,-0.491283,-0.389186
-0.48338,-0.147033,1.04486,-0.654335,-0.699168,-0.490817,-0.389927
-0.485803,-0.146021,1.053948,-0.651468,-0.708362,-0.490876,-0.390274
-0.489475,-0.145877,1.069752,-0.648789,-0.724425,-0.490701,-0.391267
-0.491761,-0.145332,1.077463,-0.646754,-0.732222,-0.49105,-0.391739
-0.495925,-0.14516,1.094125,-0.643984,-0.749352,-0.491311,-0.392947
-0.498439,-0.144577,1.102268,-0.641906,-0.757722,-0.491877,-0.393527
-0.504168,-0.144159,1.122264,-0.638337,-0.77814,-0.493003,-0.395202
-0.502816,-0.143571,1.12249,-0.638314,-0.778811,-0.492187,-0.394745
-0.320395,-0.088632,0.758336,-0.697977,-0.434009,-0.44936,-0.322392
-0.325931,-0.054694,0.725834,-0.655593,-0.401133,-0.459535,-0.309855
-0.323864,-0.040184,0.708429,-0.640124,-0.384049,-0.462191,-0.303146
-0.321192,-0.032326,0.698122,-0.632568,-0.374129,-0.463181,-0.298946
-0.31346,-0.026106,0.686387,-0.630021,-0.363145,-0.462167,-0.293893
-0.311639,-0.021803,0.680783,-0.625977,-0.357915,-0.462643,-0.291504
-0.304483,-0.016771,0.671227,-0.624625,-0.349654,-0.461436,-0.287969
-0.304376,-0.013736,0.669417,-0.620668,-0.348504,-0.461737,-0.286912
-0.296503,-0.008267,0.658059,-0.619803,-0.338901,-0.460681,-0.283739
-0.296335,-0.005413,0.656483,-0.616065,-0.337814,-0.460867,-0.282618
-0.286955,0.000999,0.641442,-0.615781,-0.32397,-0.459172,-0.277489
-0.28349,0.006552,0.632689,-0.61191,-0.315743,-0.45903,-0.273972
-0.277448,0.011849,0.622163,-0.610154,-0.305705,-0.457815,-0.269828
-0.273797,0.017133,0.613085,-0.606569,-0.29682,-0.457515,-0.266332
-0.265758,0.02313,0.59974,-0.605221,-0.283425,-0.455587,-0.261196
-0.264285,0.027686,0.593012,-0.600826,-0.27673,-0.456018,-0.258674
-0.25694,0.033087,0.581761,-0.599407,-0.2656,-0.454584,-0.254574
-0.255552,0.036886,0.57643,-0.595677,-0.260453,-0.455066,-0.252701
-0.248799,0.041829,0.566823,-0.594106,-0.251074,-0.45404,-0.249444
-0.247159,0.045037,0.561986,-0.591225,-0.246304,-0.454284,-0.247824
-0.240492,0.049604,0.552695,-0.589948,-0.236789,-0.453183,-0.244944
-0.237497,0.053448,0.546194,-0.58712,-0.23011,-0.453125,-0.242951
-0.232087,0.057546,0.537445,-0.585934,-0.22093,-0.452025,-0.240105
-0.228652,0.062327,0.528213,-0.582931,-0.211316,-0.451544,-0.23694
-0.220785,0.068591,0.513144,-0.582008,-0.19525,-0.449156,-0.231501
-0.219887,0.073511,0.50499,-0.57711,-0.186876,-0.449652,-0.228693
-0.213173,0.079399,0.491571,-0.575641,-0.172722,-0.447914,-0.223709
-0.214364,0.08261,0.488835,-0.570106,-0.169947,-0.448708,-0.222226
-0.206641,0.088965,0.472724,-0.569632,-0.153296,-0.447212,-0.216764
-0.207748,0.091766,0.470172,-0.564608,-0.150737,-0.447934,-0.215494
-0.201206,0.09678,0.456955,-0.564048,-0.136844,-0.446703,-0.211348
-0.199864,0.100364,0.45028,-0.560385,-0.129944,-0.446987,-0.20926
-0.19662,0.103334,0.443446,-0.558667,-0.122682,-0.44639,-0.207097
-0.194968,0.106161,0.437731,-0.55596,-0.116769,-0.446434,-0.205471
-0.19081,0.108908,0.430816,-0.554692,-0.109384,-0.445516,-0.203549
-0.191375,0.110367,0.429123,-0.551426,-0.107747,-0.445819,-0.20293
-0.185907,0.113633,0.420075,-0.551379,-0.098333,-0.444776,-0.200279
-0.186547,0.115326,0.418225,-0.547968,-0.09664,-0.445162,-0.199495
-0.181385,0.118781,0.408806,-0.547576,-0.087051,-0.444253,-0.196468
-0.181932,0.120361,0.407065,-0.544353,-0.085462,-0.444574,-0.195753
-0.176464,0.123902,0.397805,-0.544065,-0.075619,-0.4438,-0.193273
-0.174942,0.126724,0.392344,-0.541338,-0.069984,-0.44404,-0.191888
-0.171696,0.129456,0.386176,-0.540012,-0.06357,-0.443474,-0.190258
-0.170033,0.132329,0.380233,-0.537554,-0.057748,-0.443397,-0.188804
-0.165677,0.135768,0.371992,-0.536501,-0.049685,-0.44208,-0.18672
-0.166497,0.137597,0.369606,-0.532642,-0.047716,-0.442505,-0.185998
-0.160826,0.141495,0.358354,-0.532743,-0.036437,-0.440879,-0.182676
-0.162033,0.143536,0.355475,-0.528188,-0.033864,-0.441504,-0.181677
-0.156765,0.147673,0.343121,-0.527606,-0.021615,-0.440042,-0.177478
-0.157977,0.1498,0.340141,-0.522984,-0.018993,-0.440672,-0.176422
-0.152053,0.154822,0.326406,-0.52274,-0.005453,-0.439089,-0.171827
-0.151729,0.15855,0.318987,-0.518177,0.001389,-0.439295,-0.169353
-0.148701,0.162154,0.310806,-0.516077,0.009282,-0.43861,-0.166675
-0.146442,0.166073,0.301882,-0.513356,0.017963,-0.439058,-0.16456
-0.142205,0.169659,0.293941,-0.511351,0.02569,-0.438594,-0.162709
-0.143017,0.171442,0.291202,-0.50747,0.027774,-0.439118,-0.162039
-0.13796,0.174398,0.283929,-0.506702,0.034068,-0.438919,-0.159614
-0.138431,0.176005,0.281537,-0.503491,0.035471,-0.439419,-0.158746
-0.134472,0.17799,0.276595,-0.501982,0.038465,-0.439618,-0.156033
-0.134537,0.179171,0.275004,-0.499547,0.039411,-0.439731,-0.155374
-0.12934,0.181523,0.268177,-0.49904,0.045912,-0.439484,-0.152856
-0.127672,0.183691,0.263091,-0.496592,0.050859,-0.439806,-0.151423
-0.124197,0.185971,0.257765,-0.495142,0.056061,-0.439714,-0.149649
-0.12355,0.187428,0.25587,-0.491772,0.057228,-0.440141,-0.148572
-0.116767,0.190963,0.247912,-0.491846,0.064781,-0.440218,-0.145781
-0.117052,0.192582,0.245541,-0.488422,0.066398,-0.44069,-0.144917
-0.110375,0.196312,0.237033,-0.488326,0.074419,-0.440423,-0.142417
-0.110969,0.1981,0.234169,-0.484492,0.076398,-0.440818,-0.141707
-0.104141,0.202634,0.22328,-0.484346,0.086841,-0.440137,-0.139126
-0.103636,0.205285,0.217216,-0.481056,0.092408,-0.440744,-0.137807
-0.098019,0.209337,0.2066,-0.479835,0.103067,-0.439632,-0.134647
-0.096272,0.212808,0.197504,-0.476407,0.112032,-0.439836,-0.132325
-0.092184,0.21643,0.187661,-0.474629,0.12234,-0.439249,-0.129586
-0.090264,0.219917,0.178456,-0.471337,0.131972,-0.439678,-0.127478
-0.084315,0.224134,0.167001,-0.470225,0.145205,-0.438979,-0.124503
-0.084215,0.227159,0.159013,-0.466098,0.153258,-0.440046,-0.123
-0.078409,0.231365,0.14797,-0.464841,0.164885,-0.439272,-0.120088
-0.078318,0.234273,0.140238,-0.460827,0.172031,-0.440183,-0.118591
-0.072826,0.238549,0.129408,-0.459097,0.182398,-0.439532,-0.11578
-0.072431,0.241167,0.122575,-0.455513,0.188612,-0.440443,-0.114562
-0.066704,0.24504,0.113967,-0.453707,0.196842,-0.440592,-0.112696
-0.064413,0.247851,0.107494,-0.450773,0.20275,-0.441466,-0.111618
-0.059737,0.251018,0.100453,-0.449334,0.209472,-0.441536,-0.110239
-0.058203,0.253225,0.095029,-0.44602,0.214233,-0.44172,-0.109177
-0.050777,0.257516,0.084391,-0.446263,0.224952,-0.440616,-0.106971
-0.049522,0.260854,0.07544,-0.443323,0.233525,-0.441461,-0.105849
-0.043292,0.265663,0.063036,-0.442517,0.245426,-0.440063,-0.102931
-0.043455,0.268997,0.053019,-0.438235,0.254383,-0.440876,-0.101202
-0.038005,0.274356,0.038241,-0.436892,0.268327,-0.4393,-0.097522
-0.038629,0.277611,0.02769,-0.432326,0.278039,-0.440353,-0.095829
-0.033836,0.282338,0.013657,-0.431085,0.292699,-0.439297,-0.092582
-0.033198,0.285925,0.001625,-0.4273,0.304804,-0.439996,-0.090508
-0.030746,0.289444,-0.009985,-0.425021,0.316825,-0.439917,-0.088242
-0.030436,0.29222,-0.020275,-0.421338,0.326779,-0.44076,-0.086647
-0.027624,0.294952,-0.030333,-0.419194,0.336832,-0.440617,-0.084698
-0.029454,0.296288,-0.036536,-0.414404,0.342151,-0.441706,-0.084144
-0.024735,0.299669,-0.047007,-0.41454,0.352327,-0.440922,-0.082461
-0.026309,0.301048,-0.053192,-0.41002,0.357154,-0.441865,-0.082078
-0.021599,0.304864,-0.063882,-0.410105,0.367166,-0.440906,-0.080889
-0.02309,0.306086,-0.06977,-0.405792,0.372019,-0.441803,-0.080451
-0.017939,0.309459,-0.080078,-0.406579,0.383581,-0.44125,-0.078757
-0.017089,0.311666,-0.088833,-0.404043,0.392675,-0.442012,-0.07762
-0.014671,0.314203,-0.097963,-0.402638,0.40213,-0.441878,-0.0761
-0.013913,0.316695,-0.107661,-0.400131,0.411057,-0.442064,-0.074701
-0.010571,0.320097,-0.119091,-0.399172,0.42117,-0.440501,-0.072378
-0.012722,0.321515,-0.127266,-0.39419,0.427669,-0.441301,-0.071512
-0.007845,0.325873,-0.140305,-0.395112,0.439829,-0.439528,-0.069085
-0.008836,0.328333,-0.151077,-0.391438,0.449335,-0.440431,-0.068028
-0.005968,0.332142,-0.164086,-0.389952,0.460781,-0.439168,-0.065962
-0.00807,0.333579,-0.173039,-0.384754,0.468044,-0.440443,-0.065361
-0.004327,0.336814,-0.184983,-0.383886,0.478266,-0.439645,-0.062932
-0.004016,0.33861,-0.195098,-0.380619,0.486478,-0.440328,-0.061484
-0.002361,0.340457,-0.204387,-0.377998,0.49374,-0.440312,-0.060406
-0.003006,0.341264,-0.211691,-0.373762,0.498813,-0.44071,-0.060491
0.00123,0.343868,-0.22088,-0.373159,0.505916,-0.439867,-0.061345
0.000298,0.344536,-0.227506,-0.369624,0.510846,-0.440493,-0.061474
0.004816,0.347092,-0.23682,-0.369884,0.519145,-0.438769,-0.060875
0.003607,0.34771,-0.243961,-0.366057,0.525147,-0.439303,-0.060456
0.008737,0.350904,-0.255827,-0.367564,0.536738,-0.436936,-0.058106
0.008203,0.35286,-0.266783,-0.364807,0.546472,-0.437242,-0.056962
0.011221,0.356944,-0.282068,-0.364771,0.559386,-0.433792,-0.053712
0.010806,0.360476,-0.298704,-0.361968,0.57358,-0.432876,-0.05134
0.012019,0.364976,-0.316708,-0.360573,0.588951,-0.430438,-0.048393
0.011557,0.369189,-0.336102,-0.357506,0.605971,-0.429737,-0.046257
0.014336,0.375522,-0.358018,-0.357277,0.625158,-0.425747,-0.043005
0.012063,0.379134,-0.378636,-0.352519,0.643514,-0.426929,-0.041682
0.01447,0.385008,-0.401123,-0.351159,0.6633,-0.424357,-0.039187
0.012243,0.388213,-0.42183,-0.346179,0.681827,-0.426197,-0.038289
0.014668,0.393711,-0.444322,-0.34427,0.701701,-0.424634,-0.036426
0.012806,0.396911,-0.464852,-0.339803,0.720096,-0.426369,-0.03561
0.0156,0.403147,-0.487678,-0.33858,0.739896,-0.424309,-0.033861
0.015234,0.407563,-0.509987,-0.335214,0.759607,-0.42484,-0.032785
0.016726,0.412615,-0.532113,-0.333261,0.779444,-0.424185,-0.03077
0.016734,0.416295,-0.553874,-0.330305,0.799733,-0.425077,-0.02847
0.02007,0.420988,-0.575778,-0.329508,0.821131,-0.424027,-0.023683
0.018737,0.423707,-0.596869,-0.325927,0.840972,-0.425977,-0.02207
0.021888,0.42924,-0.619271,-0.325318,0.861463,-0.424255,-0.019398
0.019762,0.431619,-0.640481,-0.320888,0.880141,-0.425872,-0.019082
0.023402,0.438573,-0.663867,-0.321506,0.901011,-0.423552,-0.017914
0.022106,0.441676,-0.685552,-0.318604,0.921113,-0.424957,-0.017308
0.025277,0.447526,-0.708386,-0.319318,0.943783,-0.422359,-0.014079
0.02535,0.451452,-0.73121,-0.317916,0.966431,-0.422395,-0.012021
0.02683,0.456307,-0.754024,-0.317911,0.98971,-0.420962,-0.009226
0.026602,0.460279,-0.777331,-0.316744,1.013046,-0.42092,-0.007509
0.0288,0.466043,-0.800889,-0.317988,1.037986,-0.417964,-0.004354
0.027065,0.469082,-0.824506,-0.315807,1.061169,-0.419356,-0.003594
0.029226,0.474822,-0.848464,-0.316721,1.085807,-0.416871,-0.000722
0.027583,0.477834,-0.87213,-0.31461,1.108701,-0.418348,-0.000121
0.029742,0.483455,-0.896208,-0.315218,1.132852,-0.416372,0.00246
0.02819,0.486237,-0.919357,-0.313158,1.155126,-0.418132,0.002853
0.03029,0.490872,-0.942495,-0.312641,1.177698,-0.417728,0.00503
0.029853,0.493764,-0.964871,-0.310777,1.199119,-0.41908,0.005791
0.031483,0.498209,-0.986664,-0.311082,1.220919,-0.419639,0.006957
0.031274,0.501646,-1.007957,-0.310439,1.242349,-0.420378,0.006993
0.033166,0.506847,-1.028657,-0.311663,1.264775,-0.418985,0.007106
0.031788,0.509426,-1.049254,-0.310592,1.285352,-0.420396,0.006518
0.033868,0.513885,-1.069176,-0.311635,1.307161,-0.419421,0.00707
0.032723,0.516017,-1.088865,-0.310671,1.32716,-0.420909,0.006751
0.034326,0.519454,-1.108049,-0.310691,1.347653,-0.419974,0.00746
0.033531,0.521113,-1.127183,-0.309283,1.365727,-0.422105,0.007228
0.035395,0.52585,-1.147598,-0.309353,1.382242,-0.422409,0.007984
0.035031,0.528456,-1.167124,-0.307719,1.397522,-0.423912,0.008025
0.03541,0.531645,-1.187135,-0.305948,1.410772,-0.424767,0.008986
0.034689,0.534067,-1.206512,-0.303889,1.423137,-0.425687,0.01017
0.035007,0.537555,-1.228299,-0.300967,1.431433,-0.425394,0.013636
0.033918,0.539001,-1.245445,-0.298846,1.443016,-0.426552,0.014402
0.035017,0.542984,-1.264595,-0.297762,1.452268,-0.425019,0.017301
0.034297,0.544766,-1.280089,-0.296791,1.46416,-0.425407,0.017767
0.036238,0.548732,-1.297212,-0.296573,1.474615,-0.42336,0.019874
0.035578,0.549773,-1.311633,-0.295003,1.486169,-0.42369,0.019923
0.037399,0.554814,-1.327733,-0.296275,1.496744,-0.421097,0.02122
0.037541,0.557511,-1.342211,-0.296218,1.508122,-0.420235,0.021354
0.038707,0.560806,-1.356623,-0.296604,1.519306,-0.418703,0.022099
0.039195,0.563046,-1.370218,-0.296661,1.53075,-0.418094,0.022969
0.041724,0.566247,-1.383878,-0.297445,1.542254,-0.416249,0.025393
0.04139,0.566958,-1.396144,-0.296528,1.553555,-0.416419,0.0256
0.044905,0.571145,-1.408273,-0.298579,1.565692,-0.415479,0.026254
0.045169,0.572768,-1.419652,-0.29874,1.577126,-0.416053,0.025533
0.049155,0.576359,-1.43038,-0.300325,1.58967,-0.41586,0.024602
0.049569,0.577771,-1.441095,-0.300464,1.600708,-0.416714,0.023867
0.053666,0.580578,-1.451224,-0.301602,1.612601,-0.417438,0.023537
0.05545,0.58213,-1.461131,-0.301946,1.623495,-0.418622,0.023074
0.058632,0.583983,-1.470319,-0.302695,1.634803,-0.420009,0.022684
0.06082,0.585189,-1.478993,-0.3032,1.64577,-0.421612,0.022217
0.065949,0.586761,-1.486278,-0.304435,1.658265,-0.423974,0.021887
0.066822,0.587565,-1.494662,-0.304652,1.668097,-0.425341,0.021223
0.070794,0.589917,-1.502626,-0.305869,1.678596,-0.426199,0.020016
0.070802,0.590613,-1.511102,-0.30536,1.687109,-0.426429,0.018686
0.074046,0.594104,-1.519767,-0.307238,1.695906,-0.426303,0.017149
0.074139,0.595329,-1.528235,-0.307399,1.703779,-0.426546,0.016447
0.0764,0.598009,-1.537549,-0.308068,1.710969,-0.42553,0.017044
0.076951,0.599637,-1.546336,-0.308251,1.717829,-0.425034,0.017558
0.078337,0.602008,-1.554739,-0.308987,1.724901,-0.424027,0.017965
0.079253,0.604064,-1.562094,-0.309881,1.73262,-0.423519,0.017353
0.081928,0.607732,-1.568601,-0.312042,1.741578,-0.422103,0.016019
0.081965,0.609264,-1.575604,-0.312726,1.749105,-0.421803,0.015218
0.083502,0.612829,-1.582971,-0.314582,1.756683,-0.41914,0.015057
0.083122,0.613549,-1.590292,-0.314189,1.763235,-0.418266,0.014725
0.083609,0.617695,-1.598196,-0.316683,1.769705,-0.414556,0.015762
0.083166,0.619033,-1.605122,-0.317207,1.776291,-0.413792,0.015779
0.084873,0.622149,-1.611262,-0.319113,1.78427,-0.41194,0.016735
0.08546,0.62396,-1.61728,-0.320184,1.791711,-0.411346,0.017159
0.086489,0.626388,-1.623195,-0.321663,1.7992,-0.41004,0.017914
0.086555,0.628268,-1.629528,-0.322621,1.80571,-0.408724,0.018377
0.087255,0.630952,-1.636035,-0.323902,1.812108,-0.405712,0.019645
0.086769,0.632591,-1.642121,-0.324812,1.81808,-0.40489,0.019634
0.088021,0.635413,-1.647446,-0.326675,1.825327,-0.402498,0.020253
0.087878,0.636496,-1.652766,-0.327378,1.831668,-0.401983,0.020069
0.089475,0.639059,-1.657224,-0.329346,1.839421,-0.400092,0.020246
0.089136,0.639328,-1.662477,-0.329234,1.845172,-0.399502,0.020223
0.089476,0.642096,-1.667965,-0.330695,1.850761,-0.397209,0.020633
0.089529,0.643848,-1.673433,-0.331727,1.855779,-0.396639,0.020791
0.089841,0.645496,-1.678371,-0.332608,1.861121,-0.395595,0.021002
0.090102,0.646555,-1.682559,-0.333395,1.866852,-0.39534,0.020857
0.091636,0.648048,-1.685523,-0.334886,1.874059,-0.39521,0.020639
0.09136,0.648285,-1.689449,-0.334953,1.879271,-0.39507,0.020251
0.093492,0.649952,-1.692705,-0.33655,1.885618,-0.395554,0.020065
0.093697,0.650456,-1.696667,-0.336882,1.890257,-0.395871,0.01978
0.095777,0.651628,-1.700142,-0.337735,1.895633,-0.396137,0.019474
0.095488,0.651763,-1.703947,-0.33775,1.89962,-0.39586,0.019251
0.097569,0.653172,-1.7073,-0.338722,1.904321,-0.396228,0.017897
0.097752,0.65356,-1.710822,-0.338729,1.908035,-0.39578,0.01693
0.098819,0.654631,-1.714246,-0.339537,1.911773,-0.395731,0.016019
0.09885,0.654901,-1.717682,-0.339521,1.914942,-0.395135,0.015655
0.099238,0.656443,-1.721228,-0.34038,1.917877,-0.393747,0.015173
0.099025,0.656548,-1.724374,-0.340373,1.920701,-0.393433,0.015077
0.099606,0.657741,-1.727288,-0.341158,1.92387,-0.392022,0.015015
0.09945,0.657846,-1.729994,-0.341166,1.926684,-0.391647,0.015063
0.100297,0.658009,-1.73233,-0.34136,1.930065,-0.390214,0.015503
0.100594,0.658965,-1.734772,-0.342245,1.93278,-0.390277,0.015233
0.101587,0.659351,-1.737082,-0.342384,1.93569,-0.389039,0.014855
0.102136,0.65969,-1.739345,-0.342484,1.938208,-0.388523,0.014323
0.103657,0.660336,-1.741396,-0.342768,1.940958,-0.38844,0.01349
0.104549,0.661325,-1.743579,-0.343823,1.943247,-0.388613,0.013345
0.106505,0.662137,-1.745611,-0.344269,1.945778,-0.388627,0.012779
0.106767,0.662311,-1.74749,-0.344298,1.947799,-0.388435,0.012512
0.10959,0.662746,-1.748568,-0.344616,1.951189,-0.389139,0.011624
0.110707,0.662584,-1.749937,-0.344984,1.95366,-0.389946,0.011822
0.114056,0.662934,-1.750447,-0.345834,1.957568,-0.391183,0.011235
0.114433,0.663041,-1.751868,-0.345949,1.959561,-0.39094,0.011005
0.116641,0.663958,-1.75341,-0.346581,1.961769,-0.390738,0.010227
0.117197,0.664238,-1.755151,-0.346603,1.963175,-0.389956,0.009929
0.118055,0.664653,-1.75685,-0.346624,1.964572,-0.388829,0.009684
0.118605,0.664906,-1.758376,-0.346646,1.965924,-0.387989,0.00979
0.118647,0.666362,-1.760094,-0.347834,1.967024,-0.385748,0.010615
0.118856,0.666476,-1.761388,-0.347839,1.968307,-0.385279,0.010793
0.118983,0.666474,-1.762693,-0.348109,1.969656,-0.383191,0.012065
0.118861,0.666634,-1.763688,-0.348202,1.970982,-0.382275,0.012235
0.11855,0.666987,-1.764688,-0.348862,1.972361,-0.380175,0.013272
0.118562,0.667043,-1.765744,-0.348875,1.973402,-0.379948,0.013321
0.118844,0.667408,-1.767027,-0.34877,1.974072,-0.379619,0.012757
0.118923,0.667774,-1.768221,-0.348633,1.974582,-0.379774,0.012004
0.119116,0.66818,-1.769352,-0.348503,1.975049,-0.380059,0.011211
0.119506,0.66893,-1.770256,-0.349211,1.97577,-0.380796,0.010882
0.119567,0.669209,-1.771087,-0.349272,1.976416,-0.381049,0.010593
0.119375,0.669209,-1.771806,-0.349271,1.977052,-0.381097,0.010533
0.119444,0.669641,-1.772653,-0.349332,1.977485,-0.38145,0.010272
0.119294,0.669699,-1.773341,-0.349272,1.977984,-0.381507,0.01024
0.119131,0.669841,-1.774153,-0.349105,1.978223,-0.381678,0.010172
0.118931,0.669902,-1.77478,-0.349026,1.978575,-0.38183,0.010087
0.118803,0.670144,-1.77542,-0.348879,1.978786,-0.382341,0.009597
0.118924,0.670395,-1.775918,-0.348834,1.979151,-0.383022,0.00908
0.119,0.670875,-1.776449,-0.349269,1.979446,-0.383894,0.008987
0.118724,0.670923,-1.77689,-0.34918,1.979725,-0.384115,0.00893
0.118424,0.671053,-1.777182,-0.349025,1.980138,-0.384325,0.009027
0.118258,0.671097,-1.777525,-0.348971,1.980493,-0.38441,0.009088
0.117873,0.671274,-1.777844,-0.349354,1.980801,-0.384765,0.009598
0.117725,0.6713,-1.778137,-0.349323,1.981143,-0.384834,0.009594
0.11744,0.67127,-1.778269,-0.349303,1.981587,-0.385138,0.009669
0.117288,0.671255,-1.778558,-0.349299,1.981857,-0.385246,0.009626
0.117059,0.671201,-1.778988,-0.34929,1.98185,-0.385537,0.009372
0.11694,0.67124,-1.779296,-0.349266,1.981963,-0.385775,0.008971
0.116768,0.671252,-1.77965,-0.349231,1.981969,-0.386001,0.008662
0.116615,0.671255,-1.77986,-0.349209,1.982148,-0.386111,0.008604
0.116366,0.671273,-1.780076,-0.349146,1.982249,-0.386331,0.008516
0.116257,0.671306,-1.780257,-0.349105,1.982425,-0.386401,0.008511
0.116002,0.671319,-1.780467,-0.34904,1.982473,-0.386637,0.008414
0.115887,0.671348,-1.780644,-0.348997,1.982595,-0.386726,0.00839
0.11565,0.671353,-1.780859,-0.348941,1.982583,-0.386965,0.008258
0.115541,0.671371,-1.781006,-0.34891,1.982688,-0.387052,0.00822
0.115273,0.671411,-1.78117,-0.348826,1.982669,-0.387373,0.008035
0.115359,0.67152,-1.78119,-0.348824,1.982893,-0.387726,0.007646
0.115379,0.671484,-1.781243,-0.348856,1.98307,-0.38817,0.007602
0.11522,0.671459,-1.781291,-0.348858,1.98321,-0.388317,0.007565
0.115135,0.671451,-1.781284,-0.348837,1.983444,-0.388505,0.007719
0.115071,0.67146,-1.781366,-0.348824,1.98357,-0.388545,0.007724
0.115179,0.67133,-1.78141,-0.348902,1.983734,-0.389068,0.007723
0.115114,0.671326,-1.781536,-0.348893,1.983756,-0.389198,0.007612
0.115393,0.671531,-1.781545,-0.348823,1.983923,-0.389719,0.006891
0.115345,0.671507,-1.781653,-0.348827,1.983962,-0.389809,0.006862
0.115482,0.671462,-1.781647,-0.348851,1.984181,-0.390158,0.007072
0.115444,0.671513,-1.781692,-0.348805,1.984291,-0.39018,0.007115
0.115437,0.671563,-1.781679,-0.348766,1.984486,-0.390188,0.007242
0.115502,0.671391,-1.781857,-0.348819,1.984451,-0.390508,0.00757
0.115468,0.671332,-1.782031,-0.348804,1.984348,-0.390687,0.007602
0.115459,0.671304,-1.78212,-0.348818,1.984343,-0.390711,0.007578
0.115523,0.671161,-1.782299,-0.348895,1.984223,-0.390789,0.007513
0.115554,0.67108,-1.782385,-0.348957,1.98419,-0.390792,0.007429
0.115768,0.670999,-1.782458,-0.34905,1.984194,-0.390688,0.006981
0.115771,0.670974,-1.782496,-0.349072,1.984197,-0.390685,0.00695
0.116067,0.670863,-1.782475,-0.348997,1.984314,-0.391001,0.006805
0.116292,0.670672,-1.782474,-0.348915,1.984407,-0.391324,0.007072
0.116239,0.670676,-1.782469,-0.348896,1.984415,-0.391382,0.007065
0.11639,0.670506,-1.782544,-0.348796,1.984343,-0.391763,0.007028
0.116198,0.670435,-1.782664,-0.348783,1.984094,-0.392019,0.006839
0.11616,0.670413,-1.782709,-0.348739,1.983985,-0.392142,0.006734
0.116434,0.670128,-1.782713,-0.348435,1.983936,-0.392692,0.006383
0.116388,0.670038,-1.78271,-0.348428,1.983861,-0.392756,0.006363
0.116499,0.669527,-1.782698,-0.348181,1.98379,-0.393152,0.006359
0.116453,0.669486,-1.782641,-0.348204,1.983748,-0.393197,0.006314
0.116529,0.669404,-1.782477,-0.348106,1.983817,-0.393588,0.005957
0.116824,0.669258,-1.782306,-0.34802,1.983975,-0.394045,0.005765
0.117245,0.669115,-1.78214,-0.347867,1.98414,-0.394642,0.005437
0.117171,0.669079,-1.7821,-0.347876,1.984084,-0.394724,0.005389
0.117096,0.669071,-1.782173,-0.347822,1.983874,-0.394909,0.005274
0.117071,0.669039,-1.782139,-0.347839,1.983821,-0.394951,0.005232
0.117383,0.668999,-1.782045,-0.347787,1.983903,-0.395209,0.004967
0.117573,0.668899,-1.781973,-0.347771,1.983953,-0.395383,0.004919
0.118207,0.668718,-1.781778,-0.347713,1.984251,-0.395739,0.004704
0.118215,0.668718,-1.781748,-0.347713,1.984224,-0.395738,0.004706
0.11843,0.668636,-1.781793,-0.347814,1.984175,-0.395565,0.004601
0.118879,0.668318,-1.781722,-0.347181,1.984258,-0.39559,0.004157
0.119028,0.668318,-1.78171,-0.347213,1.984246,-0.395455,0.004183
0.119153,0.668307,-1.781566,-0.347268,1.984401,-0.395295,0.004274
0.119479,0.668094,-1.781334,-0.347335,1.984783,-0.395106,0.004873
0.119604,0.668016,-1.781233,-0.347358,1.984913,-0.395048,0.005023
0.119781,0.667912,-1.781141,-0.347513,1.985053,-0.394846,0.004986
0.120035,0.668015,-1.781116,-0.347507,1.985077,-0.394934,0.004446
0.120714,0.668126,-1.781092,-0.347526,1.985149,-0.395328,0.003317
0.120742,0.668046,-1.781119,-0.347592,1.985094,-0.395338,0.003242
0.120812,0.66798,-1.781169,-0.347658,1.985027,-0.395282,0.003191
0.120657,0.667311,-1.781277,-0.347098,1.984825,-0.39487,0.003322
0.120674,0.667268,-1.781259,-0.347137,1.98477,-0.394857,0.003292
0.120649,0.66719,-1.781219,-0.347201,1.984727,-0.394869,0.003234
0.120439,0.667024,-1.781076,-0.347318,1.984738,-0.395009,0.003092
0.120303,0.666524,-1.78095,-0.346852,1.984745,-0.394924,0.002862
0.120009,0.666373,-1.780765,-0.346952,1.984736,-0.395262,0.00249
0.120224,0.666514,-1.78055,-0.346894,1.984901,-0.395683,0.001802
0.120452,0.666499,-1.780273,-0.346892,1.985088,-0.396698,0.000868
0.120393,0.666399,-1.780227,-0.346933,1.985072,-0.396901,0.000814
0.120425,0.666204,-1.780314,-0.346898,1.984908,-0.397425,0.000985
0.120418,0.666267,-1.78035,-0.346819,1.984807,-0.397481,0.001013
0.120369,0.666179,-1.780556,-0.34677,1.984469,-0.397653,0.001074
0.120218,0.665451,-1.780679,-0.346103,1.984168,-0.397478,0.001154
0.119821,0.66529,-1.780972,-0.345906,1.983549,-0.397087,0.000852
0.119823,0.665248,-1.781023,-0.345922,1.983302,-0.397116,0.000752
0.119624,0.665184,-1.781213,-0.345886,1.982831,-0.396946,0.000579
0.119424,0.665093,-1.781216,-0.345866,1.982593,-0.396721,0.000595
0.119249,0.664951,-1.781332,-0.345856,1.982209,-0.396623,0.000575
0.119298,0.664938,-1.78127,-0.345867,1.982094,-0.396596,0.000572
0.119414,0.664937,-1.781253,-0.345874,1.98196,-0.396518,0.000593
0.119474,0.664123,-1.78124,-0.345172,1.981816,-0.396226,0.001009
0.119614,0.664147,-1.781187,-0.345166,1.9817,-0.39613,0.001059
0.119763,0.664169,-1.781149,-0.345162,1.981578,-0.396024,0.001111
0.119258,0.664069,-1.781311,-0.345135,1.981145,-0.395041,0.001634
0.119334,0.664073,-1.781246,-0.345138,1.981027,-0.394995,0.001648
0.119395,0.664068,-1.781207,-0.34514,1.98088,-0.394968,0.00165
0.11936,0.664032,-1.781182,-0.34513,1.980688,-0.395023,0.001676
0.119184,0.663833,-1.781096,-0.345186,1.98052,-0.395227,0.001783
0.119153,0.663785,-1.781072,-0.345171,1.98033,-0.395313,0.00181
0.119014,0.66365,-1.781035,-0.345238,1.980099,-0.395473,0.001651
0.118842,0.662902,-1.780978,-0.344479,1.979862,-0.395271,0.001375
0.118622,0.662753,-1.78094,-0.344365,1.979574,-0.395325,0.001163
0.118484,0.662739,-1.780874,-0.344326,1.979351,-0.395507,0.001101
0.118091,0.662341,-1.780948,-0.344008,1.978888,-0.395891,0.001433
0.118013,0.66236,-1.780826,-0.343961,1.978741,-0.396001,0.001429
0.117721,0.662267,-1.780823,-0.343938,1.978355,-0.396377,0.001245
0.117639,0.662195,-1.780723,-0.343964,1.97818,-0.3965,0.001179
0.117585,0.661887,-1.780687,-0.344022,1.977893,-0.397006,0.001004
0.117579,0.661827,-1.780632,-0.344026,1.977685,-0.397115,0.000928
0.118005,0.660649,-1.780612,-0.342954,1.977456,-0.397629,0.000791
0.118018,0.660619,-1.780599,-0.342945,1.977141,-0.3977,0.000738
0.118043,0.660508,-1.780673,-0.342973,1.976724,-0.397793,0.000693
0.118149,0.660407,-1.780698,-0.34301,1.976397,-0.39778,0.000712
0.118297,0.659977,-1.780838,-0.342954,1.975966,-0.397584,0.000985
0.11841,0.659875,-1.780768,-0.342829,1.975723,-0.397469,0.000871
0.118809,0.65947,-1.78081,-0.342688,1.975417,-0.397564,0.000934
0.118958,0.659409,-1.780709,-0.342632,1.975203,-0.397567,0.000867
0.119816,0.658336,-1.780575,-0.341604,1.975138,-0.397903,0.00063
0.119905,0.658302,-1.780416,-0.34164,1.974946,-0.397857,0.00062
0.120256,0.658199,-1.780273,-0.341812,1.974826,-0.397621,0.000386
0.120582,0.658262,-1.780039,-0.341856,1.974802,-0.397506,-6e-05
0.120987,0.65825,-1.779804,-0.34195,1.974852,-0.397355,-0.000312
0.121533,0.658228,-1.779637,-0.341934,1.974871,-0.397546,-0.00039
0.122194,0.657967,-1.779503,-0.34201,1.974935,-0.397794,5.4e-05
0.122386,0.657962,-1.779358,-0.342017,1.974876,-0.397729,7.9e-05
0.123021,0.657968,-1.77923,-0.341988,1.974899,-0.397842,-0.000174
0.123231,0.657936,-1.779149,-0.341999,1.974773,-0.397864,-0.000309
0.123788,0.658079,-1.779055,-0.341943,1.974732,-0.397839,-0.000977
0.123969,0.658077,-1.778989,-0.341961,1.974631,-0.397733,-0.000949
0.124657,0.657926,-1.778905,-0.341992,1.974704,-0.397819,-0.000733
0.124917,0.657975,-1.778814,-0.34199,1.97469,-0.397601,-0.000604
0.12529,0.657935,-1.77871,-0.34208,1.974748,-0.39729,-0.000445
0.125984,0.657432,-1.778616,-0.341607,1.97481,-0.397507,-0.000443
0.126338,0.657349,-1.778553,-0.341762,1.974786,-0.397192,-0.000479
0.126467,0.657368,-1.778509,-0.341761,1.974668,-0.397117,-0.000482
0.126778,0.657397,-1.778512,-0.3418,1.974539,-0.396969,-0.000704
0.126893,0.657412,-1.778507,-0.341795,1.974374,-0.396933,-0.000762
0.127084,0.657445,-1.778529,-0.341793,1.974188,-0.396884,-0.000983
0.127145,0.65745,-1.778468,-0.341793,1.974085,-0.396857,-0.000983
0.127549,0.65758,-1.778364,-0.341695,1.974128,-0.397015,-0.000973
0.127686,0.657648,-1.77824,-0.341638,1.974157,-0.397024,-0.000808
0.128036,0.657662,-1.778164,-0.341628,1.974193,-0.397252,-0.000546
0.12811,0.657716,-1.778106,-0.34159,1.974136,-0.397211,-0.000496
0.128382,0.6579,-1.778101,-0.341522,1.974082,-0.397085,-0.000564
0.128532,0.658049,-1.778005,-0.34149,1.974099,-0.397058,-0.00068
0.12869,0.65817,-1.777957,-0.341438,1.974091,-0.397001,-0.000641
0.128993,0.658377,-1.777848,-0.341473,1.974168,-0.397244,-0.000806
0.1294,0.658504,-1.777789,-0.341564,1.974254,-0.397555,-0.00065
0.12941,0.658504,-1.777749,-0.341564,1.974218,-0.397553,-0.000647
0.129585,0.658744,-1.777668,-0.341555,1.974252,-0.397717,-0.000908
0.129555,0.65871,-1.77766,-0.341579,1.974175,-0.397766,-0.000967
0.129648,0.658945,-1.77762,-0.341571,1.974136,-0.397996,-0.001348
0.129771,0.659074,-1.777559,-0.34166,1.974153,-0.398338,-0.001488
0.129837,0.659237,-1.777498,-0.341675,1.974146,-0.398785,-0.001717
0.1298,0.659261,-1.777471,-0.341646,1.974126,-0.398835,-0.001711
0.1303,0.659466,-1.777427,-0.341779,1.974216,-0.399643,-0.001833
0.130304,0.659466,-1.777413,-0.341779,1.974204,-0.399642,-0.001832
0.130471,0.659923,-1.777492,-0.342265,1.974148,-0.399976,-0.001586
0.130473,0.659923,-1.777487,-0.342265,1.974143,-0.399975,-0.001585
0.13062,0.659939,-1.777604,-0.342264,1.974041,-0.399882,-0.001581
0.130706,0.6599,-1.777662,-0.34231,1.973977,-0.399818,-0.001615
0.130919,0.659849,-1.77787,-0.342368,1.973756,-0.399707,-0.001739
0.131068,0.659836,-1.777996,-0.342386,1.973591,-0.399654,-0.001895
0.131376,0.659895,-1.778278,-0.34233,1.973214,-0.399651,-0.002622
0.131496,0.659841,-1.778369,-0.34237,1.973047,-0.399618,-0.00275
0.132026,0.659892,-1.778435,-0.342322,1.972999,-0.399503,-0.003201
0.132216,0.659868,-1.778418,-0.342366,1.972994,-0.399362,-0.003183
0.132956,0.659772,-1.778323,-0.34241,1.973215,-0.399311,-0.003382
0.133377,0.659689,-1.778296,-0.342357,1.973274,-0.3994,-0.003369
0.134115,0.659603,-1.778244,-0.342431,1.973512,-0.399073,-0.003104
0.134762,0.65949,-1.778187,-0.342441,1.973709,-0.399013,-0.002855
0.135426,0.659459,-1.778129,-0.342483,1.973924,-0.398739,-0.002717
0.136186,0.659436,-1.778044,-0.34245,1.974151,-0.398762,-0.002883
0.137117,0.659454,-1.778001,-0.342531,1.974409,-0.398405,-0.003142
0.137526,0.659421,-1.777976,-0.342553,1.974493,-0.398339,-0.0032
0.138364,0.659459,-1.777849,-0.342606,1.974825,-0.398149,-0.003434
0.138565,0.659416,-1.777791,-0.342682,1.974925,-0.397985,-0.00339
0.139227,0.659428,-1.777657,-0.342741,1.97525,-0.397856,-0.003419
0.139471,0.659405,-1.777602,-0.342772,1.975366,-0.397823,-0.003396
0.140203,0.659319,-1.77747,-0.342836,1.975713,-0.397996,-0.003262
0.140905,0.65917,-1.777334,-0.342862,1.976029,-0.398411,-0.003213
0.141111,0.659109,-1.77727,-0.34296,1.97617,-0.398224,-0.003183
0.141428,0.65907,-1.777271,-0.343003,1.976252,-0.39815,-0.003266
0.142036,0.659015,-1.777266,-0.343057,1.976394,-0.398047,-0.00369
0.142156,0.658971,-1.777318,-0.343102,1.976359,-0.397975,-0.003723
0.142555,0.658963,-1.777312,-0.343049,1.976412,-0.398136,-0.004152
0.142671,0.658895,-1.777322,-0.343027,1.976392,-0.398286,-0.004234
0.143015,0.658895,-1.777304,-0.342891,1.976408,-0.398775,-0.004611
0.143236,0.658778,-1.777206,-0.34284,1.976526,-0.399116,-0.004612
0.143699,0.658623,-1.776769,-0.342862,1.977101,-0.39977,-0.004556
0.14377,0.658564,-1.776438,-0.342883,1.977505,-0.400001,-0.004471
0.144458,0.658236,-1.776072,-0.342631,1.978067,-0.400852,-0.004559
0.144403,0.658216,-1.77607,-0.342639,1.978071,-0.400902,-0.004591
0.144346,0.658192,-1.776258,-0.342623,1.977821,-0.401037,-0.004749
0.14433,0.658203,-1.776342,-0.342604,1.977698,-0.401114,-0.004891
0.144238,0.658152,-1.776331,-0.342633,1.97766,-0.401218,-0.005001
0.144274,0.658156,-1.776251,-0.34264,1.977732,-0.401324,-0.005207
0.144463,0.658041,-1.77611,-0.342666,1.977904,-0.401693,-0.005399
0.144462,0.658041,-1.776112,-0.342666,1.977906,-0.401693,-0.0054
0.144604,0.657864,-1.77617,-0.34275,1.977858,-0.401787,-0.005513
0.144715,0.657825,-1.776293,-0.342772,1.977729,-0.401757,-0.005567
0.144978,0.657653,-1.776383,-0.342775,1.977647,-0.401852,-0.005716
0.145418,0.65742,-1.776396,-0.34259,1.977661,-0.40209,-0.006016
0.145922,0.65636,-1.776433,-0.341628,1.977603,-0.402089,-0.006455
0.145981,0.656316,-1.776424,-0.341672,1.977508,-0.40205,-0.00649
0.146257,0.656229,-1.776714,-0.341747,1.977122,-0.401863,-0.006576
0.146399,0.65626,-1.776753,-0.341724,1.976984,-0.401754,-0.006524
0.14607,0.655852,-1.777195,-0.34172,1.976339,-0.400948,-0.005723
0.145942,0.655875,-1.777181,-0.341593,1.976148,-0.400568,-0.005844
0.14597,0.65584,-1.777095,-0.341625,1.976074,-0.400549,-0.005852
0.145935,0.655784,-1.776953,-0.341666,1.976055,-0.400574,-0.005861
0.146012,0.655483,-1.776836,-0.341718,1.976043,-0.400838,-0.005644
0.146033,0.655477,-1.776821,-0.341683,1.975893,-0.400898,-0.00569
0.146028,0.655476,-1.776894,-0.341634,1.975617,-0.400996,-0.005832
0.14606,0.655486,-1.776877,-0.341613,1.975473,-0.401007,-0.005862
0.146028,0.655535,-1.776812,-0.341549,1.975373,-0.40107,-0.00585
0.146011,0.655569,-1.776746,-0.341504,1.975288,-0.401114,-0.005838
0.145947,0.655621,-1.776687,-0.341392,1.975182,-0.401269,-0.00578
0.146007,0.655501,-1.776608,-0.341371,1.975138,-0.401437,-0.005689
0.14666,0.654555,-1.776391,-0.340493,1.975306,-0.402111,-0.005962
0.146899,0.654336,-1.776249,-0.340398,1.975304,-0.402442,-0.006129
0.146905,0.654211,-1.776215,-0.340495,1.97514,-0.402496,-0.006277
0.146971,0.654112,-1.776226,-0.340577,1.974947,-0.402492,-0.006416
0.147219,0.653967,-1.776361,-0.340717,1.974644,-0.402346,-0.006811
0.147339,0.653916,-1.776354,-0.340768,1.974486,-0.402271,-0.006919
0.147744,0.653842,-1.776168,-0.340678,1.974591,-0.40225,-0.007335
0.147843,0.653746,-1.776029,-0.340698,1.974614,-0.402259,-0.00723
0.148775,0.652631,-1.775684,-0.339793,1.97505,-0.402704,-0.007005
0.14887,0.65261,-1.775587,-0.339829,1.974996,-0.402624,-0.006984
0.149214,0.652592,-1.775542,-0.339913,1.97499,-0.402309,-0.006911
0.149524,0.65251,-1.775504,-0.340053,1.974959,-0.402028,-0.006956
0.149808,0.652519,-1.775511,-0.340093,1.97488,-0.401792,-0.006923
0.150057,0.652447,-1.77542,-0.340207,1.974907,-0.401564,-0.006934
0.150377,0.652362,-1.775324,-0.340329,1.974986,-0.401287,-0.006836
0.150558,0.652301,-1.775275,-0.340345,1.974959,-0.401255,-0.006727
0.151265,0.651973,-1.775137,-0.340375,1.975157,-0.401635,-0.006507
0.151312,0.651941,-1.775042,-0.340412,1.975139,-0.401595,-0.006516
0.152162,0.652018,-1.774706,-0.340273,1.975561,-0.402007,-0.007027
0.152272,0.65197,-1.774627,-0.340308,1.975584,-0.401952,-0.006958
0.152679,0.651866,-1.774601,-0.340361,1.975672,-0.401758,-0.00661
0.15291,0.651815,-1.774545,-0.340412,1.97573,-0.401579,-0.006451
0.153167,0.651754,-1.774507,-0.340465,1.975785,-0.401387,-0.006246
0.153299,0.65166,-1.774464,-0.340501,1.975795,-0.401357,-0.006088
0.153836,0.651197,-1.774382,-0.340455,1.975922,-0.401809,-0.005822
0.153885,0.651162,-1.774308,-0.34048,1.975916,-0.401778,-0.005835
0.154242,0.650966,-1.774126,-0.340392,1.976099,-0.401929,-0.005984
0.15427,0.65093,-1.774061,-0.340428,1.976091,-0.401898,-0.00599
0.154564,0.650083,-1.773793,-0.339619,1.976355,-0.401801,-0.006139
0.154583,0.65005,-1.773721,-0.339653,1.976333,-0.401779,-0.006146
0.154602,0.649963,-1.773606,-0.339744,1.976372,-0.40173,-0.006162
0.154623,0.649893,-1.773479,-0.339818,1.976441,-0.401677,-0.00614
0.154659,0.649722,-1.773436,-0.339901,1.976432,-0.401664,-0.005968
0.154737,0.649661,-1.773409,-0.339949,1.976412,-0.401591,-0.005925
0.154744,0.649315,-1.773495,-0.340001,1.976253,-0.401472,-0.00566
0.154689,0.64916,-1.773466,-0.339855,1.976178,-0.401281,-0.005714
0.15466,0.648876,-1.773399,-0.339846,1.976149,-0.401217,-0.005659
0.154629,0.648825,-1.773309,-0.339873,1.976138,-0.401232,-0.005686
0.15457,0.648362,-1.773197,-0.339702,1.976144,-0.401267,-0.00562
0.154538,0.648329,-1.773119,-0.339724,1.976116,-0.401292,-0.005644
0.154367,0.648069,-1.772996,-0.339626,1.976091,-0.401499,-0.005597
0.154247,0.647957,-1.7729,-0.339558,1.976054,-0.401636,-0.005594
0.154077,0.647721,-1.772834,-0.339465,1.975967,-0.401838,-0.005506
0.153944,0.647516,-1.772801,-0.339328,1.975845,-0.401924,-0.005538
0.153641,0.647195,-1.772825,-0.339165,1.975597,-0.402047,-0.005521
0.15356,0.647132,-1.772775,-0.339101,1.975489,-0.402095,-0.005615
0.153297,0.646794,-1.772725,-0.338943,1.975324,-0.402236,-0.005601
0.153206,0.646743,-1.772645,-0.338951,1.975242,-0.402326,-0.005668
0.153087,0.64624,-1.772486,-0.338563,1.975223,-0.402543,-0.005704
0.153053,0.646208,-1.772389,-0.338584,1.975179,-0.402573,-0.005729
0.153001,0.646115,-1.772265,-0.338661,1.975169,-0.402603,-0.005791
0.152985,0.646043,-1.772155,-0.338727,1.975168,-0.402604,-0.00583
0.15305,0.645953,-1.772023,-0.338802,1.975229,-0.402568,-0.005877
0.153244,0.645853,-1.77196,-0.338698,1.975227,-0.402667,-0.006038
0.153143,0.645576,-1.772074,-0.338462,1.974968,-0.402418,-0.006027
0.153157,0.645575,-1.772017,-0.338462,1.974917,-0.402414,-0.006022
0.153136,0.645303,-1.771969,-0.338453,1.97487,-0.402262,-0.005856
0.153148,0.645217,-1.771841,-0.338444,1.974911,-0.402217,-0.005803
0.153266,0.644708,-1.771651,-0.338328,1.975062,-0.402297,-0.005522
0.153257,0.644662,-1.771541,-0.338356,1.975074,-0.402291,-0.005536
0.15342,0.644372,-1.771538,-0.338153,1.974968,-0.402267,-0.005922
0.153485,0.644089,-1.771572,-0.338026,1.974805,-0.402262,-0.00604
0.153537,0.643904,-1.771564,-0.337943,1.974666,-0.402216,-0.006293
0.153547,0.64369,-1.771504,-0.337886,1.974594,-0.402207,-0.006284
0.153527,0.643349,-1.771428,-0.337775,1.974535,-0.402143,-0.006217
0.153625,0.642672,-1.771298,-0.336982,1.974531,-0.402003,-0.006346
0.153645,0.642671,-1.771217,-0.336982,1.974458,-0.401997,-0.006339
0.153746,0.642678,-1.771182,-0.336971,1.974375,-0.401935,-0.006233
0.153771,0.642467,-1.771225,-0.336994,1.974215,-0.402017,-0.005603
0.153791,0.642466,-1.771145,-0.336994,1.974143,-0.402012,-0.005597
0.153857,0.642506,-1.771072,-0.336964,1.974096,-0.401966,-0.005533
0.153875,0.642505,-1.771001,-0.336964,1.974033,-0.401961,-0.005527
0.153915,0.642469,-1.770918,-0.337003,1.974001,-0.401917,-0.005519
0.153931,0.642441,-1.770866,-0.337026,1.973928,-0.401911,-0.005532
0.153868,0.642318,-1.770948,-0.337081,1.97366,-0.401985,-0.005646
0.153864,0.642278,-1.770896,-0.337109,1.973576,-0.401994,-0.005675
0.153599,0.641997,-1.770934,-0.337104,1.973327,-0.40201,-0.0055
0.15354,0.641923,-1.770874,-0.337081,1.973236,-0.401995,-0.005475
0.153304,0.641544,-1.770856,-0.336948,1.973059,-0.402015,-0.005205
0.153252,0.641482,-1.770784,-0.336865,1.972959,-0.402035,-0.0053
0.153095,0.641407,-1.770774,-0.336844,1.972738,-0.402203,-0.005501
0.152997,0.641375,-1.770735,-0.336803,1.972576,-0.4023,-0.0057
0.152879,0.641343,-1.770694,-0.336743,1.972404,-0.402425,-0.005952
0.152849,0.641257,-1.770603,-0.336638,1.972332,-0.40251,-0.006078
0.152807,0.640967,-1.770528,-0.336544,1.972239,-0.40278,-0.005974
0.152727,0.64092,-1.770434,-0.336555,1.972163,-0.402866,-0.006025
0.152818,0.640777,-1.770462,-0.33631,1.971987,-0.402884,-0.006162
0.152865,0.640758,-1.770447,-0.336323,1.97186,-0.402866,-0.006187
0.152938,0.640786,-1.770607,-0.336269,1.971526,-0.402883,-0.006264
0.152984,0.640773,-1.770593,-0.336276,1.971389,-0.402865,-0.006293
0.153044,0.640854,-1.770617,-0.33619,1.971217,-0.402862,-0.006261
0.153077,0.640905,-1.770592,-0.336134,1.971098,-0.402865,-0.006231
0.153132,0.640966,-1.770584,-0.336071,1.97097,-0.402853,-0.006189
0.153194,0.641008,-1.770598,-0.336023,1.97082,-0.402838,-0.006167
0.153281,0.641069,-1.770657,-0.335957,1.970625,-0.402816,-0.006144
0.153329,0.641094,-1.77066,-0.335926,1.970481,-0.402807,-0.006137
0.153458,0.641115,-1.77069,-0.335914,1.970337,-0.402725,-0.006123
0.153561,0.641136,-1.770687,-0.335903,1.970224,-0.402657,-0.006105
0.153847,0.641183,-1.770742,-0.335897,1.970113,-0.402404,-0.006072
0.153921,0.641195,-1.770706,-0.335894,1.970032,-0.402353,-0.006061
0.154154,0.641247,-1.770711,-0.335885,1.96997,-0.402161,-0.00601
0.154383,0.641306,-1.770662,-0.335887,1.969963,-0.401973,-0.00608
0.154649,0.641401,-1.770594,-0.33587,1.970004,-0.401783,-0.006111
0.154911,0.641526,-1.770513,-0.335832,1.970062,-0.401674,-0.006182
0.155465,0.641798,-1.770333,-0.335775,1.970337,-0.401526,-0.006255
0.155943,0.64196,-1.770214,-0.335802,1.970502,-0.401768,-0.006384
0.15644,0.642043,-1.770101,-0.33587,1.970755,-0.401454,-0.006209
0.156844,0.642121,-1.770021,-0.335944,1.970917,-0.401484,-0.006175
0.157575,0.642236,-1.769891,-0.336093,1.971264,-0.40133,-0.006069
0.157702,0.642241,-1.7699,-0.336116,1.97128,-0.40122,-0.006036
0.158162,0.642367,-1.769837,-0.336183,1.971496,-0.400886,-0.006045
0.158521,0.642651,-1.769774,-0.33622,1.971644,-0.400828,-0.006406
0.158947,0.642886,-1.769699,-0.336325,1.97186,-0.400813,-0.006555
0.159447,0.64359,-1.769638,-0.337176,1.972097,-0.401362,-0.006468
0.160163,0.643739,-1.769389,-0.337185,1.972623,-0.401889,-0.006455
0.160291,0.643768,-1.769364,-0.337195,1.972778,-0.401937,-0.0064
0.16076,0.643963,-1.769373,-0.337175,1.972986,-0.40207,-0.006331
0.160832,0.644044,-1.769442,-0.337115,1.973025,-0.402019,-0.006262
0.161168,0.644321,-1.769586,-0.337034,1.973076,-0.401767,-0.006089
0.16128,0.644524,-1.769611,-0.337139,1.973172,-0.401717,-0.006099
0.161686,0.644805,-1.769485,-0.337303,1.973513,-0.401822,-0.006268
0.161968,0.644901,-1.769404,-0.33747,1.973785,-0.401989,-0.006326
0.162463,0.645106,-1.769287,-0.337647,1.974157,-0.402227,-0.00651
0.162564,0.645102,-1.769342,-0.337682,1.97427,-0.402118,-0.006476
0.162794,0.64509,-1.769312,-0.337778,1.97453,-0.401905,-0.006393
0.16293,0.645119,-1.769375,-0.337803,1.974638,-0.401855,-0.006371
0.16345,0.645321,-1.769398,-0.337873,1.974866,-0.402009,-0.006527
0.163545,0.645342,-1.769437,-0.337893,1.974989,-0.401941,-0.006492
0.163842,0.645443,-1.769531,-0.33794,1.975085,-0.401925,-0.006603
0.163946,0.645473,-1.769582,-0.337954,1.975185,-0.401864,-0.006583
0.164189,0.645438,-1.769698,-0.338049,1.975248,-0.401705,-0.006592
0.164348,0.645436,-1.769801,-0.338088,1.975288,-0.401637,-0.006577
0.164856,0.645404,-1.769881,-0.338227,1.975405,-0.402039,-0.006536
0.164924,0.64537,-1.769917,-0.33828,1.975464,-0.402044,-0.006593
0.165815,0.645421,-1.769796,-0.338343,1.975816,-0.402972,-0.007078
0.165781,0.6454,-1.769832,-0.338355,1.975843,-0.403006,-0.007101
0.165867,0.64542,-1.770013,-0.338331,1.975724,-0.403009,-0.007139
0.1659,0.645394,-1.770072,-0.338361,1.975725,-0.40298,-0.007164
0.166038,0.645438,-1.770278,-0.33833,1.975579,-0.402889,-0.007185
0.16567,0.645574,-1.770384,-0.338326,1.97542,-0.402487,-0.007274
0.165475,0.645615,-1.77037,-0.338229,1.975408,-0.402716,-0.007205
0.165304,0.645552,-1.770311,-0.338211,1.975457,-0.402965,-0.007062
0.165172,0.645303,-1.770327,-0.338238,1.975413,-0.403547,-0.00671
0.164957,0.645291,-1.770356,-0.338192,1.975306,-0.403796,-0.006805
0.164708,0.645267,-1.770451,-0.338051,1.975029,-0.40457,-0.007182
0.164534,0.645253,-1.770421,-0.338026,1.974988,-0.404748,-0.007247
0.164546,0.64535,-1.770281,-0.337823,1.974975,-0.405928,-0.008026
0.164441,0.645275,-1.770216,-0.337796,1.974968,-0.406376,-0.008108
0.164323,0.645369,-1.769944,-0.337644,1.975091,-0.40753,-0.008735
0.164271,0.645315,-1.769869,-0.337621,1.975124,-0.407996,-0.008773
0.164215,0.645272,-1.769745,-0.337463,1.975168,-0.408976,-0.008771
0.163971,0.645345,-1.769723,-0.337333,1.975103,-0.409244,-0.008737
0.163674,0.64538,-1.769683,-0.337224,1.975037,-0.409573,-0.00871
0.163468,0.645363,-1.769649,-0.337185,1.974993,-0.409825,-0.008719
0.163401,0.645302,-1.76959,-0.337188,1.974983,-0.410403,-0.008783
0.163322,0.645305,-1.769564,-0.337171,1.974975,-0.410489,-0.008805
0.163722,0.645429,-1.769541,-0.337147,1.975006,-0.411044,-0.009409
0.163775,0.645399,-1.769631,-0.337167,1.9749,-0.41106,-0.00946
0.164204,0.645405,-1.769703,-0.337218,1.97488,-0.411136,-0.00982
0.16433,0.645393,-1.769715,-0.337247,1.974887,-0.411061,-0.009812
0.165119,0.645301,-1.769628,-0.337338,1.975207,-0.4112,-0.009472
0.16549,0.645331,-1.769531,-0.337352,1.975438,-0.411085,-0.009268
0.165965,0.645351,-1.769431,-0.33739,1.975703,-0.411038,-0.009071
0.166438,0.645486,-1.769324,-0.337387,1.975905,-0.411333,-0.009455
0.166819,0.645732,-1.76917,-0.337379,1.976134,-0.411504,-0.010122
0.166963,0.645738,-1.769142,-0.33743,1.976212,-0.411654,-0.010251
0.167378,0.645833,-1.769037,-0.337461,1.97645,-0.41192,-0.010394
0.167461,0.645811,-1.769025,-0.337499,1.976535,-0.411872,-0.010342
0.167674,0.645656,-1.769025,-0.337605,1.976649,-0.411965,-0.010069
0.167836,0.645546,-1.768995,-0.337663,1.97675,-0.412216,-0.009951
0.167992,0.64569,-1.768811,-0.337666,1.976973,-0.412384,-0.01059
0.167939,0.645651,-1.76874,-0.337728,1.977061,-0.412499,-0.010813
0.168397,0.645941,-1.768536,-0.337866,1.977389,-0.413055,-0.011456
0.168324,0.645916,-1.768507,-0.337884,1.977475,-0.413098,-0.011471
0.168397,0.645723,-1.768383,-0.337973,1.977704,-0.413434,-0.011289
0.16839,0.6457,-1.768337,-0.337998,1.977837,-0.413443,-0.011268
0.168439,0.645729,-1.768322,-0.337989,1.977955,-0.413415,-0.011241
0.168498,0.645782,-1.7684,-0.337953,1.977961,-0.413392,-0.011251
0.1687,0.646198,-1.768319,-0.33783,1.978163,-0.413198,-0.011843
0.168726,0.646224,-1.768323,-0.337823,1.97827,-0.413156,-0.011796
0.168862,0.646303,-1.768194,-0.337809,1.978598,-0.412975,-0.011574
0.169035,0.646232,-1.768107,-0.337901,1.978908,-0.413027,-0.011022
0.169204,0.646252,-1.768041,-0.337938,1.97918,-0.412948,-0.010762
0.169314,0.646261,-1.76809,-0.337973,1.979281,-0.412917,-0.010717
0.169893,0.646655,-1.768136,-0.338137,1.979452,-0.413228,-0.011146
0.169924,0.646644,-1.768211,-0.338159,1.979497,-0.413191,-0.011159
0.170216,0.646862,-1.768124,-0.338241,1.97981,-0.412989,-0.011325
0.170303,0.646849,-1.768131,-0.338314,1.979972,-0.412898,-0.011289
0.170489,0.64685,-1.767967,-0.338434,1.980394,-0.412705,-0.011088
0.170528,0.646856,-1.767971,-0.338464,1.980561,-0.412664,-0.01103
0.17099,0.647193,-1.768048,-0.339129,1.980728,-0.413239,-0.010974
0.170976,0.64717,-1.768136,-0.339149,1.980777,-0.413244,-0.011002
0.170983,0.647124,-1.768248,-0.339191,1.980792,-0.413236,-0.011054
0.171065,0.647099,-1.768486,-0.339201,1.980665,-0.413211,-0.011121
0.171172,0.646984,-1.768727,-0.339297,1.98053,-0.41299,-0.011237
0.170751,0.64692,-1.768866,-0.339177,1.980381,-0.412428,-0.011296
0.170575,0.646795,-1.768983,-0.339238,1.980242,-0.412597,-0.011474
0.170342,0.646581,-1.769069,-0.339201,1.980123,-0.412705,-0.011509
0.170112,0.646027,-1.769085,-0.338945,1.979999,-0.413309,-0.011668
0.170016,0.645934,-1.769068,-0.3388,1.979973,-0.413413,-0.011913
0.169866,0.645704,-1.769129,-0.338696,1.979815,-0.413801,-0.012029
0.169749,0.645665,-1.769144,-0.338696,1.979736,-0.413929,-0.01211
0.169796,0.645411,-1.769228,-0.338447,1.979601,-0.414165,-0.012141
0.16973,0.645295,-1.769339,-0.338329,1.979424,-0.414065,-0.012062
0.16944,0.645023,-1.769632,-0.338209,1.979014,-0.413616,-0.011593
0.169179,0.644464,-1.76965,-0.337435,1.978843,-0.413074,-0.011665
0.169155,0.644423,-1.769651,-0.337456,1.978711,-0.41312,-0.011727
0.169075,0.644409,-1.769586,-0.337449,1.978641,-0.413207,-0.011763
0.168894,0.644357,-1.769542,-0.337454,1.978498,-0.413438,-0.011937
0.169121,0.644487,-1.769378,-0.337386,1.97861,-0.413622,-0.012209
0.169213,0.644544,-1.769303,-0.337351,1.97865,-0.413563,-0.012112
0.169383,0.644599,-1.769244,-0.337313,1.978702,-0.413583,-0.011933
0.169532,0.644698,-1.769228,-0.337246,1.97871,-0.413483,-0.011798
0.169707,0.644821,-1.769254,-0.337155,1.978688,-0.413384,-0.01158
0.169912,0.644955,-1.769461,-0.33705,1.978486,-0.413186,-0.011159
0.169758,0.644917,-1.769568,-0.33714,1.978297,-0.412989,-0.010676
0.169781,0.644966,-1.769525,-0.3371,1.978272,-0.412979,-0.010634
0.169763,0.644972,-1.769452,-0.337097,1.978271,-0.412994,-0.010625
0.170038,0.645114,-1.769178,-0.337202,1.978531,-0.413407,-0.011044
0.170068,0.645099,-1.769109,-0.337236,1.978573,-0.413421,-0.01103
0.170265,0.645194,-1.769172,-0.337183,1.978531,-0.413312,-0.01093
0.170386,0.645195,-1.769228,-0.337199,1.978461,-0.413225,-0.010921
0.17059,0.645269,-1.769301,-0.337164,1.978408,-0.413069,-0.010811
0.170696,0.645237,-1.769304,-0.337216,1.978407,-0.412952,-0.01066
0.170641,0.645019,-1.769378,-0.337345,1.978315,-0.412899,-0.010017
0.170648,0.645019,-1.769351,-0.337345,1.97829,-0.412897,-0.010014
0.170671,0.644941,-1.76934,-0.33742,1.978248,-0.412867,-0.010068
0.170632,0.644821,-1.769345,-0.337526,1.978162,-0.412861,-0.010188
0.170541,0.644681,-1.769338,-0.337658,1.978053,-0.412896,-0.01051
0.170518,0.644676,-1.769354,-0.337663,1.97795,-0.412918,-0.01067
0.170493,0.644636,-1.7694,-0.337682,1.977809,-0.412971,-0.010824
0.170494,0.644616,-1.769398,-0.337694,1.977742,-0.412986,-0.010859
0.170508,0.644622,-1.769449,-0.337671,1.977615,-0.413018,-0.01089
0.170516,0.644622,-1.769418,-0.337671,1.977586,-0.413016,-0.010887
0.170607,0.64469,-1.769458,-0.337611,1.97751,-0.412967,-0.010833
0.170645,0.644726,-1.769447,-0.337579,1.977472,-0.412947,-0.010797
0.170688,0.644817,-1.769332,-0.337504,1.977581,-0.412885,-0.010631
0.170656,0.644855,-1.76927,-0.337463,1.977596,-0.412914,-0.010589
0.170529,0.644942,-1.769049,-0.337365,1.977797,-0.413001,-0.010336
0.17051,0.644969,-1.769015,-0.337337,1.977807,-0.41302,-0.010305
0.170373,0.645012,-1.769065,-0.337252,1.977671,-0.413197,-0.01031
0.170266,0.645041,-1.769131,-0.337184,1.977518,-0.413348,-0.01033
0.170074,0.645035,-1.769192,-0.337131,1.977328,-0.413574,-0.010406
0.169912,0.645017,-1.769189,-0.337107,1.977223,-0.413737,-0.010455
0.169483,0.644966,-1.769157,-0.337063,1.977056,-0.414082,-0.010548
0.169284,0.644948,-1.769135,-0.337041,1.976966,-0.414212,-0.010579
0.168823,0.644855,-1.769011,-0.337046,1.976885,-0.414602,-0.010764
0.168617,0.644793,-1.768917,-0.337071,1.976876,-0.414769,-0.010858
0.168082,0.644689,-1.768755,-0.337075,1.976811,-0.415281,-0.011134
0.167997,0.644685,-1.768627,-0.337087,1.976868,-0.415488,-0.011421
0.16802,0.644785,-1.768516,-0.33702,1.97686,-0.416007,-0.012315
0.167891,0.644688,-1.768539,-0.337074,1.976756,-0.416156,-0.012467
0.167816,0.6446,-1.768664,-0.337113,1.976528,-0.416319,-0.012725
0.167832,0.64457,-1.768702,-0.337135,1.97645,-0.416324,-0.012776
0.167938,0.644627,-1.768945,-0.337057,1.976153,-0.416311,-0.012805
0.167761,0.644453,-1.769103,-0.336977,1.975898,-0.416063,-0.012583
0.167792,0.644399,-1.769154,-0.336974,1.975781,-0.415955,-0.012595
0.167808,0.644361,-1.769088,-0.337001,1.975793,-0.415905,-0.012592
0.167858,0.644311,-1.769055,-0.337056,1.975779,-0.41585,-0.012613
0.167932,0.644284,-1.769033,-0.337092,1.975766,-0.41578,-0.012614
0.168286,0.6443,-1.769153,-0.337103,1.975684,-0.415518,-0.012575
0.168519,0.644332,-1.769276,-0.337068,1.975543,-0.415394,-0.012564
0.168837,0.644349,-1.76938,-0.337057,1.97545,-0.415189,-0.012527
0.16912,0.644304,-1.76937,-0.337045,1.975473,-0.415011,-0.012496
0.169585,0.643554,-1.769295,-0.336272,1.975618,-0.414437,-0.012497
0.169675,0.64354,-1.769251,-0.3363,1.975603,-0.414225,-0.012463
0.169892,0.643521,-1.769249,-0.336359,1.975577,-0.414023,-0.012444
0.169935,0.643483,-1.769223,-0.3364,1.975515,-0.413987,-0.012475
0.170056,0.643524,-1.769198,-0.33644,1.975455,-0.413872,-0.012826
0.170067,0.643523,-1.769155,-0.33644,1.975416,-0.413869,-0.012822
0.17001,0.643531,-1.769075,-0.336425,1.975399,-0.41392,-0.01283
0.169941,0.643546,-1.768992,-0.336402,1.97539,-0.41398,-0.012833
0.169791,0.64354,-1.768925,-0.336381,1.975335,-0.414115,-0.012897
0.169681,0.643564,-1.768893,-0.336334,1.975258,-0.414232,-0.012929
0.169475,0.643576,-1.769013,-0.336259,1.974949,-0.414487,-0.013114
0.169366,0.643554,-1.769007,-0.33625,1.974826,-0.414608,-0.013196
0.169163,0.643504,-1.769061,-0.336242,1.974585,-0.41483,-0.013387
0.169077,0.643514,-1.769076,-0.336224,1.974436,-0.414877,-0.013561
0.168741,0.64357,-1.769028,-0.336182,1.974262,-0.414911,-0.014068
0.168581,0.643615,-1.76899,-0.336134,1.974171,-0.414887,-0.014219
0.168329,0.643664,-1.769065,-0.335999,1.97391,-0.415153,-0.014249
0.168064,0.643549,-1.769079,-0.335956,1.973738,-0.415329,-0.014017
