wangss533/urdfTest/left_arm_joints.csv
left_arm_joint1,left_arm_joint2,left_arm_joint3,left_arm_joint4,left_arm_joint5,left_arm_joint6,left_arm_joint7
-0.270594,-1.000485,0.714054,0.029779,0.400345,0.136679,-0.398885
-0.270573,-1.000501,0.714057,0.029785,0.400346,0.136693,-0.398886
-0.270397,-1.000656,0.714087,0.029823,0.40036,0.136811,-0.398895
-0.270352,-1.00072,0.714096,0.029819,0.400364,0.136846,-0.398901
-0.270296,-1.00089,0.714112,0.029767,0.400374,0.13691,-0.398922
-0.270291,-1.000937,0.714115,0.029745,0.400376,0.136922,-0.398929
-0.270254,-1.001785,0.710423,0.030108,0.396793,0.137232,-0.398572
-0.270268,-1.001913,0.709994,0.030121,0.396377,0.137266,-0.398537
-0.270217,-1.003659,0.700978,0.031101,0.387599,0.137947,-0.397638
-0.270222,-1.003674,0.700978,0.031089,0.3876,0.137948,-0.39764
-0.270222,-1.004585,0.697045,0.031398,0.383752,0.138283,-0.397282
-0.270191,-1.005369,0.693179,0.031767,0.37996,0.138611,-0.396917
-0.270122,-1.006216,0.689144,0.032152,0.375992,0.138999,-0.396542
-0.270014,-1.006955,0.685452,0.032549,0.372348,0.13939,-0.396194
-0.2698,-1.007785,0.681684,0.032991,0.368616,0.1399,-0.395842
-0.269722,-1.008403,0.678397,0.033347,0.365366,0.140295,-0.395537
-0.269642,-1.00998,0.669782,0.034183,0.356849,0.141395,-0.394773
-0.269628,-1.010069,0.669788,0.034148,0.356852,0.141424,-0.394784
-0.269686,-1.011765,0.659906,0.034964,0.347088,0.142893,-0.393983
-0.269666,-1.011896,0.659783,0.034934,0.346964,0.142954,-0.393987
-0.269824,-1.013547,0.648883,0.035758,0.336231,0.145046,-0.393203
-0.269902,-1.014115,0.645214,0.03598,0.332636,0.145954,-0.392984
-0.270309,-1.015114,0.635881,0.03654,0.323574,0.14853,-0.392479
-0.270312,-1.015269,0.635503,0.036514,0.323209,0.148701,-0.392478
-0.270959,-1.015821,0.626851,0.036892,0.314968,0.151824,-0.39216
-0.270959,-1.015821,0.626851,0.036892,0.314968,0.151824,-0.39216
-0.271176,-1.016001,0.625669,0.036784,0.313868,0.152332,-0.392167
-0.271353,-1.016038,0.624485,0.036769,0.312769,0.152838,-0.392153
-0.27188,-1.016056,0.621165,0.036718,0.309709,0.154311,-0.392129
-0.271923,-1.01606,0.621161,0.036684,0.309708,0.154294,-0.392135
-0.272116,-1.01602,0.621137,0.036561,0.3097,0.154199,-0.392153
-0.272256,-1.015962,0.621118,0.036485,0.309693,0.154123,-0.392162
-0.272467,-1.015886,0.621091,0.036366,0.309683,0.15401,-0.392177
-0.272683,-1.01582,0.621064,0.036238,0.309674,0.153898,-0.392193
-0.27308,-1.015714,0.621016,0.035994,0.30966,0.153696,-0.392227
-0.273296,-1.015655,0.620989,0.035863,0.309651,0.153586,-0.392244
-0.273797,-1.015585,0.620931,0.035526,0.309634,0.153351,-0.392295
-0.27398,-1.015586,0.620911,0.03539,0.309629,0.153273,-0.392318
-0.274505,-1.01557,0.620852,0.03501,0.309613,0.153043,-0.392379
-0.274674,-1.015548,0.620832,0.034895,0.309606,0.152964,-0.392397
-0.275118,-1.015386,0.620773,0.034644,0.309585,0.152727,-0.392427
-0.275328,-1.015286,0.620744,0.034536,0.309575,0.152608,-0.392439
-0.275636,-1.015155,0.620703,0.034371,0.309561,0.152437,-0.392458
-0.275909,-1.015065,0.620669,0.034212,0.30955,0.152293,-0.392478
-0.276337,-1.014959,0.620618,0.033946,0.309535,0.152078,-0.392515
-0.27654,-1.014904,0.620593,0.033822,0.309527,0.151974,-0.392532
-0.276836,-1.014848,0.620558,0.03363,0.309517,0.15183,-0.39256
-0.276917,-1.014835,0.620549,0.033576,0.309515,0.151792,-0.392568
-0.277123,-1.014819,0.620526,0.033431,0.309509,0.151698,-0.392591
-0.277129,-1.01482,0.620526,0.033426,0.309509,0.151696,-0.392592
-0.27719,-1.014875,0.620523,0.033355,0.30951,0.151685,-0.392607
-0.277205,-1.014937,0.620525,0.033314,0.309513,0.151697,-0.392617
-0.277183,-1.01505,0.620533,0.033276,0.309517,0.15174,-0.392631
-0.277161,-1.015111,0.620534,0.033264,0.309517,0.151769,-0.392637
-0.277164,-1.015134,0.619342,0.033234,0.308408,0.152293,-0.392661
-0.277147,-1.015149,0.619301,0.033239,0.308369,0.152324,-0.392661
-0.277095,-1.015168,0.618915,0.033262,0.308008,0.15253,-0.392666
-0.277076,-1.01517,0.618917,0.033275,0.308008,0.152539,-0.392664
-0.276983,-1.015185,0.618926,0.033337,0.308009,0.152584,-0.392655
-0.276952,-1.015192,0.618929,0.033356,0.30801,0.152599,-0.392652
-0.276814,-1.015256,0.618942,0.033428,0.308012,0.15268,-0.392644
-0.276741,-1.015294,0.618948,0.033464,0.308011,0.152725,-0.392641
-0.276675,-1.015311,0.618954,0.033505,0.308012,0.152759,-0.392635
-0.276644,-1.015304,0.618956,0.033531,0.308011,0.15277,-0.39263
-0.276601,-1.015268,0.618958,0.03358,0.30801,0.152779,-0.39262
-0.276601,-1.015268,0.618958,0.03358,0.30801,0.152779,-0.39262
-0.276633,-1.015184,0.618949,0.033596,0.308005,0.152741,-0.392612
-0.276689,-1.01512,0.618939,0.033585,0.308,0.152698,-0.39261
-0.276925,-1.014953,0.618904,0.03349,0.307987,0.152548,-0.392615
-0.277002,-1.014906,0.618893,0.033456,0.307983,0.152501,-0.392618
-0.27728,-1.014743,0.618854,0.033327,0.307969,0.152333,-0.392629
-0.277475,-1.014634,0.618827,0.033235,0.30796,0.152218,-0.392637
-0.277728,-1.014513,0.618794,0.033106,0.307949,0.152073,-0.392651
-0.277946,-1.014415,0.618767,0.03299,0.307941,0.15195,-0.392664
-0.278363,-1.014242,0.618716,0.032763,0.307927,0.151718,-0.39269
-0.278521,-1.014191,0.618698,0.032671,0.307922,0.151634,-0.392702
-0.279054,-1.014033,0.618637,0.032352,0.307907,0.151357,-0.392745
-0.279292,-1.01397,0.618613,0.032206,0.307903,0.151234,-0.392765
-0.279943,-1.013819,0.618668,0.031804,0.308004,0.15086,-0.392818
-0.280225,-1.01376,0.61864,0.031624,0.308,0.150719,-0.392844
-0.281031,-1.013591,0.618549,0.031107,0.307978,0.150321,-0.392918
-0.281574,-1.013479,0.618489,0.030759,0.307964,0.150053,-0.392969
-0.282295,-1.013353,0.618408,0.030284,0.307945,0.149704,-0.393039
-0.282776,-1.013301,0.618355,0.029953,0.307933,0.149482,-0.39309
-0.283772,-1.013181,0.618243,0.029271,0.307905,0.149018,-0.393195
-0.284107,-1.01315,0.618205,0.029038,0.307896,0.148864,-0.393231
-0.285031,-1.013008,0.618096,0.02842,0.307867,0.148425,-0.393324
-0.285337,-1.012961,0.61806,0.028216,0.307857,0.14828,-0.393355
-0.28623,-1.012788,0.617952,0.027636,0.307828,0.147845,-0.393439
-0.286557,-1.012733,0.617913,0.027419,0.307817,0.147688,-0.393472
-0.287546,-1.012533,0.617793,0.026781,0.307785,0.147204,-0.393564
-0.288156,-1.012409,0.617719,0.026388,0.307764,0.146905,-0.393621
-0.289012,-1.01225,0.617615,0.025828,0.307737,0.14649,-0.393703
-0.28972,-1.012124,0.617529,0.025364,0.307714,0.146149,-0.393772
-0.290967,-1.011919,0.617379,0.024535,0.307674,0.145552,-0.393896
-0.291504,-1.01183,0.617311,0.024178,0.307655,0.145296,-0.393949
-0.290881,-1.011419,0.608293,0.021529,0.299153,0.145974,-0.395084
-0.291408,-1.011374,0.608229,0.021155,0.299137,0.145737,-0.395144
-0.290353,-1.010652,0.599414,0.017889,0.290902,0.146366,-0.396914
-0.290908,-1.010578,0.599345,0.017505,0.290884,0.146111,-0.396976
-0.292366,-1.010316,0.599163,0.016531,0.290839,0.145421,-0.397127
-0.293287,-1.010115,0.599043,0.01593,0.290808,0.144974,-0.397218
-0.294499,-1.009828,0.598885,0.015153,0.290767,0.144378,-0.397333
-0.295419,-1.009575,0.598762,0.014579,0.290735,0.143916,-0.397417
-0.296939,-1.00912,0.598559,0.013651,0.290682,0.143142,-0.397548
-0.297572,-1.008918,0.598473,0.01327,0.29066,0.142815,-0.397601
-0.299069,-1.008476,0.598275,0.012354,0.290611,0.142054,-0.39773
-0.29969,-1.008286,0.598194,0.01198,0.290593,0.141737,-0.397782
-0.301183,-1.007847,0.597998,0.011068,0.290547,0.140979,-0.39791
-0.301822,-1.00765,0.597917,0.010683,0.29053,0.140653,-0.397963
-0.305216,-1.007424,0.601296,0.011236,0.293968,0.140082,-0.397057
-0.306376,-1.007151,0.601567,0.010819,0.294326,0.139617,-0.397033
-0.307691,-1.00679,0.601397,0.010007,0.294288,0.138956,-0.397147
-0.308753,-1.006523,0.601261,0.00934,0.294259,0.138429,-0.397243
-0.310572,-1.006121,0.601025,0.008164,0.294206,0.13754,-0.397418
-0.311363,-1.005957,0.60092,0.007645,0.294181,0.137156,-0.397497
-0.305907,-1.004882,0.58914,0.00039,0.282673,0.133462,-0.401635
-0.303567,-1.004477,0.585038,-0.002677,0.278604,0.131668,-0.403653
-0.294288,-1.003099,0.57294,-0.012822,0.266258,0.124564,-0.411372
-0.294729,-1.0029,0.572429,-0.01377,0.265818,0.12387,-0.411796
-0.295652,-1.002139,0.571,-0.016181,0.26456,0.121889,-0.412961
-0.297028,-1.001662,0.570785,-0.017018,0.264514,0.121181,-0.413086
-0.299012,-1.000894,0.57047,-0.018178,0.264447,0.120142,-0.41325
-0.301152,-1.000204,0.570567,-0.01875,0.264796,0.119591,-0.413039
-0.317355,-0.999848,0.580769,-0.010692,0.276313,0.126793,-0.404742
-0.322181,-0.999631,0.584105,-0.008617,0.27994,0.12821,-0.402778
-0.336092,-0.999226,0.595168,-0.002166,0.29165,0.132301,-0.39765
-0.340239,-0.998943,0.598598,-0.000714,0.295222,0.132877,-0.396588
-0.352225,-0.99822,0.610027,0.00411,0.306934,0.134938,-0.393855
-0.355729,-0.997829,0.613439,0.005102,0.310407,0.135056,-0.393387
-0.365148,-0.99674,0.623793,0.008243,0.320862,0.135805,-0.392337
-0.368849,-0.995977,0.627085,0.008626,0.324254,0.135418,-0.392229
-0.373484,-0.994932,0.630648,0.008706,0.327997,0.134781,-0.392196
-0.377469,-0.994125,0.634155,0.008957,0.331628,0.134438,-0.392195
-0.383083,-0.992801,0.637536,0.008366,0.33531,0.133423,-0.392319
-0.384534,-0.99237,0.637338,0.007518,0.335263,0.132658,-0.392422
-0.388261,-0.991454,0.636829,0.005234,0.335142,0.130738,-0.392714
-0.38985,-0.991112,0.63661,0.004233,0.335089,0.12993,-0.392847
-0.376477,-0.991271,0.614249,-0.009994,0.31243,0.115339,-0.395798
-0.374647,-0.991309,0.611051,-0.013297,0.309047,0.111471,-0.39677
-0.360552,-0.992584,0.598339,-0.027319,0.294235,0.09122,-0.402219
-0.354876,-0.993498,0.594095,-0.033883,0.288753,0.080695,-0.405134
-0.347897,-0.994764,0.589619,-0.042139,0.282513,0.066479,-0.409051
-0.343587,-0.995638,0.58708,-0.047716,0.278711,0.056383,-0.411795
-0.340196,-0.996512,0.584385,-0.055048,0.274687,0.043823,-0.415168
-0.339643,-0.996731,0.583576,-0.057591,0.273518,0.039693,-0.416264
-0.337351,-0.997403,0.581474,-0.064466,0.270258,0.027805,-0.419398
-0.338254,-0.997317,0.581008,-0.066355,0.269792,0.025411,-0.420012
-0.33798,-0.997581,0.579423,-0.072422,0.267528,0.01569,-0.422532
-0.336786,-0.997939,0.578655,-0.075418,0.266182,0.010152,-0.423974
-0.335933,-0.998525,0.577146,-0.08208,0.263772,-0.000985,-0.426878
-0.334534,-0.999108,0.576196,-0.086572,0.262011,-0.009165,-0.429005
-0.333287,-0.999773,0.575072,-0.092325,0.25996,-0.019397,-0.431653
-0.332013,-1.000345,0.574249,-0.096834,0.258328,-0.027771,-0.433803
-0.330554,-1.001177,0.573018,-0.104146,0.25592,-0.041061,-0.437199
-0.330417,-1.001431,0.572585,-0.106872,0.25514,-0.045775,-0.438399
-0.328169,-1.0025,0.571497,-0.114512,0.252621,-0.060474,-0.442124
-0.327932,-1.00281,0.571123,-0.11728,0.251864,-0.065409,-0.443374
-0.325862,-1.003897,0.57022,-0.124796,0.249565,-0.080041,-0.447051
-0.325742,-1.004167,0.569899,-0.127443,0.248904,-0.084787,-0.448238
-0.32445,-1.004999,0.569131,-0.134397,0.246997,-0.098181,-0.451557
-0.324601,-1.005275,0.568701,-0.138107,0.24618,-0.104731,-0.453174
-0.323206,-1.005993,0.56819,-0.143599,0.24467,-0.115836,-0.45589
-0.322999,-1.006331,0.56783,-0.147241,0.243838,-0.12267,-0.457558
-0.320873,-1.007271,0.56733,-0.153867,0.242012,-0.13669,-0.460946
-0.320489,-1.007563,0.567144,-0.156295,0.241443,-0.141521,-0.462114
-0.318564,-1.008606,0.566783,-0.162765,0.239813,-0.155111,-0.4654
-0.318115,-1.008985,0.566655,-0.165201,0.239279,-0.159987,-0.466584
-0.316237,-1.010144,0.566421,-0.1716,0.237786,-0.173425,-0.469835
-0.315919,-1.010522,0.56632,-0.174006,0.237319,-0.178155,-0.470982
-0.315201,-1.011474,0.56609,-0.180082,0.236197,-0.190018,-0.473859
-0.314458,-1.012141,0.565999,-0.183871,0.235466,-0.197722,-0.475717
-0.314212,-1.012866,0.565852,-0.188611,0.234718,-0.206731,-0.477902
-0.314228,-1.013376,0.565746,-0.192077,0.234231,-0.213142,-0.47946
-0.31504,-1.014061,0.565536,-0.197544,0.233656,-0.222473,-0.481752
-0.315654,-1.014262,0.565434,-0.199581,0.233512,-0.225662,-0.482543
-0.316225,-1.014931,0.565262,-0.204872,0.232947,-0.234967,-0.484808
-0.31683,-1.0151,0.565167,-0.20678,0.232828,-0.237953,-0.485544
-0.317484,-1.015685,0.565001,-0.211806,0.232341,-0.246753,-0.487676
-0.317998,-1.015853,0.564914,-0.213713,0.232213,-0.249858,-0.488432
-0.318226,-1.016452,0.564777,-0.218846,0.231644,-0.259415,-0.490708
-0.318282,-1.016814,0.564706,-0.221934,0.231295,-0.265286,-0.492097
-0.318327,-1.017333,0.564636,-0.226084,0.230846,-0.27318,-0.493967
-0.318069,-1.017824,0.564635,-0.229322,0.230464,-0.279597,-0.495484
-0.317504,-1.018706,0.56468,-0.234793,0.229831,-0.290543,-0.498071
-0.317528,-1.019017,0.564683,-0.236913,0.229644,-0.294545,-0.499023
-0.316704,-1.020022,0.564806,-0.242661,0.228996,-0.306286,-0.501788
-0.316795,-1.020351,0.564824,-0.244849,0.228842,-0.310342,-0.502756
-0.316094,-1.021378,0.564982,-0.250705,0.228268,-0.322189,-0.505542
-0.316172,-1.021699,0.565006,-0.252908,0.228125,-0.326332,-0.506522
-0.315452,-1.022676,0.565173,-0.258765,0.227579,-0.338352,-0.509321
-0.3151,-1.02323,0.565269,-0.262245,0.227281,-0.345478,-0.510972
-0.314704,-1.023903,0.565377,-0.266813,0.226907,-0.354849,-0.513129
-0.314339,-1.024368,0.56545,-0.270212,0.226611,-0.362002,-0.514755
-0.313777,-1.025061,0.565546,-0.275801,0.226134,-0.373857,-0.517428
-0.313712,-1.025306,0.565573,-0.277963,0.225989,-0.378298,-0.51843
-0.312463,-1.026211,0.565823,-0.283707,0.225446,-0.391143,-0.52131
-0.312171,-1.026542,0.565913,-0.285904,0.22529,-0.395857,-0.522372
-0.310659,-1.027566,0.566267,-0.291687,0.224771,-0.409043,-0.525319
-0.310466,-1.027901,0.566367,-0.293891,0.224659,-0.413668,-0.526362
-0.309394,-1.028905,0.566729,-0.29971,0.224291,-0.426454,-0.52923
-0.309344,-1.029403,0.566887,-0.303043,0.224211,-0.433169,-0.530753
-0.308993,-1.030127,0.567146,-0.307616,0.224064,-0.442712,-0.532902
-0.309648,-1.030478,0.56722,-0.310755,0.224148,-0.448289,-0.534189
-0.311098,-1.030993,0.567303,-0.315919,0.224379,-0.457044,-0.536225
-0.311537,-1.031221,0.567354,-0.318048,0.224447,-0.460852,-0.537098
-0.313665,-1.031534,0.567314,-0.323075,0.224813,-0.468704,-0.538935
-0.314417,-1.031669,0.567307,-0.325139,0.224942,-0.472091,-0.539716
-0.317118,-1.031799,0.56715,-0.330052,0.225418,-0.479199,-0.541385
-0.318034,-1.031867,0.567101,-0.332072,0.225575,-0.482368,-0.542114
-0.320884,-1.031854,0.566857,-0.336926,0.22606,-0.489373,-0.543733
-0.322524,-1.031835,0.566705,-0.339871,0.226336,-0.493764,-0.544736
-0.325005,-1.031759,0.566466,-0.343736,0.226771,-0.499154,-0.545982
-0.326866,-1.031723,0.5663,-0.346686,0.227113,-0.50327,-0.546937
-0.330272,-1.031611,0.565982,-0.35156,0.227754,-0.509688,-0.548443
-0.331872,-1.031512,0.565815,-0.353419,0.228055,-0.511819,-0.548955
-0.336022,-1.031186,0.565344,-0.357925,0.228827,-0.516743,-0.550144
-0.338081,-1.030964,0.565086,-0.359569,0.229207,-0.517963,-0.550467
-0.343338,-1.03037,0.564409,-0.363577,0.230171,-0.520709,-0.551206
-0.345393,-1.03013,0.564138,-0.365115,0.230547,-0.521727,-0.551482
-0.350764,-1.02946,0.563402,-0.368949,0.231517,-0.524054,-0.552121
-0.354063,-1.029033,0.562939,-0.371142,0.232112,-0.525152,-0.552441
-0.358782,-1.028452,0.562304,-0.373926,0.232983,-0.525893,-0.552735
-0.362342,-1.028069,0.561859,-0.375992,0.233665,-0.526283,-0.552935
-0.368111,-1.027523,0.561182,-0.37944,0.2348,-0.527009,-0.553297
-0.37054,-1.027293,0.560898,-0.380751,0.235278,-0.527012,-0.553386
-0.375842,-1.026846,0.560293,-0.384176,0.236339,-0.52815,-0.55383
-0.377713,-1.026706,0.560085,-0.385533,0.236719,-0.528839,-0.554051
-0.382571,-1.026355,0.559552,-0.389015,0.237714,-0.530521,-0.554606
-0.384466,-1.026216,0.559339,-0.390384,0.238101,-0.531205,-0.554827
-0.389455,-1.025858,0.558784,-0.393947,0.239125,-0.5329,-0.55539
-0.392493,-1.025635,0.55844,-0.396067,0.239748,-0.533835,-0.55571
-0.396469,-1.025333,0.557977,-0.398926,0.240558,-0.535256,-0.556168
-0.399342,-1.025087,0.557617,-0.401038,0.241132,-0.536427,-0.556521
-0.404339,-1.02464,0.556973,-0.404704,0.242124,-0.538479,-0.557133
-0.406255,-1.024475,0.556729,-0.406132,0.242507,-0.539301,-0.557376
-0.411053,-1.024156,0.556174,-0.409899,0.243513,-0.541595,-0.558062
-0.412901,-1.024057,0.555976,-0.411381,0.243912,-0.542504,-0.558338
-0.417239,-1.02389,0.555538,-0.415364,0.244884,-0.545567,-0.5592
-0.418995,-1.023803,0.555348,-0.41691,0.245271,-0.546702,-0.559522
-0.423146,-1.023601,0.554889,-0.420807,0.24619,-0.549873,-0.560386
-0.425545,-1.02348,0.554616,-0.423166,0.246724,-0.551932,-0.560932
-0.428912,-1.023263,0.5542,-0.426301,0.247453,-0.554534,-0.561625
-0.431644,-1.023044,0.553835,-0.428615,0.248024,-0.556244,-0.562089
-0.435968,-1.022669,0.553221,-0.432623,0.248925,-0.559702,-0.562977
-0.437807,-1.02249,0.552946,-0.434224,0.2493,-0.560991,-0.56331
-0.442349,-1.022013,0.552232,-0.438418,0.250218,-0.56472,-0.564239
-0.444296,-1.021785,0.551909,-0.440108,0.2506,-0.566136,-0.564592
-0.448997,-1.021234,0.551115,-0.444487,0.251536,-0.570157,-0.565572
-0.450738,-1.021043,0.550825,-0.446295,0.251896,-0.572,-0.566014
-0.455496,-1.020549,0.550069,-0.45069,0.252885,-0.575867,-0.566981
-0.458227,-1.020279,0.549637,-0.453401,0.253469,-0.578442,-0.567616
-0.462047,-1.019886,0.549024,-0.457005,0.254278,-0.581681,-0.568422
-0.464926,-1.019585,0.548555,-0.45977,0.254891,-0.584227,-0.56905
-0.46998,-1.019047,0.547728,-0.464378,0.25596,-0.588203,-0.570046
-0.472063,-1.018808,0.547374,-0.466185,0.256392,-0.589682,-0.570417
-0.47705,-1.018173,0.546465,-0.470678,0.257408,-0.593661,-0.571381
-0.47912,-1.017886,0.54607,-0.472415,0.257815,-0.595094,-0.571727
-0.484171,-1.017137,0.54506,-0.47675,0.258794,-0.598859,-0.572615
-0.486251,-1.016813,0.544632,-0.478429,0.259187,-0.600221,-0.572936
-0.491332,-1.015961,0.543529,-0.482614,0.260126,-0.603812,-0.573759
-0.494493,-1.015405,0.542823,-0.485029,0.260692,-0.60571,-0.574191
-0.498697,-1.014656,0.541875,-0.488192,0.261441,-0.608146,-0.574744
-0.501815,-1.0141,0.541168,-0.490542,0.261998,-0.609958,-0.575155
-0.507099,-1.013146,0.539963,-0.494334,0.262932,-0.612661,-0.575771
-0.509146,-1.012764,0.539483,-0.495769,0.263286,-0.613662,-0.575995
-0.514367,-1.011762,0.538238,-0.499302,0.264172,-0.615999,-0.576514
-0.516355,-1.011353,0.537739,-0.500612,0.264495,-0.616864,-0.576698
-0.52149,-1.01032,0.536471,-0.503845,0.265333,-0.61876,-0.577107
-0.523606,-1.009919,0.535973,-0.505051,0.265684,-0.619248,-0.577221
-0.528815,-1.008974,0.534785,-0.507906,0.266563,-0.620146,-0.577449
-0.53192,-1.008432,0.534095,-0.509536,0.267093,-0.6205,-0.577552
-0.535972,-1.007738,0.533202,-0.511722,0.267796,-0.621057,-0.577711
-0.539111,-1.00722,0.532528,-0.513338,0.268345,-0.621301,-0.5778
-0.544239,-1.006395,0.531442,-0.516036,0.269257,-0.621774,-0.577968
-0.546407,-1.006061,0.530997,-0.517053,0.269641,-0.621708,-0.577986
-0.551265,-1.005288,0.529965,-0.519712,0.270516,-0.622339,-0.578187
-0.553118,-1.004985,0.529562,-0.520778,0.270849,-0.622692,-0.578285
-0.557805,-1.004266,0.528584,-0.523368,0.271709,-0.623299,-0.578486
-0.559534,-1.004027,0.528243,-0.524424,0.272047,-0.623671,-0.5786
-0.563726,-1.003547,0.527506,-0.527033,0.272921,-0.624487,-0.578891
-0.565876,-1.003335,0.527152,-0.528617,0.273405,-0.625314,-0.579139
-0.568955,-1.00307,0.526681,-0.530795,0.274112,-0.62626,-0.579454
-0.571232,-1.002879,0.526336,-0.53239,0.274637,-0.626918,-0.57968
-0.574859,-1.002613,0.525818,-0.535082,0.275506,-0.628188,-0.5801
-0.576255,-1.002518,0.525622,-0.536149,0.275846,-0.628723,-0.580274
-0.57976,-1.002317,0.525162,-0.539,0.276735,-0.630321,-0.580779
-0.581101,-1.002247,0.524991,-0.540125,0.277082,-0.630986,-0.580985
-0.584123,-1.002134,0.524632,-0.543224,0.277934,-0.633463,-0.58168
-0.585336,-1.002084,0.524483,-0.544447,0.278273,-0.634427,-0.58195
-0.587995,-1.001993,0.524159,-0.547687,0.279075,-0.637555,-0.58277
-0.589425,-1.001955,0.523987,-0.549699,0.279536,-0.639725,-0.583321
-0.591415,-1.001896,0.523747,-0.552326,0.280164,-0.642426,-0.584017
-0.592841,-1.001844,0.523563,-0.554299,0.280619,-0.644548,-0.584552
-0.595338,-1.001741,0.523236,-0.557519,0.281393,-0.647838,-0.585394
-0.596132,-1.00174,0.523155,-0.55885,0.281685,-0.649405,-0.585786
-0.598342,-1.001832,0.52304,-0.561981,0.282501,-0.652516,-0.586635
-0.59897,-1.001933,0.523073,-0.563281,0.282814,-0.654037,-0.58704
-0.600926,-1.002184,0.523135,-0.566326,0.283661,-0.657,-0.587894
-0.601586,-1.002283,0.523166,-0.567567,0.283976,-0.658372,-0.588268
-0.60376,-1.002481,0.523168,-0.570433,0.284832,-0.660832,-0.589009
-0.605203,-1.002579,0.523141,-0.572062,0.285357,-0.662015,-0.589391
-0.60693,-1.002675,0.523081,-0.574272,0.286,-0.663952,-0.589955
-0.608483,-1.002672,0.522946,-0.575807,0.286485,-0.665007,-0.590282
-0.611167,-1.002589,0.522637,-0.57828,0.287265,-0.666634,-0.590777
-0.612236,-1.002532,0.522489,-0.579217,0.287557,-0.667236,-0.590956
-0.615021,-1.002352,0.522073,-0.581589,0.288296,-0.66873,-0.591395
-0.61613,-1.002255,0.521882,-0.58248,0.28857,-0.669269,-0.591549
-0.61895,-1.001972,0.521359,-0.584634,0.289238,-0.670498,-0.591897
-0.620135,-1.001851,0.521137,-0.585507,0.289514,-0.670957,-0.59203
-0.622997,-1.001505,0.520548,-0.587469,0.290137,-0.671892,-0.592294
-0.624587,-1.001281,0.520186,-0.58856,0.290464,-0.672469,-0.592442
-0.626927,-1.000964,0.51967,-0.590023,0.29094,-0.673031,-0.592602
-0.628707,-1.000715,0.519268,-0.591097,0.291293,-0.673403,-0.592709
-0.631565,-1.000288,0.518593,-0.592898,0.291853,-0.674182,-0.592911
-0.63263,-1.000126,0.518337,-0.593581,0.292061,-0.674501,-0.592991
-0.635235,-0.999758,0.517742,-0.595232,0.292586,-0.67519,-0.593178
-0.636161,-0.999625,0.517527,-0.595842,0.292773,-0.675481,-0.593253
-0.638438,-0.999316,0.517017,-0.597357,0.293247,-0.676193,-0.593444
-0.639275,-0.999201,0.516828,-0.597927,0.293422,-0.676479,-0.59352
-0.641263,-0.998928,0.516376,-0.599329,0.293842,-0.677251,-0.593719
-0.642469,-0.998777,0.516117,-0.600154,0.294104,-0.677644,-0.593828
-0.644096,-0.998606,0.515807,-0.601181,0.294466,-0.677957,-0.59394
-0.64511,-0.998529,0.515642,-0.601911,0.294719,-0.678263,-0.594044
-0.646827,-0.998457,0.515429,-0.603097,0.295176,-0.678582,-0.594198
-0.647457,-0.998423,0.515342,-0.603541,0.29534,-0.67873,-0.594258
-0.648988,-0.998282,0.515065,-0.604648,0.295708,-0.679246,-0.594419
-0.649669,-0.99821,0.514932,-0.605087,0.29586,-0.679395,-0.594469
-0.651349,-0.997992,0.514564,-0.606112,0.296206,-0.679728,-0.594571
-0.651993,-0.997895,0.514408,-0.60651,0.296331,-0.679888,-0.594612
-0.653756,-0.99761,0.513961,-0.607485,0.29665,-0.680156,-0.594681
-0.654898,-0.997415,0.513661,-0.608029,0.296841,-0.68019,-0.594691
-0.656381,-0.997152,0.513261,-0.608797,0.29709,-0.680361,-0.594729
-0.657546,-0.996949,0.51295,-0.609385,0.297286,-0.680461,-0.594753
-0.65941,-0.996606,0.512431,-0.610428,0.2976,-0.68084,-0.594832
-0.660139,-0.99647,0.512225,-0.610852,0.297724,-0.681019,-0.594869
-0.662167,-0.996131,0.511696,-0.611971,0.298084,-0.681338,-0.594947
-0.663107,-0.995993,0.511474,-0.612402,0.298253,-0.681291,-0.594947
-0.665183,-0.995655,0.510942,-0.613568,0.29863,-0.68164,-0.595035
-0.666097,-0.995499,0.510702,-0.613982,0.298781,-0.681623,-0.595034
-0.66801,-0.99509,0.510103,-0.615039,0.299069,-0.682087,-0.595112
-0.669067,-0.994834,0.509737,-0.615654,0.299213,-0.682455,-0.595168
-0.670665,-0.994469,0.509212,-0.616496,0.299436,-0.68281,-0.595217
-0.671778,-0.994196,0.508823,-0.617145,0.299587,-0.683202,-0.595277
-0.673862,-0.993707,0.508122,-0.618252,0.299871,-0.683703,-0.595345
-0.674648,-0.993523,0.507857,-0.618695,0.299981,-0.683938,-0.595381
-0.676509,-0.993113,0.507256,-0.619893,0.300276,-0.684708,-0.595524
-0.677318,-0.992961,0.507024,-0.620414,0.300421,-0.684995,-0.595585
-0.679136,-0.992605,0.506484,-0.621684,0.300747,-0.685848,-0.595762
-0.679889,-0.992455,0.506257,-0.622215,0.300882,-0.686214,-0.595837
-0.681655,-0.992058,0.505673,-0.62347,0.301172,-0.687172,-0.59602
-0.6827,-0.991817,0.50532,-0.624249,0.301345,-0.687815,-0.596142
-0.683976,-0.991523,0.504888,-0.625204,0.301556,-0.688605,-0.596293
-0.68483,-0.991329,0.504602,-0.625869,0.301703,-0.689175,-0.596405
-0.686145,-0.991039,0.504172,-0.626848,0.301929,-0.689957,-0.596558
-0.68666,-0.990931,0.504009,-0.627269,0.302026,-0.690317,-0.596632
-0.688001,-0.990674,0.503614,-0.628282,0.302283,-0.691066,-0.596792
-0.688548,-0.990578,0.503463,-0.628727,0.302397,-0.691411,-0.596869
-0.68992,-0.990355,0.503104,-0.629782,0.302687,-0.692135,-0.597039
-0.6905,-0.990274,0.502967,-0.630251,0.30282,-0.692457,-0.597119
-0.691968,-0.99011,0.502668,-0.631415,0.303181,-0.693155,-0.597311
-0.692901,-0.990023,0.502497,-0.632159,0.303421,-0.693574,-0.597434
-0.694135,-0.989866,0.502224,-0.63307,0.303705,-0.694076,-0.597569
-0.695099,-0.989698,0.50196,-0.633701,0.303889,-0.694405,-0.597644
-0.696889,-0.989347,0.501429,-0.63463,0.304177,-0.694654,-0.597689
-0.69772,-0.989196,0.501199,-0.634936,0.304302,-0.694521,-0.597659
-0.699919,-0.988846,0.500651,-0.635624,0.30465,-0.693859,-0.59753
-0.700741,-0.98872,0.50045,-0.635908,0.304786,-0.693653,-0.597493
-0.703162,-0.988374,0.499896,-0.636428,0.305162,-0.69243,-0.597255
-0.70427,-0.988216,0.499645,-0.636547,0.30532,-0.691659,-0.5971
-0.706711,-0.987817,0.499033,-0.636829,0.305638,-0.69009,-0.596767
-0.708387,-0.987551,0.498624,-0.636868,0.305842,-0.688726,-0.596477
-0.710446,-0.987193,0.498085,-0.636971,0.306079,-0.68721,-0.596144
-0.712049,-0.986901,0.497649,-0.637027,0.306252,-0.686013,-0.595875
-0.71448,-0.986402,0.496924,-0.637179,0.306489,-0.684421,-0.595497
-0.715579,-0.986201,0.496625,-0.637202,0.306605,-0.683577,-0.595308
-0.717545,-0.985799,0.496034,-0.637575,0.306827,-0.682732,-0.595101
-0.718208,-0.985661,0.49583,-0.637777,0.30691,-0.682588,-0.595061
-0.719877,-0.985335,0.495342,-0.638313,0.307135,-0.682232,-0.594972
-0.720387,-0.985219,0.49517,-0.638585,0.307206,-0.682345,-0.594988
-0.721829,-0.984937,0.494743,-0.63929,0.307431,-0.682461,-0.595006
-0.722754,-0.984771,0.494485,-0.639711,0.307579,-0.682456,-0.595005
-0.72395,-0.98453,0.494121,-0.640312,0.307763,-0.682595,-0.595026
-0.7248,-0.984329,0.493827,-0.640787,0.307881,-0.682834,-0.595061
-0.72648,-0.983946,0.493265,-0.641585,0.308106,-0.683031,-0.595075
-0.727248,-0.983781,0.49302,-0.641865,0.308204,-0.682952,-0.595047
-0.728901,-0.98337,0.492428,-0.642621,0.308402,-0.683154,-0.59505
-0.729684,-0.98319,0.492167,-0.642875,0.308491,-0.68304,-0.59501
-0.731579,-0.982739,0.491516,-0.64353,0.308704,-0.68286,-0.594929
-0.732164,-0.982575,0.491283,-0.643841,0.308767,-0.683042,-0.594948
-0.733586,-0.982177,0.490718,-0.644665,0.308933,-0.6836,-0.59502
-0.734491,-0.981935,0.490371,-0.645173,0.309043,-0.683906,-0.595059
-0.735642,-0.981611,0.489911,-0.645838,0.309175,-0.684354,-0.595116
-0.736526,-0.981356,0.48955,-0.646336,0.309271,-0.68469,-0.595156
-0.737925,-0.980927,0.48895,-0.647159,0.309413,-0.685326,-0.595233
-0.73852,-0.980752,0.488704,-0.647497,0.309477,-0.68556,-0.59526
-0.739848,-0.98035,0.48814,-0.648292,0.309617,-0.686176,-0.595338
-0.74041,-0.980189,0.487911,-0.648616,0.309681,-0.6864,-0.595366
-0.741695,-0.979812,0.487379,-0.649385,0.309824,-0.686971,-0.59544
-0.742262,-0.979662,0.487165,-0.649702,0.309895,-0.687154,-0.595464
-0.74376,-0.979302,0.486642,-0.650431,0.310091,-0.687377,-0.595482
-0.744736,-0.979094,0.486334,-0.650831,0.310225,-0.687344,-0.595464
-0.74593,-0.978842,0.485959,-0.651396,0.310401,-0.687428,-0.595471
-0.746686,-0.97868,0.485717,-0.65185,0.310524,-0.687654,-0.595513
-0.747875,-0.978442,0.485355,-0.652647,0.310737,-0.688122,-0.595611
-0.748374,-0.978351,0.485213,-0.652972,0.310832,-0.688286,-0.595649
-0.749444,-0.978137,0.484886,-0.653735,0.31103,-0.688786,-0.595755
-0.749815,-0.97806,0.484769,-0.654003,0.311098,-0.688972,-0.595793
-0.750818,-0.977865,0.484467,-0.654779,0.311295,-0.689538,-0.595916
-0.751129,-0.977801,0.48437,-0.65502,0.311355,-0.689719,-0.595955
-0.751974,-0.977635,0.484115,-0.655678,0.311522,-0.690203,-0.59606
-0.752359,-0.977557,0.483994,-0.655966,0.311594,-0.690409,-0.596103
-0.752901,-0.977465,0.483848,-0.656408,0.311713,-0.690726,-0.596178
-0.753139,-0.977432,0.483792,-0.656609,0.31177,-0.690865,-0.596213
-0.753453,-0.977418,0.483751,-0.656962,0.311876,-0.691146,-0.596293
-0.753531,-0.977415,0.483742,-0.657063,0.311905,-0.691238,-0.596319
-0.753545,-0.977407,0.483724,-0.657445,0.311953,-0.691902,-0.596465
-0.753424,-0.977404,0.483725,-0.657622,0.311948,-0.692355,-0.596557
-0.753092,-0.977408,0.483739,-0.658025,0.311931,-0.693435,-0.596777
-0.753124,-0.977405,0.483733,-0.658087,0.311945,-0.69351,-0.596795
-0.752517,-0.977494,0.483865,-0.658504,0.311923,-0.694774,-0.597069
-0.752268,-0.977548,0.48394,-0.658659,0.311922,-0.695231,-0.597174
-0.751665,-0.97761,0.484043,-0.658833,0.311852,-0.696116,-0.597353
-0.751536,-0.977609,0.48405,-0.658752,0.311813,-0.696124,-0.597345
-0.750904,-0.977587,0.484061,-0.658501,0.311626,-0.69646,-0.597366
-0.750759,-0.977573,0.484052,-0.658388,0.31157,-0.696458,-0.597349
-0.750439,-0.977512,0.484001,-0.658048,0.311416,-0.69635,-0.597278
-0.750265,-0.977464,0.483956,-0.657831,0.311318,-0.696259,-0.597226
-0.750504,-0.977284,0.483739,-0.657114,0.311162,-0.695066,-0.596907
-0.750484,-0.977224,0.48367,-0.656946,0.311097,-0.69491,-0.596847
-0.750912,-0.976992,0.483376,-0.656458,0.31098,-0.693996,-0.596584
-0.750966,-0.976862,0.48322,-0.656301,0.31089,-0.6939,-0.596516
-0.751185,-0.976703,0.48302,-0.656085,0.310809,-0.693569,-0.596396
-0.751199,-0.976668,0.482979,-0.656057,0.310786,-0.693569,-0.596384
-0.751264,-0.976578,0.482868,-0.656013,0.310738,-0.693585,-0.596357
-0.751264,-0.976578,0.482868,-0.656013,0.310738,-0.693585,-0.596357
-0.751337,-0.976529,0.482804,-0.65603,0.310725,-0.693623,-0.596352
-0.751397,-0.976497,0.482763,-0.656052,0.310722,-0.693651,-0.59635
-0.751489,-0.976464,0.482717,-0.656103,0.310728,-0.693696,-0.596354
-0.751553,-0.97644,0.482685,-0.656138,0.310732,-0.693728,-0.596357
-0.751623,-0.976404,0.482637,-0.656171,0.310729,-0.693772,-0.596358
-0.751673,-0.976371,0.482594,-0.656189,0.310721,-0.693809,-0.596357
-0.751704,-0.976333,0.482547,-0.656188,0.310704,-0.693843,-0.596352
-0.751706,-0.976299,0.482506,-0.656167,0.31068,-0.693866,-0.596344
-0.751633,-0.976226,0.482424,-0.656059,0.310604,-0.693901,-0.596318
-0.751603,-0.976205,0.482401,-0.656021,0.310579,-0.693908,-0.596309
-0.751505,-0.976116,0.482301,-0.655873,0.310481,-0.693931,-0.596273
-0.751478,-0.976083,0.482264,-0.655824,0.310448,-0.693939,-0.59626
-0.751375,-0.97597,0.482135,-0.655637,0.310329,-0.693945,-0.596209
-0.751334,-0.975944,0.482107,-0.655578,0.310295,-0.693938,-0.596195
-0.751134,-0.97591,0.482079,-0.655362,0.310201,-0.693856,-0.596149
-0.750985,-0.975908,0.482086,-0.655214,0.310147,-0.693777,-0.596119
-0.750823,-0.975906,0.482094,-0.655049,0.310088,-0.693679,-0.596085
-0.750717,-0.975895,0.482088,-0.65492,0.310041,-0.693598,-0.596054
-0.750599,-0.97586,0.482055,-0.654688,0.309961,-0.693395,-0.595986
-0.750572,-0.97584,0.482034,-0.654613,0.309933,-0.693332,-0.595963
-0.750693,-0.975707,0.481874,-0.654302,0.309835,-0.692897,-0.595823
-0.750695,-0.975651,0.481807,-0.654218,0.309789,-0.692853,-0.595791
-0.750897,-0.975447,0.481558,-0.653884,0.309662,-0.692415,-0.595629
-0.750907,-0.975404,0.481508,-0.653819,0.309629,-0.692371,-0.595604
-0.751077,-0.975313,0.481393,-0.653622,0.309583,-0.691999,-0.595498
-0.751077,-0.975313,0.481393,-0.653622,0.309583,-0.691999,-0.595498
-0.751055,-0.97527,0.481345,-0.653535,0.30954,-0.691952,-0.595469
-0.751051,-0.975262,0.481335,-0.653521,0.309532,-0.691948,-0.595465
-0.75101,-0.975186,0.481248,-0.653404,0.30946,-0.691934,-0.595429
-0.75101,-0.975186,0.481248,-0.653404,0.30946,-0.691934,-0.595429
-0.750893,-0.975111,0.481167,-0.653226,0.309363,-0.691899,-0.595384
-0.750852,-0.975091,0.481146,-0.653168,0.309334,-0.691884,-0.59537
-0.750673,-0.975041,0.481097,-0.65295,0.309234,-0.691806,-0.59532
-0.750607,-0.975036,0.481095,-0.652883,0.309207,-0.691775,-0.595305
-0.750321,-0.975066,0.481148,-0.652657,0.309132,-0.691657,-0.59527
-0.750095,-0.975109,0.481212,-0.652509,0.309089,-0.691583,-0.595253
-0.749684,-0.975193,0.481335,-0.652304,0.309023,-0.691547,-0.595246
-0.74932,-0.975275,0.481453,-0.652153,0.308974,-0.691553,-0.595252
-0.748535,-0.975447,0.4817,-0.651899,0.308873,-0.691702,-0.595293
-0.748339,-0.975497,0.48177,-0.651796,0.308847,-0.691659,-0.595288
-0.747816,-0.97558,0.481899,-0.651476,0.308741,-0.691554,-0.595258
-0.74766,-0.975593,0.481924,-0.651366,0.3087,-0.691518,-0.595243
-0.747343,-0.975602,0.481954,-0.651089,0.308598,-0.691386,-0.595194
-0.747189,-0.975597,0.481958,-0.650941,0.308542,-0.691315,-0.595165
-0.74696,-0.975583,0.481956,-0.650696,0.308449,-0.691182,-0.595112
-0.746854,-0.975549,0.481924,-0.650479,0.308376,-0.690987,-0.595048
-0.746909,-0.975505,0.481873,-0.650232,0.308329,-0.690573,-0.594942
-0.746855,-0.975488,0.481857,-0.650134,0.308293,-0.690496,-0.594915
-0.746957,-0.975426,0.481782,-0.649871,0.308243,-0.690032,-0.594794
-0.746944,-0.975419,0.481775,-0.649843,0.308232,-0.69001,-0.594786
-0.746881,-0.975392,0.481747,-0.649726,0.308186,-0.689931,-0.594753
-0.746865,-0.975385,0.48174,-0.649695,0.308174,-0.689908,-0.594744
-0.746834,-0.975374,0.481729,-0.649651,0.308154,-0.689887,-0.594733
-0.746834,-0.975374,0.481729,-0.649651,0.308154,-0.689887,-0.594733
-0.746815,-0.975342,0.481693,-0.64961,0.308125,-0.689896,-0.594722
-0.746791,-0.975295,0.481639,-0.649577,0.308086,-0.689955,-0.594715
-0.746569,-0.975278,0.481628,-0.649631,0.308033,-0.690343,-0.594778
-0.746569,-0.975278,0.481628,-0.649631,0.308033,-0.690343,-0.594778
-0.746525,-0.975295,0.48165,-0.649615,0.308031,-0.690335,-0.59478
-0.746525,-0.975295,0.48165,-0.649615,0.308031,-0.690335,-0.59478
-0.746464,-0.975302,0.481663,-0.649573,0.308017,-0.690318,-0.594774
-0.746464,-0.975302,0.481663,-0.649573,0.308017,-0.690318,-0.594774
-0.746351,-0.97526,0.481619,-0.649441,0.307948,-0.6903,-0.594745
-0.746347,-0.975258,0.481618,-0.649437,0.307945,-0.690299,-0.594744
-0.74617,-0.975209,0.481571,-0.649221,0.307847,-0.690219,-0.594694
-0.746054,-0.975178,0.481542,-0.649067,0.307782,-0.690143,-0.594656
-0.745935,-0.975129,0.481493,-0.648829,0.307693,-0.689958,-0.594587
-0.745857,-0.975103,0.481467,-0.648704,0.307643,-0.689878,-0.594554
-0.745717,-0.975033,0.481394,-0.648412,0.30753,-0.689661,-0.594468
-0.745665,-0.975011,0.481373,-0.648313,0.307492,-0.689591,-0.59444
-0.745478,-0.974959,0.481323,-0.648072,0.307386,-0.689484,-0.594382
-0.745375,-0.974922,0.481287,-0.647928,0.307322,-0.68942,-0.594346
-0.745134,-0.974875,0.481246,-0.647662,0.307204,-0.689325,-0.594288
-0.744986,-0.974861,0.481238,-0.647513,0.307142,-0.689264,-0.594258
-0.744632,-0.974917,0.481325,-0.647236,0.307062,-0.689089,-0.594214
-0.744359,-0.974974,0.481408,-0.647031,0.307009,-0.688942,-0.594182
-0.744058,-0.975027,0.481487,-0.646791,0.306943,-0.688775,-0.594143
-0.74386,-0.975026,0.481498,-0.646594,0.306873,-0.688663,-0.594102
-0.743599,-0.974961,0.481439,-0.646236,0.306727,-0.688464,-0.594013
-0.743543,-0.974953,0.481433,-0.646172,0.306702,-0.68843,-0.593999
-0.743256,-0.974965,0.481464,-0.645901,0.30661,-0.68827,-0.593946
-0.743117,-0.974983,0.481493,-0.645771,0.306573,-0.688173,-0.59392
-0.742807,-0.975062,0.481605,-0.645552,0.306524,-0.688002,-0.593889
-0.742612,-0.975109,0.48167,-0.645417,0.306492,-0.687908,-0.593871
-0.741885,-0.975271,0.481898,-0.645165,0.306396,-0.688015,-0.593902
-0.741279,-0.975388,0.482066,-0.645048,0.306318,-0.688305,-0.593966
-0.740159,-0.97554,0.482299,-0.644838,0.306134,-0.688967,-0.594088
-0.739577,-0.975606,0.482409,-0.644479,0.305998,-0.688897,-0.594054
-0.73795,-0.975725,0.482631,-0.643847,0.305624,-0.689479,-0.594106
-0.73743,-0.975759,0.482701,-0.643479,0.305481,-0.689378,-0.594057
-0.735981,-0.975847,0.482886,-0.64232,0.30506,-0.688879,-0.59387
-0.735276,-0.975878,0.482962,-0.641754,0.304848,-0.688654,-0.593779
-0.73351,-0.975972,0.483173,-0.640201,0.304308,-0.687821,-0.593496
-0.732714,-0.976013,0.483268,-0.639456,0.304059,-0.687368,-0.59335
-0.730686,-0.976162,0.483562,-0.637386,0.303429,-0.685825,-0.59291
-0.729466,-0.976258,0.48375,-0.635994,0.303036,-0.684624,-0.592587
-0.727877,-0.976359,0.483967,-0.634005,0.302489,-0.682791,-0.592098
-0.72635,-0.976437,0.484145,-0.63261,0.302018,-0.681982,-0.591832
-0.72368,-0.976515,0.484392,-0.629988,0.301137,-0.680348,-0.591297
-0.722581,-0.976564,0.484512,-0.628961,0.300791,-0.679736,-0.591096
-0.719544,-0.976739,0.484884,-0.626252,0.299877,-0.6782,-0.590591
-0.718279,-0.976834,0.485063,-0.625185,0.299518,-0.677627,-0.590404
-0.714831,-0.977108,0.485563,-0.622409,0.298564,-0.676275,-0.589944
-0.71349,-0.977235,0.485779,-0.62134,0.298206,-0.675731,-0.589769
-0.710046,-0.9776,0.486378,-0.618546,0.297307,-0.67417,-0.589297
-0.708041,-0.977841,0.486758,-0.61692,0.296802,-0.673208,-0.589021
-0.70533,-0.978134,0.487232,-0.614701,0.296096,-0.671933,-0.588641
-0.70326,-0.978302,0.487533,-0.612986,0.295524,-0.671021,-0.588344
-0.699653,-0.978547,0.487999,-0.610128,0.294515,-0.669752,-0.58788
-0.698265,-0.978668,0.488205,-0.609064,0.294146,-0.66928,-0.587715
-0.694268,-0.979121,0.488904,-0.606592,0.293215,-0.668791,-0.587468
-0.692735,-0.979344,0.489225,-0.605648,0.292886,-0.668523,-0.587373
-0.688711,-0.979938,0.490071,-0.603449,0.292062,-0.6683,-0.587234
-0.687223,-0.980148,0.490372,-0.602573,0.291744,-0.668121,-0.587157
-0.68339,-0.980622,0.491072,-0.600503,0.290908,-0.668125,-0.587037
-0.681101,-0.980893,0.491474,-0.599331,0.290407,-0.668265,-0.586992
-0.678258,-0.981252,0.491997,-0.597803,0.28979,-0.668269,-0.586905
-0.676359,-0.981519,0.492375,-0.596676,0.289381,-0.668031,-0.586803
-0.672931,-0.982005,0.493056,-0.595033,0.288689,-0.668302,-0.586776
-0.671696,-0.982195,0.493319,-0.594368,0.28844,-0.66824,-0.586736
-0.668591,-0.982701,0.494004,-0.592763,0.287837,-0.668154,-0.586661
-0.66758,-0.982894,0.49426,-0.592104,0.287641,-0.667825,-0.58658
-0.664892,-0.983403,0.494931,-0.59048,0.287134,-0.667189,-0.586417
-0.66374,-0.983615,0.49521,-0.589885,0.286924,-0.667113,-0.586388
-0.66122,-0.984117,0.495865,-0.588363,0.286463,-0.666469,-0.586234
-0.659675,-0.984426,0.496265,-0.587493,0.286188,-0.666189,-0.586165
-0.657695,-0.984832,0.49679,-0.586304,0.285834,-0.665674,-0.586046
-0.656302,-0.985136,0.497179,-0.585401,0.285588,-0.665154,-0.585934
-0.653797,-0.985665,0.49786,-0.583855,0.285145,-0.664395,-0.585765
-0.652858,-0.985863,0.498114,-0.583257,0.284976,-0.664074,-0.585694
-0.650449,-0.986316,0.498709,-0.581713,0.284514,-0.663335,-0.585511
-0.649542,-0.98648,0.498926,-0.581112,0.284334,-0.663031,-0.585434
-0.647205,-0.986862,0.499441,-0.579567,0.283848,-0.662332,-0.58524
-0.646332,-0.986997,0.499627,-0.578969,0.28366,-0.662045,-0.585159
-0.644123,-0.987303,0.500057,-0.577462,0.283166,-0.661393,-0.584959
-0.642905,-0.987458,0.500279,-0.576578,0.282879,-0.660961,-0.584827
-0.641242,-0.987629,0.500542,-0.575323,0.282462,-0.660354,-0.58463
-0.639945,-0.987723,0.500706,-0.574329,0.282112,-0.659924,-0.584472
-0.637696,-0.98783,0.500932,-0.572611,0.281476,-0.659289,-0.584204
-0.636819,-0.987871,0.501018,-0.571912,0.281225,-0.658989,-0.584087
-0.634559,-0.987993,0.501261,-0.570014,0.280576,-0.658005,-0.583746
-0.633578,-0.988045,0.501364,-0.569161,0.280291,-0.657525,-0.583586
-0.631265,-0.988142,0.501586,-0.566928,0.279584,-0.656025,-0.583121
-0.63045,-0.988143,0.501634,-0.56595,0.279297,-0.655198,-0.582881
-0.628547,-0.988043,0.501646,-0.563298,0.278537,-0.652761,-0.582175
-0.62747,-0.987942,0.501612,-0.561593,0.278064,-0.651079,-0.581696
-0.62589,-0.987832,0.501596,-0.559309,0.277415,-0.648947,-0.581078
-0.624726,-0.987759,0.501595,-0.557557,0.276936,-0.647231,-0.580594
-0.622619,-0.987661,0.501622,-0.554605,0.276112,-0.644472,-0.579805
-0.621885,-0.987623,0.501631,-0.553348,0.275802,-0.643089,-0.579437
-0.619533,-0.98764,0.501783,-0.550257,0.274976,-0.640162,-0.578631
-0.618706,-0.987654,0.501848,-0.54893,0.274669,-0.638669,-0.57825
-0.616159,-0.987776,0.502112,-0.545704,0.273849,-0.635539,-0.577421
-0.61527,-0.987821,0.50221,-0.544356,0.273545,-0.634023,-0.57704
-0.612522,-0.988011,0.502547,-0.541111,0.272719,-0.63098,-0.576237
-0.610942,-0.988139,0.50276,-0.539111,0.272244,-0.628944,-0.575719
-0.608689,-0.98836,0.503097,-0.536492,0.271612,-0.626407,-0.575073
-0.607035,-0.988562,0.503383,-0.534499,0.271164,-0.624341,-0.574568
-0.604094,-0.988973,0.503934,-0.531224,0.270421,-0.621077,-0.573774
-0.602869,-0.989142,0.504159,-0.529967,0.270121,-0.619923,-0.573488
-0.600058,-0.989482,0.504634,-0.526904,0.269395,-0.617017,-0.572759
-0.598877,-0.989611,0.504817,-0.52576,0.269097,-0.61609,-0.572512
-0.595779,-0.989945,0.505288,-0.523029,0.268333,-0.614173,-0.571974
-0.594627,-0.990073,0.505467,-0.521915,0.268044,-0.613266,-0.571733
-0.591491,-0.990455,0.505978,-0.519318,0.26731,-0.611561,-0.571254
-0.58962,-0.990692,0.506289,-0.517836,0.266883,-0.610656,-0.570995
-0.587036,-0.990987,0.506687,-0.515779,0.266276,-0.609439,-0.570635
-0.585041,-0.991173,0.506957,-0.514136,0.265784,-0.60847,-0.570337
-0.581749,-0.991431,0.507358,-0.511269,0.264936,-0.606654,-0.569783
-0.580469,-0.991545,0.507525,-0.510171,0.264615,-0.605956,-0.569574
-0.577257,-0.991882,0.507989,-0.507353,0.263832,-0.603992,-0.569018
-0.576076,-0.992026,0.508179,-0.506211,0.263548,-0.60303,-0.568768
-0.573148,-0.992406,0.50867,-0.503387,0.262856,-0.60062,-0.568151
-0.571895,-0.992573,0.50888,-0.502347,0.262574,-0.599905,-0.567956
-0.569291,-0.992918,0.509328,-0.499497,0.261944,-0.597092,-0.567265
-0.567868,-0.993111,0.509579,-0.497788,0.261594,-0.595254,-0.566824
-0.56583,-0.99336,0.50991,-0.495528,0.261093,-0.593028,-0.566271
-0.56409,-0.993544,0.510161,-0.493867,0.260671,-0.591695,-0.565913
-0.561488,-0.993772,0.510505,-0.490946,0.259991,-0.588932,-0.565197
-0.56038,-0.993873,0.510651,-0.489802,0.259711,-0.587942,-0.564933
-0.557959,-0.994104,0.51099,-0.486846,0.259079,-0.584875,-0.564166
-0.557189,-0.994179,0.511105,-0.48561,0.258862,-0.583324,-0.563798
-0.554838,-0.994412,0.511443,-0.48263,0.258253,-0.580116,-0.563006
-0.554075,-0.994466,0.511541,-0.481335,0.258028,-0.578477,-0.562614
-0.551564,-0.994607,0.511811,-0.478114,0.257332,-0.575152,-0.561758
-0.550216,-0.994654,0.511938,-0.476083,0.256931,-0.572832,-0.561174
-0.548316,-0.994782,0.512161,-0.473546,0.256416,-0.570086,-0.560482
-0.546981,-0.994909,0.512349,-0.471735,0.256072,-0.568037,-0.559982
-0.544569,-0.995206,0.512735,-0.468943,0.255509,-0.565145,-0.559272
-0.543835,-0.995331,0.512887,-0.467837,0.255343,-0.563708,-0.558947
-0.541905,-0.995827,0.513411,-0.465448,0.25501,-0.560655,-0.558296
-0.541461,-0.996052,0.513631,-0.464516,0.254968,-0.559024,-0.557978
-0.540371,-0.996627,0.514186,-0.462316,0.25488,-0.555155,-0.557233
-0.539832,-0.996819,0.51438,-0.461456,0.254806,-0.553838,-0.556966
-0.538991,-0.997057,0.514659,-0.459082,0.25462,-0.549889,-0.556122
-0.538315,-0.997173,0.514808,-0.45773,0.254461,-0.547919,-0.555681
-0.537726,-0.997306,0.514981,-0.455835,0.25431,-0.544764,-0.554995
-0.536808,-0.997513,0.51521,-0.454606,0.254145,-0.543182,-0.554647
-0.535164,-0.997899,0.515625,-0.452629,0.253866,-0.540751,-0.554117
-0.534446,-0.998062,0.5158,-0.451861,0.253746,-0.539882,-0.553926
-0.5329,-0.998426,0.516194,-0.449823,0.25348,-0.537249,-0.553352
-0.532422,-0.998556,0.516336,-0.448957,0.253399,-0.53595,-0.553074
-0.530721,-0.998914,0.516732,-0.446941,0.2531,-0.533557,-0.55254
-0.5302,-0.999002,0.516843,-0.446051,0.25299,-0.532333,-0.552264
-0.528497,-0.99917,0.517093,-0.443896,0.252606,-0.529984,-0.551684
-0.527611,-0.999208,0.517192,-0.442517,0.252379,-0.528343,-0.551278
-0.526301,-0.99928,0.517344,-0.440705,0.252057,-0.526333,-0.550771
-0.525378,-0.999338,0.517461,-0.439304,0.251831,-0.52466,-0.550361
-0.523667,-0.999458,0.517678,-0.436995,0.251428,-0.522098,-0.549721
-0.523163,-0.999477,0.517738,-0.436012,0.251296,-0.520782,-0.549406
-0.521412,-0.999587,0.517946,-0.433796,0.250886,-0.518463,-0.548814
-0.520672,-0.999632,0.518031,-0.432944,0.250716,-0.51765,-0.548599
-0.519011,-0.999717,0.518216,-0.430758,0.250321,-0.515315,-0.548002
-0.518269,-0.999767,0.518304,-0.429914,0.250153,-0.514509,-0.547791
-0.516595,-0.999864,0.518498,-0.427739,0.249764,-0.51219,-0.5472
-0.515646,-0.999921,0.518612,-0.426417,0.249544,-0.5107,-0.546827
-0.514148,-1.00006,0.518816,-0.424728,0.249227,-0.509037,-0.546403
-0.512805,-1.000233,0.519027,-0.423525,0.24897,-0.508071,-0.54615
-0.510458,-1.000582,0.519425,-0.421537,0.248543,-0.506531,-0.545753
-0.509624,-1.000704,0.519568,-0.420709,0.248389,-0.50575,-0.545561
-0.507629,-1.000952,0.51988,-0.418671,0.248003,-0.503837,-0.545079
-0.506747,-1.001057,0.520009,-0.417937,0.247833,-0.503327,-0.544937
-0.504836,-1.00125,0.520275,-0.4159,0.247446,-0.501399,-0.544443
-0.503946,-1.001348,0.5204,-0.41515,0.247272,-0.500875,-0.544296
-0.502003,-1.001505,0.520644,-0.412999,0.246863,-0.498819,-0.543762
-0.500704,-1.001621,0.520809,-0.411758,0.246598,-0.497811,-0.543487
-0.499268,-1.001777,0.521022,-0.410023,0.246314,-0.495938,-0.543027
-0.498247,-1.001955,0.521222,-0.408746,0.24614,-0.494414,-0.542676
-0.496456,-1.002337,0.521619,-0.406694,0.245869,-0.491992,-0.542134
-0.495909,-1.002452,0.521745,-0.405816,0.245784,-0.490762,-0.541861
-0.494014,-1.002705,0.522051,-0.403811,0.245439,-0.488767,-0.54137
-0.493154,-1.00279,0.522163,-0.403081,0.245271,-0.488264,-0.541227
-0.491239,-1.002927,0.522387,-0.401048,0.244876,-0.486421,-0.540736
-0.490339,-1.003014,0.522502,-0.400291,0.244701,-0.485911,-0.540588
-0.488274,-1.003201,0.522769,-0.398122,0.244293,-0.483904,-0.540065
-0.486892,-1.00334,0.522952,-0.396855,0.244028,-0.482903,-0.539793
-0.485319,-1.003495,0.523167,-0.395093,0.243726,-0.481135,-0.539347
-0.484013,-1.003647,0.523354,-0.39387,0.243485,-0.480103,-0.539077
-0.482208,-1.003858,0.523625,-0.39173,0.243155,-0.477785,-0.53851
-0.481414,-1.003954,0.523744,-0.390903,0.243012,-0.476983,-0.538309
-0.479449,-1.004177,0.524029,-0.38877,0.242653,-0.474856,-0.537777
-0.478499,-1.004291,0.524163,-0.387984,0.242481,-0.474301,-0.537624
-0.476383,-1.004531,0.524463,-0.385865,0.242097,-0.472359,-0.537126
-0.475466,-1.004651,0.524597,-0.385129,0.241936,-0.471855,-0.536988
-0.473209,-1.004981,0.524949,-0.383416,0.241553,-0.47075,-0.536686
-0.471868,-1.005182,0.52516,-0.382393,0.241329,-0.470075,-0.536504
-0.470099,-1.005425,0.525425,-0.381038,0.241024,-0.469207,-0.536263
-0.468763,-1.005576,0.525603,-0.379959,0.240782,-0.468495,-0.53606
-0.46696,-1.005717,0.525818,-0.377955,0.240437,-0.466534,-0.535553
-0.466111,-1.005796,0.525921,-0.377232,0.240277,-0.466031,-0.535409
-0.464146,-1.005971,0.526162,-0.375247,0.23991,-0.464256,-0.534941
-0.46324,-1.006069,0.526279,-0.374518,0.239746,-0.463783,-0.534804
-0.460913,-1.006317,0.526574,-0.372692,0.239322,-0.462668,-0.534473
-0.459991,-1.006402,0.526683,-0.371918,0.239149,-0.462145,-0.534321
-0.458236,-1.006518,0.526877,-0.369915,0.238813,-0.460155,-0.533806
-0.457323,-1.006552,0.526966,-0.36869,0.238632,-0.458792,-0.53346
-0.455979,-1.006575,0.527074,-0.367051,0.238353,-0.457161,-0.533025
-0.454758,-1.006584,0.527156,-0.365828,0.238091,-0.456233,-0.532746
-0.452969,-1.006491,0.527219,-0.363619,0.237674,-0.454198,-0.532165
-0.452442,-1.00641,0.527211,-0.362678,0.237538,-0.453097,-0.531872
-0.451472,-1.006143,0.527142,-0.360317,0.237257,-0.449984,-0.531068
-0.451097,-1.006029,0.527109,-0.359407,0.237145,-0.448804,-0.53076
-0.450788,-1.005608,0.526928,-0.356911,0.236972,-0.444814,-0.529773
-0.450514,-1.005457,0.526872,-0.355942,0.236874,-0.443443,-0.529421
-0.450426,-1.004932,0.526629,-0.35322,0.236728,-0.438883,-0.528299
-0.450462,-1.004585,0.526465,-0.35153,0.236654,-0.435971,-0.527585
-0.450231,-1.004182,0.526289,-0.349393,0.236512,-0.432587,-0.526738
-0.44998,-1.003905,0.526176,-0.347859,0.236397,-0.430247,-0.526146
-0.449229,-1.003514,0.526036,-0.345449,0.236152,-0.426956,-0.525286
-0.448789,-1.003384,0.526,-0.344508,0.236031,-0.425822,-0.524979
-0.447916,-1.003012,0.525885,-0.341921,0.235776,-0.422294,-0.524065
-0.44737,-1.002899,0.525866,-0.340907,0.235642,-0.421121,-0.523747
-0.446289,-1.002563,0.525786,-0.338198,0.235363,-0.417553,-0.52282
-0.445727,-1.002455,0.525773,-0.337147,0.235231,-0.416315,-0.522488
-0.444794,-1.002091,0.52568,-0.334282,0.234993,-0.412279,-0.521464
-0.444297,-1.001865,0.525621,-0.33251,0.234869,-0.409687,-0.520815
-0.443458,-1.001618,0.525578,-0.330233,0.234679,-0.406539,-0.520017
-0.44252,-1.00151,0.525597,-0.328654,0.234488,-0.404714,-0.519534
-0.441596,-1.001231,0.52556,-0.325805,0.234303,-0.400565,-0.518507
-0.441044,-1.001164,0.525575,-0.324756,0.234198,-0.399251,-0.51817
-0.440044,-1.000956,0.525578,-0.322114,0.234019,-0.395505,-0.517243
-0.439502,-1.000919,0.525607,-0.321158,0.233925,-0.394321,-0.516942
-0.438491,-1.000747,0.525628,-0.318655,0.233756,-0.390812,-0.516074
-0.437962,-1.000679,0.525641,-0.31767,0.233659,-0.389599,-0.51576
-0.437201,-1.000312,0.525553,-0.31495,0.233499,-0.385632,-0.514761
-0.436827,-1.000047,0.525477,-0.313253,0.233414,-0.383084,-0.51412
-0.435989,-0.999778,0.525432,-0.311036,0.233248,-0.380082,-0.513349
-0.434884,-0.999688,0.525473,-0.309439,0.233048,-0.378398,-0.51289
-0.433378,-0.999484,0.525512,-0.306525,0.232796,-0.374731,-0.511948
-0.432621,-0.999449,0.525555,-0.305439,0.232671,-0.373552,-0.511634
-0.43122,-0.999333,0.525632,-0.302773,0.232468,-0.370112,-0.510769
-0.43058,-0.999336,0.525689,-0.301812,0.23238,-0.368978,-0.510483
-0.429369,-0.999256,0.525778,-0.299287,0.232234,-0.365524,-0.509636
-0.428761,-0.999219,0.525814,-0.298276,0.232145,-0.364306,-0.509324
-0.427755,-0.99891,0.525787,-0.295428,0.231998,-0.360278,-0.508312
-0.427272,-0.998667,0.525741,-0.293628,0.23193,-0.357611,-0.507645
-0.42641,-0.998413,0.525722,-0.29129,0.23181,-0.354353,-0.506822
-0.425809,-0.998248,0.525724,-0.289505,0.231746,-0.351746,-0.506179
-0.424574,-0.998052,0.525774,-0.286583,0.231611,-0.347685,-0.505172
-0.423941,-0.99801,0.525815,-0.285469,0.231532,-0.346298,-0.50482
-0.42262,-0.99785,0.525886,-0.282629,0.231391,-0.342456,-0.503864
-0.421885,-0.997835,0.525941,-0.281579,0.231295,-0.341285,-0.503558
-0.420235,-0.99777,0.526064,-0.278911,0.231098,-0.338068,-0.502738
-0.419276,-0.997816,0.526152,-0.27797,0.23096,-0.337314,-0.502523
-0.417799,-0.997757,0.526273,-0.275322,0.230813,-0.3339,-0.501674
-0.416622,-0.997794,0.526385,-0.273862,0.230669,-0.332377,-0.501276
-0.415689,-0.997685,0.526449,-0.27167,0.230605,-0.329267,-0.500516
-0.415142,-0.997543,0.526468,-0.269935,0.230587,-0.326639,-0.499879
-0.414304,-0.997264,0.52648,-0.266996,0.230571,-0.322134,-0.498784
-0.414304,-0.997077,0.526445,-0.265725,0.230635,-0.319821,-0.498239
-0.41361,-0.996767,0.526437,-0.262949,0.230639,-0.315512,-0.497188
-0.413673,-0.996558,0.526389,-0.261751,0.230708,-0.313302,-0.496665
-0.413062,-0.996256,0.526378,-0.259159,0.230727,-0.309255,-0.495677
-0.41303,-0.996129,0.526368,-0.258096,0.23079,-0.307323,-0.495226
-0.412004,-0.996147,0.526505,-0.255965,0.23077,-0.304271,-0.494501
-0.411144,-0.996269,0.526639,-0.25486,0.230717,-0.302943,-0.494185
-0.410366,-0.996379,0.526789,-0.253279,0.230734,-0.300556,-0.493642
-0.409219,-0.99662,0.526979,-0.25232,0.230634,-0.299712,-0.493441
-0.407967,-0.996925,0.527245,-0.250522,0.230626,-0.297198,-0.492885
-0.407175,-0.997111,0.527381,-0.249941,0.230555,-0.29675,-0.49278
-0.405942,-0.997355,0.527616,-0.248149,0.230534,-0.294313,-0.492228
-0.405186,-0.997501,0.527732,-0.24757,0.230459,-0.293882,-0.49212
-0.404099,-0.997656,0.527924,-0.245738,0.230453,-0.291304,-0.491526
-0.403329,-0.997787,0.528033,-0.245136,0.230374,-0.290865,-0.491411
-0.402176,-0.997889,0.528207,-0.243198,0.23035,-0.28823,-0.490789
-0.401031,-0.998045,0.528357,-0.242192,0.230234,-0.287409,-0.490573
-0.400262,-0.998103,0.528487,-0.240567,0.230259,-0.284984,-0.49001
-0.399331,-0.998265,0.528638,-0.239498,0.23021,-0.28375,-0.48972
-0.398252,-0.99846,0.528857,-0.237544,0.230247,-0.280842,-0.489065
-0.397707,-0.998576,0.528961,-0.236803,0.23024,-0.279853,-0.488842
-0.396633,-0.998831,0.529209,-0.23484,0.230304,-0.276834,-0.488176
-0.396092,-0.998982,0.52933,-0.234103,0.230312,-0.275794,-0.48795
-0.395099,-0.999244,0.529584,-0.232079,0.230411,-0.272535,-0.487238
-0.394592,-0.999334,0.52968,-0.231269,0.230419,-0.271394,-0.486978
-0.393927,-0.999272,0.529801,-0.228897,0.230549,-0.267476,-0.48607
-0.393736,-0.999136,0.529833,-0.227338,0.230669,-0.264733,-0.485429
-0.393045,-0.999075,0.529932,-0.225398,0.230741,-0.261737,-0.484718
-0.392391,-0.999088,0.530035,-0.223967,0.230779,-0.259624,-0.484219
-0.390723,-0.999267,0.530277,-0.221752,0.230724,-0.256958,-0.483574
-0.389762,-0.999421,0.530406,-0.22101,0.230632,-0.256441,-0.483436
-0.388268,-0.99962,0.530653,-0.218818,0.23063,-0.253567,-0.482761
-0.387353,-0.999796,0.530788,-0.218128,0.230552,-0.253062,-0.482633
-0.38582,-1.000052,0.531054,-0.216027,0.230549,-0.250336,-0.482001
-0.384877,-1.000221,0.531188,-0.215311,0.230466,-0.249825,-0.481869
-0.383285,-1.000445,0.531448,-0.213104,0.230458,-0.246998,-0.481204
-0.382063,-1.000624,0.531623,-0.21185,0.23039,-0.245721,-0.48089
-0.380807,-1.00069,0.531793,-0.209911,0.230384,-0.243238,-0.480286
-0.379512,-1.000736,0.531923,-0.208454,0.230288,-0.241829,-0.479909
-0.377937,-1.000549,0.532046,-0.205623,0.230265,-0.238274,-0.478996
-0.377531,-1.000415,0.532075,-0.204388,0.230315,-0.236436,-0.478541
-0.375758,-1.000345,0.532247,-0.201638,0.230274,-0.233128,-0.477695
-0.374975,-1.000349,0.532329,-0.200569,0.230245,-0.231918,-0.477384
-0.373468,-1.000267,0.532503,-0.197708,0.230299,-0.228045,-0.476431
-0.373133,-1.000177,0.532554,-0.196449,0.230395,-0.225998,-0.475945
-0.371364,-1.000254,0.532798,-0.193624,0.230434,-0.222303,-0.47505
-0.370567,-1.000246,0.532929,-0.19181,0.230536,-0.219578,-0.474407
-0.369317,-1.000237,0.533103,-0.189437,0.230619,-0.216274,-0.473609
-0.368598,-1.000112,0.533192,-0.187559,0.230724,-0.213481,-0.47293
-0.367784,-0.999736,0.533285,-0.184252,0.230991,-0.208196,-0.471648
-0.366853,-0.999744,0.533376,-0.183141,0.230947,-0.207078,-0.471349
-0.36582,-0.999465,0.533518,-0.179827,0.231203,-0.201917,-0.470103
-0.364796,-0.999534,0.533635,-0.178718,0.231157,-0.200835,-0.469819
-0.363439,-0.999352,0.533821,-0.175428,0.231365,-0.195996,-0.468645
-0.362192,-0.999438,0.533945,-0.174348,0.231262,-0.195237,-0.468422
-0.360697,-0.999089,0.534081,-0.170923,0.231422,-0.19052,-0.46723
-0.358942,-0.999078,0.534223,-0.169146,0.231292,-0.189099,-0.466811
-0.357336,-0.998889,0.534366,-0.166484,0.231331,-0.185882,-0.465973
-0.356269,-0.998747,0.53448,-0.164419,0.231418,-0.183141,-0.465283
-0.354868,-0.998434,0.534657,-0.160801,0.231693,-0.177809,-0.463975
-0.353763,-0.998473,0.534773,-0.159576,0.231656,-0.176624,-0.463659
-0.353071,-0.998,0.534911,-0.15581,0.232136,-0.17027,-0.46214
-0.352577,-0.997881,0.534988,-0.154394,0.232272,-0.168109,-0.461616
-0.352282,-0.997333,0.535113,-0.150629,0.232867,-0.161352,-0.460018
-0.351914,-0.997196,0.535179,-0.149309,0.23302,-0.159259,-0.459511
-0.35177,-0.99662,0.535273,-0.145958,0.233577,-0.153234,-0.458072
-0.351189,-0.996437,0.535361,-0.144267,0.23375,-0.150709,-0.457448
-0.351215,-0.996037,0.535448,-0.141826,0.234216,-0.146135,-0.45637
-0.350409,-0.996064,0.535586,-0.140425,0.234327,-0.144216,-0.455909
-0.348912,-0.996264,0.535848,-0.13834,0.234459,-0.141514,-0.455274
-0.348606,-0.996265,0.535938,-0.137402,0.234599,-0.139951,-0.454916
-0.347066,-0.996436,0.536198,-0.13524,0.234736,-0.137183,-0.454258
-0.346766,-0.996405,0.536285,-0.134229,0.23489,-0.135502,-0.453867
-0.345875,-0.996342,0.536504,-0.131758,0.235232,-0.131572,-0.452945
-0.344966,-0.996463,0.536614,-0.130999,0.235194,-0.130989,-0.45279
-0.344667,-0.996115,0.536758,-0.128416,0.235664,-0.126454,-0.451711
-0.344043,-0.99602,0.536861,-0.127053,0.235804,-0.124542,-0.451237
-0.343944,-0.995718,0.536985,-0.124917,0.236245,-0.120624,-0.450314
-0.343185,-0.995753,0.537136,-0.123528,0.236398,-0.118654,-0.449847
-0.342743,-0.995624,0.537381,-0.120848,0.236947,-0.113807,-0.448737
-0.342344,-0.995639,0.537491,-0.119854,0.237101,-0.112229,-0.448372
-0.34211,-0.995394,0.53772,-0.117096,0.237715,-0.107125,-0.447191
-0.341874,-0.995321,0.537812,-0.116054,0.237911,-0.105364,-0.446776
-0.341874,-0.994982,0.53804,-0.113188,0.238614,-0.099884,-0.445505
-0.341464,-0.994999,0.538159,-0.112171,0.238783,-0.098279,-0.445132
-0.339454,-0.995402,0.538522,-0.109909,0.238937,-0.095595,-0.444512
-0.337953,-0.995774,0.538764,-0.108632,0.238956,-0.094349,-0.444231
-0.335843,-0.99636,0.539106,-0.106991,0.23896,-0.092826,-0.443898
-0.334147,-0.996895,0.539375,-0.105877,0.238922,-0.09194,-0.443719
-0.331236,-0.997914,0.539856,-0.104045,0.238866,-0.09045,-0.443439
-0.330023,-0.998343,0.540058,-0.103282,0.238844,-0.089821,-0.443321
-0.327112,-0.99928,0.540522,-0.101354,0.238795,-0.088236,-0.443003
-0.326516,-0.999459,0.540689,-0.10036,0.238966,-0.086663,-0.442663
-0.325614,-0.999673,0.541087,-0.097647,0.23959,-0.081803,-0.441595
-0.325843,-0.999554,0.541232,-0.096334,0.240042,-0.078908,-0.440949
-0.327393,-0.998916,0.541588,-0.092721,0.241508,-0.070221,-0.438996
-0.328115,-0.998566,0.541811,-0.090614,0.242321,-0.065412,-0.437901
-0.330994,-0.997438,0.542135,-0.086932,0.244135,-0.055764,-0.435684
-0.332988,-0.996579,0.54241,-0.084098,0.24548,-0.048722,-0.434039
-0.336388,-0.995027,0.542936,-0.079163,0.247831,-0.036795,-0.431215
-0.338391,-0.994211,0.543207,-0.076872,0.249051,-0.031009,-0.429837
-0.341425,-0.992761,0.543891,-0.071873,0.251423,-0.019667,-0.427107
-0.343267,-0.992012,0.544247,-0.069563,0.252662,-0.014155,-0.425776
-0.346148,-0.990576,0.545105,-0.064408,0.255148,-0.003076,-0.423064
-0.348569,-0.989624,0.545608,-0.061746,0.256714,0.003231,-0.421513
-0.355511,-0.986915,0.547173,-0.054531,0.261195,0.020087,-0.41732
-0.360531,-0.985095,0.548464,-0.049663,0.264445,0.031177,-0.414522
-0.367462,-0.982711,0.550595,-0.042901,0.269173,0.045947,-0.410763
-0.373564,-0.980851,0.552778,-0.037229,0.27347,0.057893,-0.407698
-0.387374,-0.977353,0.558744,-0.02549,0.283666,0.081381,-0.401643
-0.392273,-0.976296,0.561618,-0.020874,0.287887,0.089314,-0.399572
-0.419015,-0.972847,0.5822,0.000369,0.313939,0.120691,-0.391761
-0.427331,-0.972464,0.594172,0.008425,0.32686,0.127741,-0.390468
-0.447225,-0.969446,0.663267,0.028556,0.396872,0.133849,-0.395436
-0.447932,-0.966502,0.687643,0.029775,0.421193,0.132347,-0.398543
-0.445789,-0.956556,0.748461,0.027342,0.481316,0.127131,-0.406113
-0.444051,-0.948541,0.789953,0.023322,0.521286,0.123394,-0.410677
-0.441335,-0.938535,0.837976,0.017628,0.566267,0.118574,-0.415654
-0.439696,-0.930795,0.873595,0.012944,0.598762,0.11486,-0.419114
-0.437028,-0.918637,0.926833,0.005313,0.646099,0.108596,-0.424069
-0.436257,-0.914532,0.944633,0.002878,0.661584,0.106745,-0.425621
-0.434246,-0.902052,0.996248,-0.005086,0.705743,0.099971,-0.430023
-0.433597,-0.898131,1.012484,-0.007391,0.719378,0.098166,-0.431333
-0.432066,-0.886629,1.058002,-0.014603,0.757092,0.091783,-0.434899
-0.431561,-0.883006,1.072452,-0.016725,0.768898,0.09005,-0.435984
-0.429877,-0.874161,1.106281,-0.021928,0.796207,0.085291,-0.438472
-0.429508,-0.86807,1.129365,-0.025679,0.81471,0.081892,-0.440068
-0.428831,-0.861071,1.155509,-0.02988,0.835445,0.077993,-0.441824
-0.428777,-0.855647,1.175624,-0.033219,0.851314,0.074871,-0.443103
-0.428478,-0.847697,1.204515,-0.038007,0.873898,0.070228,-0.444873
-0.428231,-0.845193,1.213795,-0.03943,0.881099,0.068945,-0.445445
-0.427984,-0.837616,1.241524,-0.044135,0.902517,0.064332,-0.447042
-0.427519,-0.835559,1.249418,-0.045323,0.908552,0.063312,-0.447534
-0.426832,-0.82916,1.273043,-0.049259,0.926564,0.05945,-0.448848
-0.426377,-0.82713,1.280572,-0.050383,0.932264,0.058425,-0.449284
-0.426189,-0.820213,1.304849,-0.05447,0.950663,0.054128,-0.450466
-0.425583,-0.817116,1.31569,-0.056065,0.958802,0.052554,-0.451037
-0.426159,-0.810789,1.337549,-0.059909,0.975316,0.048392,-0.451949
-0.425684,-0.807547,1.348846,-0.061633,0.983752,0.046663,-0.452499
-0.426692,-0.799548,1.376256,-0.066528,1.004331,0.041247,-0.453495
-0.426664,-0.797162,1.384665,-0.067883,1.010602,0.039878,-0.453849
-0.427479,-0.789881,1.410063,-0.072365,1.029539,0.034995,-0.45471
-0.42737,-0.787633,1.418173,-0.073679,1.035541,0.033692,-0.455042
-0.428258,-0.780644,1.442905,-0.07807,1.05388,0.028888,-0.455778
-0.428263,-0.778472,1.450749,-0.079356,1.059662,0.027582,-0.456058
-0.429687,-0.771735,1.474534,-0.083593,1.077265,0.022817,-0.456604
-0.429796,-0.76869,1.485399,-0.08537,1.08524,0.020946,-0.456932
-0.431433,-0.763317,1.504733,-0.088863,1.099536,0.016983,-0.457258
-0.431257,-0.760645,1.514484,-0.090437,1.106636,0.015383,-0.457572
-0.432373,-0.754992,1.535131,-0.094105,1.121768,0.011271,-0.457924
-0.431473,-0.753938,1.538967,-0.094589,1.124466,0.010929,-0.45817
-0.432898,-0.748298,1.559493,-0.098263,1.139485,0.00668,-0.458383
-0.432014,-0.747264,1.563131,-0.09871,1.142031,0.006354,-0.458611
-0.431939,-0.743007,1.57835,-0.10125,1.153014,0.00353,-0.458893
-0.43267,-0.740866,1.586311,-0.102695,1.158838,0.001847,-0.458921
-0.43198,-0.737438,1.598677,-0.104705,1.167675,-0.00027,-0.459225
-0.432047,-0.735149,1.607123,-0.106164,1.173761,-0.001883,-0.459336
-0.431414,-0.732676,1.616198,-0.10767,1.180218,-0.003439,-0.459558
-0.430047,-0.731491,1.620497,-0.108283,1.183164,-0.003868,-0.459849
-0.429095,-0.728664,1.631069,-0.110125,1.190638,-0.005771,-0.460087
-0.4284,-0.727795,1.634292,-0.110642,1.192875,-0.00622,-0.460236
-0.427879,-0.724836,1.645179,-0.112558,1.200599,-0.008338,-0.460352
-0.427463,-0.72385,1.648771,-0.113155,1.203123,-0.008945,-0.460438
-0.427766,-0.720528,1.660987,-0.11536,1.211867,-0.011566,-0.460369
-0.427582,-0.719421,1.664984,-0.116032,1.2147,-0.012308,-0.460405
-0.428566,-0.715731,1.678528,-0.118473,1.224453,-0.015329,-0.460182
-0.429736,-0.71327,1.687813,-0.120167,1.231196,-0.017456,-0.459952
-0.430859,-0.710306,1.698835,-0.122113,1.239169,-0.019869,-0.459721
-0.432357,-0.707807,1.708382,-0.123828,1.246134,-0.022045,-0.45943
-0.43457,-0.703877,1.723205,-0.126431,1.256929,-0.025354,-0.45898
-0.436552,-0.701872,1.731428,-0.127953,1.263009,-0.027316,-0.458614
-0.438876,-0.698222,1.745718,-0.130459,1.273443,-0.030427,-0.458168
-0.440842,-0.696399,1.753547,-0.131908,1.279244,-0.032252,-0.457812
-0.443357,-0.692951,1.767524,-0.13435,1.289478,-0.035247,-0.457341
-0.445523,-0.691174,1.7754,-0.135784,1.295336,-0.037056,-0.45695
-0.44876,-0.687632,1.790012,-0.138272,1.306103,-0.040181,-0.456348
-0.451844,-0.68519,1.80086,-0.140174,1.314181,-0.042594,-0.45579
-0.455116,-0.682339,1.813393,-0.14233,1.32348,-0.045283,-0.4552
-0.457982,-0.680162,1.823499,-0.144106,1.331008,-0.047473,-0.45469
-0.461648,-0.677001,1.837862,-0.146581,1.341653,-0.050483,-0.454026
-0.464134,-0.675515,1.845515,-0.147966,1.347395,-0.052167,-0.453582
-0.467103,-0.672821,1.85815,-0.150156,1.356731,-0.054727,-0.453046
-0.467836,-0.671913,1.86229,-0.150865,1.359762,-0.055513,-0.452922
-0.364687,-0.766818,1.57156,-0.075089,1.152277,0.09601,-0.504848
-0.363721,-0.766574,1.571824,-0.074886,1.152372,0.096346,-0.505008
-0.361389,-0.765983,1.572466,-0.074402,1.152603,0.097146,-0.505393
-0.360012,-0.765647,1.572845,-0.074129,1.15274,0.09761,-0.505621
-0.358327,-0.765231,1.573309,-0.073792,1.152907,0.098178,-0.505899
-0.357093,-0.764963,1.573648,-0.073579,1.153029,0.098574,-0.506106
-0.355231,-0.764567,1.574158,-0.073263,1.153212,0.099168,-0.506419
-0.354391,-0.764427,1.574389,-0.073158,1.153295,0.099412,-0.506563
-0.352178,-0.764077,1.575,-0.072903,1.153515,0.100033,-0.50694
-0.351276,-0.76394,1.575248,-0.072802,1.153604,0.100286,-0.507095
-0.348854,-0.763645,1.575913,-0.072602,1.153843,0.100917,-0.507515
-0.347985,-0.763544,1.576151,-0.072534,1.153929,0.101143,-0.507667
-0.345758,-0.763383,1.576761,-0.072451,1.154147,0.101661,-0.50806
-0.344487,-0.7633,1.577122,-0.072431,1.154277,0.101919,-0.50828
-0.342886,-0.763185,1.577571,-0.072389,1.154438,0.102262,-0.508558
-0.341779,-0.763061,1.577895,-0.07234,1.154556,0.10249,-0.508742
-0.340055,-0.762783,1.578456,-0.072272,1.154763,0.10275,-0.508995
-0.339351,-0.762609,1.578746,-0.072279,1.154875,0.102735,-0.509066
-0.337521,-0.762371,1.579329,-0.072242,1.15509,0.103005,-0.509344
-0.336772,-0.762291,1.579559,-0.07223,1.155174,0.103128,-0.509463
-0.334796,-0.761879,1.580372,-0.072323,1.155486,0.103039,-0.509666
-0.334057,-0.761828,1.580574,-0.072301,1.155558,0.103207,-0.509797
-0.332006,-0.761731,1.581135,-0.072284,1.155758,0.103641,-0.510163
-0.330738,-0.761587,1.581566,-0.072321,1.155918,0.103744,-0.510344
-0.329049,-0.761418,1.582105,-0.072341,1.156115,0.103954,-0.510602
-0.327799,-0.761313,1.582463,-0.072315,1.156244,0.104202,-0.510815
-0.325621,-0.760858,1.58333,-0.072386,1.156573,0.104162,-0.511048
-0.324801,-0.760797,1.583553,-0.07236,1.156652,0.104351,-0.511194
-0.32246,-0.760732,1.584186,-0.072378,1.156875,0.104833,-0.511619
-0.32147,-0.760709,1.584473,-0.072419,1.156978,0.104984,-0.511789
-0.318967,-0.760423,1.585405,-0.07263,1.157326,0.104952,-0.5121
-0.3181,-0.760398,1.585637,-0.072634,1.157407,0.105136,-0.512259
-0.315873,-0.760285,1.586244,-0.072616,1.157621,0.10561,-0.512658
-0.314598,-0.760102,1.586678,-0.072631,1.15778,0.10572,-0.512835
-0.313027,-0.759904,1.587188,-0.072638,1.157966,0.105904,-0.513067
-0.311955,-0.759813,1.587499,-0.072628,1.158077,0.1061,-0.513247
-0.310295,-0.759616,1.588034,-0.072642,1.158271,0.106295,-0.513494
-0.309688,-0.759555,1.588226,-0.072651,1.158341,0.106372,-0.513588
-0.308256,-0.759439,1.588695,-0.072726,1.158511,0.106485,-0.5138
-0.307759,-0.759445,1.588831,-0.072755,1.158559,0.106567,-0.51389
-0.306578,-0.759458,1.589163,-0.072832,1.158675,0.106743,-0.514101
-0.306221,-0.759434,1.589266,-0.072834,1.158712,0.106805,-0.514161
-0.305513,-0.759198,1.589559,-0.072803,1.158822,0.106803,-0.514223
-0.305263,-0.759079,1.589642,-0.072727,1.158853,0.10688,-0.514254
-0.304973,-0.758917,1.58976,-0.072651,1.158897,0.106925,-0.514277
-0.304818,-0.758814,1.58984,-0.072621,1.158928,0.106914,-0.51428
-0.304696,-0.758689,1.589912,-0.072572,1.158957,0.106905,-0.514274
-0.304679,-0.758652,1.589923,-0.072547,1.158961,0.106915,-0.514272
-0.304633,-0.758493,1.589979,-0.07247,1.158984,0.106903,-0.514249
-0.304631,-0.758425,1.589995,-0.072432,1.158992,0.106902,-0.514237
-0.30468,-0.758245,1.590029,-0.072337,1.159007,0.106877,-0.514194
-0.304724,-0.75818,1.590033,-0.0723,1.15901,0.106864,-0.514173
-0.304925,-0.75802,1.590026,-0.072218,1.159012,0.106797,-0.514103
-0.305079,-0.757941,1.590004,-0.072168,1.159006,0.106766,-0.51406
-0.305317,-0.757836,1.589962,-0.072097,1.158993,0.106726,-0.513999
-0.305528,-0.757748,1.589925,-0.072039,1.158982,0.106685,-0.513944
-0.30593,-0.757581,1.589868,-0.071947,1.158967,0.106576,-0.513834
-0.306072,-0.757525,1.589847,-0.071916,1.158961,0.106538,-0.513796
-0.306368,-0.75743,1.589789,-0.071851,1.158942,0.106482,-0.513725
-0.306455,-0.757403,1.589772,-0.071834,1.158937,0.106463,-0.513704
-0.306703,-0.757342,1.589724,-0.071797,1.158922,0.106404,-0.513645
-0.306781,-0.757329,1.589709,-0.071791,1.158917,0.106382,-0.513627
-0.307006,-0.757317,1.589663,-0.071794,1.158902,0.106308,-0.513577
-0.307106,-0.757326,1.589641,-0.071805,1.158895,0.106273,-0.513557
-0.307319,-0.757317,1.589598,-0.07181,1.158881,0.1062,-0.51351
-0.307461,-0.757308,1.589565,-0.071806,1.15887,0.106163,-0.51348
-0.307833,-0.757262,1.589484,-0.071778,1.158843,0.106071,-0.513399
-0.307946,-0.757245,1.58946,-0.071768,1.158835,0.106043,-0.513374
-0.308243,-0.757185,1.589399,-0.07173,1.158815,0.105975,-0.513306
-0.308324,-0.757161,1.589383,-0.071714,1.15881,0.105958,-0.513287
-0.308558,-0.75709,1.589338,-0.071669,1.158796,0.105908,-0.51323
-0.3086,-0.757081,1.58933,-0.071662,1.158793,0.1059,-0.513221
-0.308892,-0.757029,1.589269,-0.07163,1.158773,0.105829,-0.513155
-0.309013,-0.757015,1.589242,-0.071622,1.158764,0.105799,-0.513129
-0.309177,-0.756999,1.589205,-0.071612,1.158752,0.105759,-0.513094
-0.309308,-0.756987,1.589176,-0.071605,1.158742,0.105726,-0.513066
-0.309471,-0.75698,1.589138,-0.071601,1.158729,0.105684,-0.513033
-0.30952,-0.756978,1.589127,-0.0716,1.158725,0.105671,-0.513023
-0.30966,-0.756965,1.589095,-0.071593,1.158715,0.105636,-0.512993
-0.309674,-0.756963,1.589092,-0.071592,1.158714,0.105633,-0.51299
-0.309781,-0.756943,1.589069,-0.071578,1.158706,0.105609,-0.512966
-0.309781,-0.756943,1.589069,-0.071578,1.158706,0.105609,-0.512966
-0.309887,-0.756877,1.58905,-0.071528,1.158701,0.105604,-0.512938
-0.30992,-0.756847,1.589045,-0.071505,1.158699,0.105606,-0.512928
-0.309953,-0.756825,1.589039,-0.071488,1.158697,0.105605,-0.512919
-0.309953,-0.756825,1.589039,-0.071488,1.158697,0.105605,-0.512919
-0.309977,-0.756893,1.589029,-0.071544,1.158693,0.105569,-0.51292
-0.309981,-0.756942,1.589025,-0.071585,1.158692,0.105545,-0.512924
-0.30988,-0.757055,1.589046,-0.071683,1.158698,0.105513,-0.512952
-0.309784,-0.757105,1.58907,-0.07173,1.158706,0.105506,-0.512974
-0.309591,-0.757204,1.589115,-0.071817,1.158721,0.105502,-0.513018
-0.309488,-0.757245,1.58914,-0.071856,1.15873,0.105501,-0.51304
-0.309383,-0.75729,1.589167,-0.071899,1.158739,0.105498,-0.513063
-0.309383,-0.75729,1.589167,-0.071899,1.158739,0.105498,-0.513063
-0.309374,-0.757304,1.589168,-0.071911,1.158739,0.105494,-0.513066
-0.309377,-0.757323,1.589166,-0.071926,1.158738,0.105485,-0.513067
-0.309519,-0.757396,1.589128,-0.071987,1.158724,0.105415,-0.513045
-0.30957,-0.757414,1.589115,-0.072002,1.15872,0.105393,-0.513037
-0.309716,-0.75749,1.589075,-0.072066,1.158705,0.105321,-0.513014
-0.309753,-0.757522,1.589064,-0.072093,1.158701,0.105297,-0.513009
-0.309848,-0.757633,1.589034,-0.072185,1.15869,0.105223,-0.513
-0.309848,-0.757633,1.589034,-0.072185,1.15869,0.105223,-0.513
-0.309899,-0.757689,1.589018,-0.072231,1.158684,0.105186,-0.512995
-0.309915,-0.757702,1.589013,-0.072242,1.158683,0.105176,-0.512993
-0.309964,-0.757728,1.589,-0.072264,1.158678,0.105152,-0.512986
-0.309983,-0.757735,1.588995,-0.072269,1.158676,0.105144,-0.512982
-0.310116,-0.757741,1.588963,-0.072275,1.158665,0.105105,-0.512956
-0.310116,-0.757741,1.588963,-0.072275,1.158665,0.105105,-0.512956
-0.310116,-0.757741,1.588963,-0.072275,1.158665,0.105105,-0.512956
-0.310072,-0.757778,1.588972,-0.072308,1.158668,0.105098,-0.512968
-0.309838,-0.757857,1.589028,-0.072379,1.158687,0.105112,-0.513019
-0.309699,-0.757885,1.589064,-0.072407,1.158699,0.105126,-0.513047
-0.309471,-0.757903,1.589123,-0.072427,1.158719,0.105165,-0.513091
-0.309286,-0.75791,1.589171,-0.072439,1.158736,0.105199,-0.513126
-0.30907,-0.75792,1.589228,-0.072454,1.158756,0.105238,-0.513168
-0.308886,-0.757937,1.589276,-0.072474,1.158773,0.105267,-0.513203
-0.308622,-0.757968,1.589343,-0.072506,1.158796,0.105308,-0.513256
-0.308459,-0.757993,1.589385,-0.072532,1.15881,0.105329,-0.513288
-0.308059,-0.758069,1.589488,-0.07261,1.158846,0.10537,-0.513369
-0.307915,-0.758101,1.589524,-0.072642,1.158858,0.105384,-0.513398
-0.307497,-0.758213,1.589629,-0.072749,1.158894,0.105415,-0.513485
-0.307448,-0.758241,1.58964,-0.072773,1.158898,0.105413,-0.513497
-0.307332,-0.758376,1.589663,-0.072888,1.158904,0.105377,-0.51353
-0.307323,-0.758442,1.589661,-0.072942,1.158903,0.10535,-0.513538
-0.307341,-0.758534,1.58965,-0.073017,1.158899,0.105306,-0.513542
-0.307371,-0.758612,1.589638,-0.073081,1.158893,0.105265,-0.513543
-0.307496,-0.758746,1.589598,-0.073191,1.158879,0.105176,-0.513531
-0.307515,-0.758762,1.589592,-0.073204,1.158877,0.105164,-0.513528
-0.30777,-0.758855,1.589523,-0.073278,1.158852,0.105063,-0.513487
-0.307933,-0.758873,1.589481,-0.073292,1.158837,0.105015,-0.513457
-0.308224,-0.758908,1.589406,-0.073319,1.158811,0.10493,-0.513403
-0.30831,-0.75892,1.589384,-0.073329,1.158803,0.104904,-0.513388
-0.308533,-0.75896,1.589326,-0.07336,1.158783,0.104833,-0.513348
-0.308597,-0.758981,1.589308,-0.073376,1.158777,0.104808,-0.513337
-0.308672,-0.759023,1.589287,-0.07341,1.158769,0.104772,-0.513327
-0.308741,-0.759075,1.589266,-0.073452,1.158761,0.104734,-0.513318
-0.30887,-0.759202,1.589225,-0.073555,1.158746,0.104648,-0.513304
-0.308874,-0.759208,1.589224,-0.07356,1.158746,0.104645,-0.513304
-0.308975,-0.75937,1.589188,-0.073692,1.158732,0.104551,-0.513299
-0.308987,-0.759392,1.589183,-0.073709,1.15873,0.104539,-0.513298
-0.309029,-0.759503,1.589165,-0.073799,1.158723,0.104483,-0.5133
-0.309034,-0.759533,1.589162,-0.073824,1.158721,0.104469,-0.513302
-0.308872,-0.759648,1.589196,-0.073921,1.158732,0.104455,-0.513343
-0.308685,-0.759684,1.589242,-0.073954,1.158748,0.10448,-0.513382
-0.308484,-0.759717,1.589292,-0.073985,1.158765,0.10451,-0.513423
-0.308417,-0.759729,1.589308,-0.073996,1.15877,0.10452,-0.513437
-0.30834,-0.759742,1.589327,-0.074008,1.158777,0.104531,-0.513453
-0.308334,-0.759743,1.589329,-0.074009,1.158777,0.104532,-0.513454
-0.308287,-0.759799,1.589337,-0.074055,1.15878,0.104519,-0.513468
-0.308279,-0.759821,1.589338,-0.074074,1.15878,0.104511,-0.513471
-0.308303,-0.759925,1.589324,-0.074158,1.158774,0.104461,-0.513476
-0.308335,-0.759989,1.589312,-0.07421,1.158769,0.104427,-0.513476
-0.308479,-0.76011,1.589267,-0.074307,1.158753,0.104342,-0.513459
-0.30855,-0.760158,1.589246,-0.074345,1.158745,0.104305,-0.51345
-0.308778,-0.760238,1.589182,-0.074407,1.158722,0.104219,-0.513413
-0.309002,-0.760268,1.589123,-0.074429,1.158702,0.104154,-0.513373
-0.30951,-0.760285,1.588993,-0.074437,1.158657,0.10403,-0.513277
-0.309592,-0.7603,1.588971,-0.074448,1.158649,0.104004,-0.513262
-0.309901,-0.760385,1.588886,-0.074513,1.158619,0.103898,-0.513211
-0.309983,-0.76042,1.588863,-0.07454,1.15861,0.103865,-0.513198
-0.310184,-0.76056,1.588801,-0.074651,1.158588,0.103761,-0.513172
-0.310203,-0.760583,1.588795,-0.074669,1.158585,0.103747,-0.513171
-0.310305,-0.760772,1.588755,-0.074821,1.15857,0.103645,-0.513169
-0.310316,-0.760851,1.588747,-0.074885,1.158566,0.10361,-0.513174
-0.310288,-0.760962,1.588746,-0.074975,1.158565,0.10357,-0.51319
-0.310148,-0.761104,1.588772,-0.075092,1.158572,0.103543,-0.51323
-0.30987,-0.761253,1.588832,-0.075216,1.158592,0.103546,-0.513296
-0.309685,-0.761327,1.588874,-0.075278,1.158606,0.103558,-0.513339
-0.309362,-0.761466,1.588947,-0.075395,1.158629,0.103574,-0.513414
-0.309155,-0.761541,1.588994,-0.075458,1.158645,0.103592,-0.51346
-0.308681,-0.761701,1.589102,-0.075592,1.158681,0.103637,-0.513567
-0.3086,-0.76173,1.589121,-0.075616,1.158687,0.103644,-0.513585
-0.30805,-0.76187,1.58925,-0.075735,1.15873,0.103715,-0.513704
-0.307816,-0.761922,1.589306,-0.075779,1.158749,0.103748,-0.513754
-0.30747,-0.76199,1.58939,-0.075838,1.158777,0.1038,-0.513826
-0.30716,-0.762045,1.589465,-0.075886,1.158802,0.103849,-0.513891
-0.306575,-0.762137,1.589607,-0.075967,1.15885,0.103949,-0.514012
-0.306405,-0.762159,1.589648,-0.075987,1.158863,0.103979,-0.514047
-0.305925,-0.762217,1.589766,-0.076037,1.158903,0.104069,-0.514145
-0.305848,-0.762221,1.589785,-0.076041,1.15891,0.104085,-0.51416
-0.305355,-0.762262,1.589907,-0.07608,1.158951,0.104184,-0.514259
-0.305268,-0.762265,1.589929,-0.076083,1.158959,0.104203,-0.514276
-0.304649,-0.762318,1.590082,-0.076133,1.159011,0.104325,-0.5144
-0.304373,-0.762337,1.590151,-0.076152,1.159034,0.104381,-0.514455
-0.303861,-0.762389,1.590278,-0.0762,1.159077,0.104478,-0.514559
-0.303597,-0.762417,1.590343,-0.076227,1.159099,0.104527,-0.514612
-0.302991,-0.7625,1.590492,-0.076301,1.159149,0.104633,-0.514736
-0.302823,-0.762523,1.590532,-0.076322,1.159163,0.104662,-0.51477
-0.302521,-0.76257,1.590606,-0.076364,1.159187,0.104712,-0.514833
-0.302439,-0.762588,1.590626,-0.07638,1.159194,0.104724,-0.51485
-0.302214,-0.762629,1.590681,-0.076416,1.159212,0.104758,-0.514897
-0.302189,-0.762628,1.590687,-0.076416,1.159214,0.104764,-0.514902
-0.301967,-0.762574,1.590747,-0.076375,1.159235,0.104838,-0.51494
-0.301896,-0.762532,1.590769,-0.076341,1.159243,0.104872,-0.514949
-0.301735,-0.762438,1.590816,-0.076267,1.15926,0.104948,-0.514972
-0.301671,-0.762389,1.590836,-0.076228,1.159268,0.104984,-0.514979
-0.301489,-0.762259,1.590892,-0.076126,1.159288,0.105079,-0.515003
-0.301467,-0.76224,1.590899,-0.07611,1.159291,0.105092,-0.515005
-0.301276,-0.762109,1.590957,-0.076008,1.159312,0.10519,-0.51503
-0.301253,-0.762092,1.590964,-0.075994,1.159314,0.105202,-0.515032
-0.30107,-0.761981,1.591019,-0.075907,1.159334,0.105289,-0.515057
-0.30107,-0.761981,1.591019,-0.075907,1.159334,0.105289,-0.515057
-0.301057,-0.761952,1.591025,-0.075884,1.159337,0.105304,-0.515057
-0.301053,-0.761926,1.591028,-0.075863,1.159338,0.105316,-0.515055
-0.301063,-0.761897,1.591027,-0.075839,1.159338,0.105326,-0.515051
-0.301118,-0.761831,1.591018,-0.075785,1.159335,0.105341,-0.515034
-0.301305,-0.761724,1.590978,-0.075696,1.159323,0.105342,-0.514989
-0.30131,-0.761721,1.590977,-0.075693,1.159323,0.105343,-0.514987
-0.301374,-0.761661,1.590965,-0.075643,1.159319,0.105353,-0.514969
-0.301378,-0.761656,1.590964,-0.075639,1.159319,0.105354,-0.514968
-0.30138,-0.761628,1.590966,-0.075616,1.15932,0.105365,-0.514965
-0.30138,-0.761628,1.590966,-0.075616,1.15932,0.105365,-0.514965
-0.301188,-0.761597,1.591017,-0.075595,1.159338,0.10542,-0.514999
-0.301004,-0.761632,1.591063,-0.075627,1.159353,0.105446,-0.515037
-0.300757,-0.761696,1.591122,-0.075684,1.159372,0.105474,-0.51509
-0.300538,-0.761764,1.591173,-0.075743,1.159389,0.105494,-0.515138
-0.300201,-0.761887,1.591251,-0.075849,1.159415,0.105518,-0.515213
-0.299979,-0.76195,1.591304,-0.075904,1.159432,0.10554,-0.515261
-0.299403,-0.762067,1.591444,-0.07601,1.159479,0.105618,-0.515382
-0.299202,-0.762098,1.591494,-0.076039,1.159496,0.10565,-0.515423
-0.2985,-0.762185,1.591669,-0.076123,1.159555,0.105769,-0.515565
-0.298252,-0.762208,1.591731,-0.076146,1.159576,0.105814,-0.515614
-0.297389,-0.762271,1.591949,-0.076214,1.159649,0.105979,-0.515784
-0.29683,-0.762302,1.592091,-0.076251,1.159698,0.106088,-0.515893
-0.296106,-0.762342,1.592275,-0.076298,1.15976,0.10623,-0.516035
-0.295522,-0.762382,1.592423,-0.076343,1.15981,0.10634,-0.516149
-0.29455,-0.762451,1.592669,-0.076418,1.159893,0.106525,-0.516341
-0.294234,-0.76247,1.592749,-0.07644,1.15992,0.106586,-0.516403
-0.293396,-0.762523,1.592962,-0.076502,1.159992,0.106746,-0.516567
-0.293169,-0.762531,1.59302,-0.076514,1.160012,0.106791,-0.51661
-0.292543,-0.762561,1.593181,-0.076553,1.160066,0.106913,-0.516732
-0.292349,-0.762571,1.59323,-0.076566,1.160083,0.10695,-0.516769
-0.291779,-0.762615,1.593376,-0.076616,1.160132,0.107053,-0.516881
-0.291534,-0.762637,1.593438,-0.076639,1.160153,0.107096,-0.51693
-0.291175,-0.762684,1.593527,-0.076685,1.160183,0.107154,-0.517002
-0.290839,-0.762749,1.593609,-0.076746,1.16021,0.1072,-0.517072
-0.290193,-0.762899,1.593766,-0.076883,1.160262,0.107275,-0.517208
-0.290029,-0.76294,1.593806,-0.076921,1.160275,0.107293,-0.517243
-0.28979,-0.76299,1.593864,-0.076967,1.160294,0.107323,-0.517293
-0.28979,-0.76299,1.593864,-0.076967,1.160294,0.107323,-0.517293
-0.289768,-0.762987,1.59387,-0.076965,1.160296,0.107329,-0.517297
-0.289768,-0.762987,1.59387,-0.076965,1.160296,0.107329,-0.517297
-0.289768,-0.762987,1.59387,-0.076965,1.160296,0.107329,-0.517297
-0.28976,-0.762963,1.593874,-0.076946,1.160298,0.107341,-0.517296
-0.28976,-0.762956,1.593874,-0.07694,1.160298,0.107344,-0.517295
-0.289762,-0.76295,1.593874,-0.076935,1.160298,0.107346,-0.517294
-0.289762,-0.76295,1.593874,-0.076935,1.160298,0.107346,-0.517294
-0.289762,-0.76295,1.593874,-0.076935,1.160298,0.107346,-0.517294
-0.289768,-0.762951,1.593873,-0.076936,1.160297,0.107344,-0.517293
-0.289834,-0.762978,1.593854,-0.076956,1.160291,0.107317,-0.517283
-0.289894,-0.763042,1.593834,-0.077008,1.160283,0.107276,-0.517277
-0.289905,-0.763065,1.59383,-0.077026,1.160282,0.107264,-0.517277
-0.289804,-0.763208,1.593846,-0.077146,1.160286,0.107225,-0.517309
-0.289653,-0.763293,1.593879,-0.077219,1.160296,0.107221,-0.517345
-0.289436,-0.763404,1.593927,-0.077314,1.160311,0.107222,-0.517396
-0.289234,-0.763503,1.593972,-0.077398,1.160325,0.107224,-0.517444
-0.288915,-0.763667,1.594043,-0.077538,1.160347,0.107226,-0.51752
-0.28872,-0.76375,1.594087,-0.07761,1.160361,0.107234,-0.517564
-0.288419,-0.763896,1.594154,-0.077735,1.160382,0.107239,-0.517635
-0.288236,-0.76397,1.594196,-0.077798,1.160396,0.107248,-0.517677
-0.287966,-0.764098,1.594256,-0.077908,1.160415,0.107254,-0.51774
-0.287891,-0.764136,1.594273,-0.07794,1.16042,0.107255,-0.517758
-0.287715,-0.764246,1.59431,-0.078033,1.160431,0.107248,-0.517801
-0.287711,-0.764251,1.59431,-0.078037,1.160431,0.107246,-0.517802
-0.287672,-0.764308,1.594316,-0.078084,1.160433,0.107231,-0.517815
-0.287672,-0.764308,1.594316,-0.078084,1.160433,0.107231,-0.517815
-0.287672,-0.764308,1.594316,-0.078084,1.160433,0.107231,-0.517815
-0.287672,-0.764308,1.594316,-0.078084,1.160433,0.107231,-0.517815
-0.287696,-0.764308,1.59431,-0.078084,1.160431,0.107226,-0.51781
-0.287766,-0.764295,1.594293,-0.078072,1.160425,0.107215,-0.517796
-0.287849,-0.764275,1.594273,-0.078055,1.160419,0.107205,-0.517778
-0.287855,-0.764275,1.594272,-0.078054,1.160418,0.107204,-0.517777
-0.287908,-0.764319,1.594255,-0.078089,1.160412,0.107174,-0.517771
-0.287915,-0.764347,1.594251,-0.078111,1.16041,0.107161,-0.517772
-0.287881,-0.764453,1.594252,-0.078198,1.160409,0.107123,-0.517788
-0.28772,-0.764603,1.594282,-0.078322,1.160418,0.107097,-0.517832
-0.287417,-0.764802,1.594346,-0.07849,1.160437,0.107082,-0.517909
-0.287221,-0.764896,1.594389,-0.07857,1.160451,0.107087,-0.517955
-0.286926,-0.765023,1.594455,-0.078678,1.160471,0.1071,-0.518023
-0.286755,-0.765073,1.594495,-0.078721,1.160484,0.107118,-0.51806
-0.286465,-0.765138,1.594565,-0.078779,1.160507,0.107156,-0.518122
-0.286266,-0.765178,1.594612,-0.078815,1.160523,0.107185,-0.518164
-0.285707,-0.765266,1.594749,-0.078896,1.160567,0.107275,-0.518279
-0.285426,-0.765304,1.594818,-0.078932,1.16059,0.107323,-0.518336
-0.284911,-0.765394,1.594942,-0.079013,1.160631,0.107402,-0.518444
-0.284667,-0.765462,1.595,-0.079073,1.160649,0.107429,-0.518497
-0.284124,-0.76563,1.595126,-0.079218,1.16069,0.107483,-0.518616
-0.284039,-0.76566,1.595146,-0.079244,1.160696,0.107489,-0.518635
-0.283539,-0.765758,1.595266,-0.079331,1.160735,0.107563,-0.518741
-0.283471,-0.765758,1.595283,-0.079333,1.160741,0.107578,-0.518754
-0.283151,-0.765762,1.595365,-0.079342,1.160768,0.107649,-0.518816
-0.282957,-0.76578,1.595413,-0.079359,1.160784,0.107685,-0.518854
-0.282474,-0.76585,1.595531,-0.079425,1.160823,0.107766,-0.518954
-0.282251,-0.765889,1.595585,-0.079461,1.16084,0.1078,-0.519
-0.281956,-0.765949,1.595656,-0.079514,1.160863,0.107841,-0.519062
-0.281737,-0.766001,1.595708,-0.079561,1.16088,0.107869,-0.519109
-0.28149,-0.766079,1.595766,-0.079629,1.160898,0.107891,-0.519163
-0.28142,-0.766105,1.595782,-0.079652,1.160904,0.107897,-0.519179
-0.281222,-0.766186,1.595826,-0.07972,1.160917,0.107908,-0.519225
-0.281222,-0.766186,1.595826,-0.07972,1.160917,0.107908,-0.519225
-0.281075,-0.766279,1.595857,-0.079798,1.160927,0.107902,-0.519261
-0.281075,-0.766279,1.595857,-0.079798,1.160927,0.107902,-0.519261
-0.28095,-0.76642,1.595878,-0.079914,1.160932,0.107873,-0.519298
-0.280914,-0.766477,1.595883,-0.079962,1.160933,0.107857,-0.51931
-0.280862,-0.766561,1.59589,-0.08003,1.160934,0.107834,-0.519328
-0.280737,-0.766673,1.595913,-0.080123,1.160941,0.107816,-0.519362
-0.280582,-0.766795,1.595943,-0.080224,1.160949,0.107801,-0.519404
-0.280566,-0.766814,1.595946,-0.080239,1.16095,0.107798,-0.519408
-0.280465,-0.766964,1.59596,-0.080362,1.160953,0.107759,-0.519442
-0.280465,-0.766964,1.59596,-0.080362,1.160953,0.107759,-0.519442
-0.280486,-0.767082,1.595946,-0.080457,1.160947,0.107706,-0.519448
-0.280517,-0.767149,1.595933,-0.08051,1.160941,0.107672,-0.519449
-0.280714,-0.767243,1.595874,-0.080582,1.160921,0.107591,-0.519421
-0.280894,-0.767278,1.595824,-0.080604,1.160903,0.10754,-0.51939
-0.281113,-0.767325,1.595763,-0.080636,1.160882,0.107475,-0.519353
-0.281288,-0.767372,1.595713,-0.080669,1.160865,0.10742,-0.519325
-0.28153,-0.767464,1.595642,-0.080737,1.16084,0.107331,-0.519288
-0.281608,-0.767495,1.595619,-0.080759,1.160832,0.107302,-0.519276
-0.281891,-0.767583,1.595538,-0.080823,1.160804,0.107207,-0.519231
-0.282052,-0.767613,1.595493,-0.080842,1.160789,0.107162,-0.519204
-0.282281,-0.767683,1.595427,-0.080892,1.160766,0.107087,-0.519167
-0.282338,-0.767706,1.59541,-0.080909,1.16076,0.107066,-0.519159
-0.282367,-0.767765,1.595398,-0.080956,1.160755,0.107036,-0.519159
-0.282364,-0.76779,1.595397,-0.080975,1.160754,0.107027,-0.519162
-0.282326,-0.767865,1.5954,-0.081037,1.160755,0.107005,-0.519176
-0.282292,-0.767921,1.595404,-0.081082,1.160755,0.10699,-0.519188
-0.282261,-0.767987,1.595407,-0.081135,1.160755,0.106971,-0.5192
-0.282252,-0.768007,1.595408,-0.081152,1.160755,0.106965,-0.519204
-0.282174,-0.76814,1.595416,-0.081258,1.160757,0.106932,-0.519232
-0.282172,-0.768145,1.595416,-0.081262,1.160756,0.10693,-0.519233
-0.28208,-0.768304,1.595426,-0.08139,1.160758,0.106889,-0.519266
-0.375718,-0.666888,1.877397,-0.157552,1.356681,-0.05864,-0.44985
-0.375676,-0.666975,1.877401,-0.157635,1.356683,-0.058684,-0.44986
-0.375575,-0.667093,1.87742,-0.157759,1.35669,-0.058746,-0.449883
-0.375406,-0.667214,1.877326,-0.157859,1.356607,-0.058782,-0.449916
-0.374797,-0.667373,1.876211,-0.157721,1.355736,-0.058604,-0.450001
-0.373356,-0.6677,1.873467,-0.157318,1.353596,-0.058138,-0.4502
-0.373356,-0.6677,1.873467,-0.157318,1.353596,-0.058138,-0.4502
-0.373314,-0.667773,1.873468,-0.157388,1.353595,-0.058174,-0.45021
-0.373208,-0.667795,1.873363,-0.157389,1.353507,-0.05816,-0.450228
-0.373071,-0.667805,1.873269,-0.157388,1.353424,-0.05814,-0.450252
-0.37303,-0.667811,1.873236,-0.157388,1.353396,-0.058134,-0.45026
-0.373002,-0.667809,1.873241,-0.157392,1.353396,-0.058134,-0.450265
-0.372994,-0.667809,1.873243,-0.157394,1.353396,-0.058134,-0.450267
-0.3728,-0.66786,1.872881,-0.157349,1.353114,-0.058077,-0.450294
-0.372283,-0.667988,1.871845,-0.157197,1.352309,-0.057906,-0.450365
-0.371758,-0.668184,1.870702,-0.157072,1.351429,-0.057749,-0.450436
-0.37126,-0.668312,1.869673,-0.156921,1.350631,-0.057583,-0.450503
-0.370779,-0.668507,1.868531,-0.15679,1.349756,-0.05743,-0.450565
-0.370303,-0.668632,1.867514,-0.156638,1.34897,-0.057267,-0.450629
-0.369873,-0.668823,1.866384,-0.156501,1.34811,-0.057118,-0.450681
-0.369869,-0.668869,1.866237,-0.156493,1.348005,-0.057112,-0.450678
-0.369511,-0.669018,1.865108,-0.156309,1.347151,-0.056946,-0.450715
-0.369605,-0.669046,1.865065,-0.156305,1.347132,-0.056955,-0.450696
-0.369592,-0.669124,1.86463,-0.156234,1.346819,-0.056907,-0.450686
-0.369154,-0.669252,1.863571,-0.156066,1.346006,-0.056743,-0.45074
-0.368751,-0.669418,1.862489,-0.15592,1.345181,-0.056596,-0.450786
-0.368767,-0.669436,1.862479,-0.15593,1.345176,-0.056604,-0.450783
-0.368633,-0.669515,1.862084,-0.15589,1.344878,-0.056561,-0.450798
-0.368563,-0.66953,1.861965,-0.155876,1.344784,-0.056542,-0.450808
-0.368529,-0.66953,1.861973,-0.155883,1.344785,-0.056542,-0.450815
-0.368524,-0.669529,1.861974,-0.155883,1.344786,-0.056542,-0.450816
-0.368499,-0.66951,1.861984,-0.155874,1.344789,-0.056533,-0.450821
-0.368488,-0.6695,1.861989,-0.155868,1.344791,-0.056528,-0.450823
-0.368448,-0.669462,1.862006,-0.155847,1.344798,-0.056511,-0.450831
-0.368433,-0.669447,1.862013,-0.155838,1.3448,-0.056504,-0.450834
-0.368379,-0.66939,1.862039,-0.155806,1.34481,-0.056478,-0.450844
-0.36836,-0.669374,1.862047,-0.155797,1.344814,-0.05647,-0.450847
-0.368146,-0.669294,1.862133,-0.155787,1.344847,-0.056438,-0.45089
-0.368069,-0.669276,1.862162,-0.155793,1.344859,-0.056431,-0.450906
-0.367757,-0.669219,1.862281,-0.155828,1.344906,-0.056413,-0.45097
-0.367587,-0.66919,1.862345,-0.155849,1.344932,-0.056404,-0.451005
-0.367299,-0.669127,1.862457,-0.155873,1.344977,-0.056382,-0.451064
-0.367073,-0.669079,1.862545,-0.155893,1.345012,-0.056365,-0.45111
-0.366793,-0.668998,1.862657,-0.155901,1.345057,-0.056335,-0.451167
-0.366548,-0.668907,1.862758,-0.155892,1.345099,-0.056298,-0.451216
-0.366085,-0.668712,1.862962,-0.155858,1.345184,-0.05622,-0.451309
-0.36593,-0.668645,1.863031,-0.155846,1.345213,-0.056194,-0.45134
-0.365902,-0.668408,1.864321,-0.156067,1.346134,-0.056338,-0.451376
-0.365674,-0.668363,1.864425,-0.156096,1.346181,-0.056326,-0.451423
-0.365574,-0.668173,1.865667,-0.156354,1.34706,-0.056484,-0.451471
-0.36538,-0.668129,1.865758,-0.156374,1.347102,-0.056472,-0.451512
-0.365486,-0.667928,1.866983,-0.156586,1.347991,-0.05663,-0.451517
-0.365453,-0.667829,1.867431,-0.156653,1.348308,-0.056673,-0.451532
-0.365744,-0.667634,1.868645,-0.15684,1.34921,-0.056842,-0.4515
-0.366083,-0.667457,1.86978,-0.15701,1.350063,-0.057006,-0.451456
-0.367141,-0.66707,1.872566,-0.157436,1.352182,-0.057449,-0.451304
-0.367052,-0.667008,1.87261,-0.157411,1.352201,-0.057424,-0.451321
-0.211065,-0.711577,1.519361,-0.088777,1.07524,-0.008471,-0.509403
-0.211048,-0.711556,1.519367,-0.088759,1.075242,-0.008458,-0.509404
-0.210828,-0.711373,1.519443,-0.088601,1.075272,-0.008322,-0.509424
-0.210757,-0.711331,1.519467,-0.088563,1.075282,-0.008285,-0.509432
-0.210489,-0.711245,1.519556,-0.08848,1.07532,-0.008173,-0.509471
-0.210297,-0.711219,1.519619,-0.08845,1.075347,-0.008107,-0.509502
-0.21007,-0.711199,1.519693,-0.088423,1.07538,-0.008034,-0.50954
-0.20987,-0.711198,1.519758,-0.088412,1.075408,-0.007975,-0.509576
-0.209564,-0.71121,1.519857,-0.088407,1.075452,-0.007891,-0.509632
-0.209389,-0.711223,1.519913,-0.088409,1.075477,-0.007845,-0.509664
-0.209113,-0.711209,1.520003,-0.088384,1.075517,-0.007759,-0.509712
-0.209026,-0.711197,1.520032,-0.08837,1.075529,-0.007729,-0.509726
-0.208725,-0.711166,1.52013,-0.08833,1.075572,-0.007629,-0.509777
-0.208633,-0.711166,1.52016,-0.088326,1.075585,-0.007602,-0.509793
-0.208296,-0.711231,1.520267,-0.088362,1.075634,-0.00753,-0.50986
-0.208064,-0.711299,1.520341,-0.088405,1.075667,-0.007488,-0.509909
-0.20783,-0.71137,1.520414,-0.088451,1.0757,-0.007448,-0.509958
-0.207662,-0.711413,1.520467,-0.088478,1.075724,-0.007416,-0.509993
-0.207468,-0.711461,1.520528,-0.088507,1.075751,-0.007379,-0.510033
-0.207447,-0.711466,1.520535,-0.08851,1.075755,-0.007375,-0.510037
-0.207279,-0.711499,1.520587,-0.088528,1.075778,-0.007339,-0.510071
-0.207279,-0.711499,1.520587,-0.088528,1.075778,-0.007339,-0.510071
-0.207279,-0.711499,1.520587,-0.088528,1.075778,-0.007339,-0.510071
-0.207279,-0.711499,1.520587,-0.088528,1.075778,-0.007339,-0.510071
-0.207342,-0.711495,1.520566,-0.088528,1.075768,-0.007356,-0.510059
-0.207552,-0.711479,1.520496,-0.088524,1.075736,-0.007411,-0.510021
-0.207834,-0.711458,1.520403,-0.08852,1.075694,-0.007485,-0.50997
-0.2081,-0.711439,1.520314,-0.088517,1.075653,-0.007556,-0.509922
-0.208663,-0.711395,1.520126,-0.088508,1.075567,-0.007704,-0.509819
-0.208853,-0.711379,1.520063,-0.088503,1.075538,-0.007753,-0.509785
-0.209499,-0.711279,1.51985,-0.088453,1.075441,-0.007903,-0.509662
-0.209733,-0.711234,1.519772,-0.088428,1.075405,-0.007955,-0.509616
-0.210473,-0.711082,1.51953,-0.08834,1.075293,-0.008112,-0.509471
-0.210696,-0.711036,1.519457,-0.088314,1.07526,-0.008159,-0.509427
-0.211339,-0.710904,1.519247,-0.088238,1.075163,-0.008296,-0.509301
-0.211616,-0.710846,1.519157,-0.088205,1.075122,-0.008355,-0.509246
-0.211968,-0.710771,1.519042,-0.088161,1.075069,-0.008429,-0.509176
-0.212235,-0.71071,1.518955,-0.088125,1.075029,-0.008483,-0.509123
-0.212536,-0.710635,1.518858,-0.088079,1.074984,-0.008542,-0.509062
-0.212608,-0.710617,1.518834,-0.088068,1.074973,-0.008556,-0.509048
-0.212608,-0.710617,1.518834,-0.088068,1.074973,-0.008556,-0.509048
-0.212608,-0.710617,1.518834,-0.088068,1.074973,-0.008556,-0.509048
-0.21234,-0.710715,1.51892,-0.088134,1.075013,-0.008516,-0.509105
-0.212153,-0.710748,1.51898,-0.088151,1.07504,-0.008474,-0.509142
-0.211596,-0.710775,1.519161,-0.088145,1.075121,-0.008322,-0.509244
-0.211305,-0.710764,1.519256,-0.088122,1.075163,-0.008233,-0.509294
-0.210944,-0.710743,1.519375,-0.088087,1.075215,-0.008119,-0.509356
-0.210729,-0.710715,1.519446,-0.088055,1.075246,-0.008045,-0.509391
-0.210556,-0.710638,1.519503,-0.087984,1.075271,-0.007965,-0.509414
-0.210551,-0.710634,1.519505,-0.087981,1.075271,-0.007962,-0.509414
-0.210331,-0.710616,1.519577,-0.087955,1.075303,-0.00789,-0.509452
-0.210263,-0.710634,1.519599,-0.087966,1.075313,-0.007878,-0.509466
-0.210051,-0.710719,1.519665,-0.088024,1.075343,-0.007849,-0.509512
-0.210051,-0.710719,1.519665,-0.088024,1.075343,-0.007849,-0.509512
-0.210051,-0.710719,1.519665,-0.088024,1.075343,-0.007849,-0.509512
-0.210051,-0.710719,1.519665,-0.088024,1.075343,-0.007849,-0.509512
-0.210051,-0.710719,1.519665,-0.088024,1.075343,-0.007849,-0.509512
-0.210051,-0.710719,1.519665,-0.088024,1.075343,-0.007849,-0.509512
-0.210051,-0.710719,1.519665,-0.088024,1.075343,-0.007849,-0.509512
-0.210057,-0.710722,1.519663,-0.088027,1.075343,-0.007852,-0.509512
-0.210057,-0.710722,1.519663,-0.088027,1.075343,-0.007852,-0.509512
-0.210067,-0.710697,1.519661,-0.088007,1.075341,-0.007845,-0.509507
-0.210061,-0.710569,1.519665,-0.087903,1.075341,-0.007793,-0.509495
-0.210043,-0.710495,1.519673,-0.087843,1.075343,-0.007759,-0.50949
-0.209964,-0.710425,1.5197,-0.087783,1.075354,-0.007709,-0.509497
-0.209798,-0.710375,1.519755,-0.087734,1.075377,-0.007641,-0.509522
-0.209631,-0.710338,1.519809,-0.087696,1.0754,-0.007578,-0.509548
-0.209554,-0.710305,1.519835,-0.087665,1.075411,-0.007542,-0.509558
-0.209315,-0.710214,1.519915,-0.087581,1.075445,-0.007437,-0.509591
-0.209244,-0.710191,1.519938,-0.087559,1.075455,-0.007408,-0.509601
-0.208994,-0.710158,1.52002,-0.08752,1.07549,-0.007322,-0.509643
-0.208916,-0.710158,1.520045,-0.087516,1.075501,-0.007299,-0.509657
-0.208648,-0.710186,1.520131,-0.087525,1.07554,-0.007232,-0.509707
-0.208575,-0.7102,1.520154,-0.087533,1.07555,-0.007216,-0.509722
-0.208374,-0.710263,1.520217,-0.087574,1.075579,-0.007182,-0.509764
-0.208313,-0.710296,1.520236,-0.087598,1.075588,-0.007177,-0.509779
-0.208238,-0.710355,1.520259,-0.087641,1.075599,-0.007178,-0.509799
-0.208092,-0.710453,1.520303,-0.087713,1.07562,-0.007174,-0.509835
-0.207954,-0.710585,1.520344,-0.087813,1.07564,-0.007186,-0.509874
-0.207944,-0.710607,1.520347,-0.08783,1.075641,-0.007191,-0.509878
-0.208014,-0.710783,1.520318,-0.087975,1.075631,-0.007281,-0.509885
-0.208079,-0.710837,1.520295,-0.088021,1.075621,-0.007321,-0.509879
-0.208419,-0.710988,1.520178,-0.088159,1.075571,-0.00748,-0.509835
-0.208585,-0.711032,1.520121,-0.088202,1.075546,-0.007545,-0.509811
-0.20879,-0.71109,1.520051,-0.088259,1.075516,-0.007628,-0.509781
-0.208863,-0.711108,1.520027,-0.088277,1.075505,-0.007657,-0.509771
-0.208947,-0.711139,1.519998,-0.088305,1.075492,-0.007693,-0.509759
-0.209006,-0.711176,1.519977,-0.088338,1.075484,-0.007725,-0.509753
-0.209033,-0.711241,1.519967,-0.088391,1.07548,-0.007758,-0.509755
-0.209033,-0.711241,1.519967,-0.088391,1.07548,-0.007758,-0.509755
-0.209074,-0.711306,1.519951,-0.088446,1.075474,-0.007796,-0.509755
-0.209079,-0.71131,1.51995,-0.088449,1.075473,-0.007799,-0.509754
-0.209169,-0.711328,1.519919,-0.088468,1.07546,-0.007832,-0.50974
-0.209191,-0.711326,1.519912,-0.088467,1.075457,-0.007838,-0.509736
-0.209195,-0.7113,1.519911,-0.088447,1.075456,-0.007829,-0.509733
-0.209168,-0.711223,1.519921,-0.088383,1.075459,-0.007791,-0.50973
-0.209108,-0.711141,1.519943,-0.088314,1.075467,-0.007742,-0.509732
-0.209047,-0.71107,1.519964,-0.088254,1.075475,-0.007696,-0.509736
-0.208907,-0.710931,1.520012,-0.088135,1.075494,-0.007601,-0.509746
-0.208903,-0.710925,1.520014,-0.08813,1.075494,-0.007598,-0.509746
-0.208839,-0.710854,1.520036,-0.08807,1.075503,-0.007551,-0.50975
-0.208834,-0.71085,1.520038,-0.088066,1.075504,-0.007548,-0.509751
-0.208811,-0.710834,1.520045,-0.088052,1.075507,-0.007535,-0.509753
-0.20875,-0.710811,1.520066,-0.08803,1.075515,-0.007509,-0.509762
-0.208558,-0.710794,1.520128,-0.088007,1.075542,-0.007446,-0.509794
-0.208476,-0.71079,1.520154,-0.088,1.075554,-0.007421,-0.509809
-0.208286,-0.71081,1.520215,-0.088006,1.075581,-0.007373,-0.509845
-0.208263,-0.71082,1.520222,-0.088013,1.075584,-0.00737,-0.50985
-0.208115,-0.710921,1.520267,-0.088087,1.075605,-0.007367,-0.509887
-0.208115,-0.710921,1.520267,-0.088087,1.075605,-0.007367,-0.509887
-0.208066,-0.711012,1.52028,-0.088159,1.075613,-0.007389,-0.509905
-0.208032,-0.711075,1.52029,-0.088208,1.075618,-0.007403,-0.509918
-0.208008,-0.711166,1.520295,-0.08828,1.075621,-0.007432,-0.509932
-0.208001,-0.711193,1.520296,-0.088302,1.075623,-0.00744,-0.509936
-0.207974,-0.711288,1.520303,-0.088376,1.075627,-0.007469,-0.509951
-0.207947,-0.711351,1.52031,-0.088426,1.075631,-0.007486,-0.509963
-0.207944,-0.711357,1.52031,-0.088431,1.075631,-0.007488,-0.509964
-0.207931,-0.711376,1.520314,-0.088445,1.075633,-0.007491,-0.509968
-0.207931,-0.711376,1.520314,-0.088445,1.075633,-0.007491,-0.509968
-0.207931,-0.711376,1.520314,-0.088445,1.075633,-0.007491,-0.509968
-0.207912,-0.711311,1.520321,-0.088391,1.075635,-0.00746,-0.509965
-0.207917,-0.711283,1.52032,-0.088369,1.075634,-0.007451,-0.509961
-0.208079,-0.711094,1.52027,-0.088224,1.075608,-0.007425,-0.509913
-0.208137,-0.711054,1.520252,-0.088195,1.075599,-0.007426,-0.509899
-0.20835,-0.71098,1.520182,-0.088145,1.075566,-0.00746,-0.509854
-0.20844,-0.710966,1.520153,-0.088138,1.075553,-0.00748,-0.509837
-0.208721,-0.710935,1.52006,-0.088126,1.07551,-0.007551,-0.509785
-0.208989,-0.710911,1.519971,-0.088119,1.07547,-0.00762,-0.509736
-0.209576,-0.710869,1.519776,-0.088113,1.075381,-0.007776,-0.509629
-0.209764,-0.710863,1.519714,-0.088116,1.075353,-0.007828,-0.509596
-0.210313,-0.710834,1.519531,-0.088119,1.07527,-0.007979,-0.509497
-0.210495,-0.710829,1.519471,-0.088124,1.075243,-0.00803,-0.509464
-0.211012,-0.710815,1.519299,-0.088137,1.075165,-0.008176,-0.509373
-0.21109,-0.710825,1.519273,-0.088149,1.075154,-0.008203,-0.50936
-0.211375,-0.710879,1.519178,-0.088206,1.075112,-0.008307,-0.509316
-0.211462,-0.710913,1.519148,-0.088238,1.075099,-0.008346,-0.509304
-0.211552,-0.710968,1.519117,-0.088286,1.075086,-0.008394,-0.509294
-0.369355,-0.663556,1.875758,-0.160653,1.355975,-0.057683,-0.447508
-0.369357,-0.663587,1.875754,-0.160678,1.355973,-0.057698,-0.447508
-0.369354,-0.663618,1.875751,-0.160704,1.355972,-0.057713,-0.44751
-0.369304,-0.663694,1.87576,-0.160781,1.355976,-0.057752,-0.447521
-0.369252,-0.663729,1.875774,-0.160824,1.355981,-0.057772,-0.447533
-0.369054,-0.663762,1.87584,-0.160905,1.356007,-0.057796,-0.447574
-0.368978,-0.663765,1.875867,-0.160928,1.356017,-0.0578,-0.44759
-0.368504,-0.66374,1.876034,-0.161036,1.356081,-0.057807,-0.447688
-0.368266,-0.663719,1.87612,-0.161083,1.356114,-0.057806,-0.447738
-0.367838,-0.663693,1.876268,-0.161177,1.35617,-0.05781,-0.447826
-0.367615,-0.66369,1.876346,-0.161235,1.356199,-0.057818,-0.447872
-0.367118,-0.663695,1.876513,-0.161373,1.356261,-0.057839,-0.447975
-0.366755,-0.663721,1.876222,-0.161367,1.356012,-0.057781,-0.448031
-0.366286,-0.663747,1.87596,-0.161388,1.355769,-0.057725,-0.448109
-0.366143,-0.663754,1.875868,-0.161391,1.355687,-0.057705,-0.448133
-0.365845,-0.663778,1.875547,-0.161364,1.355423,-0.057642,-0.448175
-0.365845,-0.663778,1.875547,-0.161364,1.355423,-0.057642,-0.448175
-0.365949,-0.663782,1.875503,-0.161336,1.355404,-0.057638,-0.448153
-0.366084,-0.663786,1.875448,-0.161301,1.355381,-0.057633,-0.448125
-0.366266,-0.663798,1.875375,-0.161259,1.35535,-0.05763,-0.448087
-0.366408,-0.663815,1.875317,-0.161232,1.355325,-0.057631,-0.448057
