wangss533/urdfTest/left_arm_joints.csv
left_arm_joint1,left_arm_joint2,left_arm_joint3,left_arm_joint4,left_arm_joint5,left_arm_joint6,left_arm_joint7
0.906728,0.696059,-0.143373,-0.903385,0.507331,-0.18238,-0.33336
0.906637,0.694662,-0.141842,-0.904417,0.504765,-0.181307,-0.333037
0.0,0.0,0.0,-0.1,0.0,0.0,0.0
0.0,0.0,0.0,-0.1,0.0,0.0,0.0
0.0,0.0,0.0,-0.1,0.0,0.0,0.0
0.0,0.0,0.0,-0.1,0.0,0.0,0.0
0.0,0.0,0.0,-0.1,0.0,0.0,0.0
0.0,0.0,0.0,-0.1,0.0,0.0,0.0
0.0,0.0,0.0,-0.1,0.0,0.0,0.0
0.0,0.0,0.0,-0.1,0.0,0.0,0.0
0.0,0.0,0.0,-0.1,0.0,0.0,0.0
0.0,0.0,0.0,-0.1,0.0,0.0,0.0
0.0,0.0,0.0,-0.1,0.0,0.0,0.0
0.0,0.0,0.0,-0.1,0.0,0.0,0.0
0.0,0.0,0.0,-0.1,0.0,0.0,0.0
0.0,0.0,0.0,-0.1,0.0,0.0,0.0
0.0,0.0,0.0,-0.1,0.0,0.0,0.0
0.0,0.0,0.0,-0.1,0.0,0.0,0.0
0.0,0.0,0.0,-0.1,0.0,0.0,0.0
0.0,0.0,0.0,-0.1,0.0,0.0,0.0
0.0,0.0,0.0,-0.1,0.0,0.0,0.0
0.0,0.0,0.0,-0.1,0.0,0.0,0.0
0.0,0.0,0.0,-0.1,0.0,0.0,0.0
0.0,0.0,0.0,-0.1,0.0,0.0,0.0
0.0,0.0,0.0,-0.1,0.0,0.0,0.0
0.0,0.0,0.0,-0.1,0.0,0.0,0.0
0.0,0.0,0.0,-0.1,0.0,0.0,0.0
0.0,0.0,0.0,-0.1,0.0,0.0,0.0
0.0,0.0,0.0,-0.1,0.0,0.0,0.0
0.0,0.0,0.0,-0.1,0.0,0.0,0.0
0.0,0.0,0.0,-0.1,0.0,0.0,0.0
0.0,0.0,0.0,-0.1,0.0,0.0,0.0
0.0,0.0,0.0,-0.1,0.0,0.0,0.0
0.0,0.0,0.0,-0.1,0.0,0.0,0.0
0.0,0.0,0.0,-0.1,0.0,0.0,0.0
0.0,0.0,0.0,-0.1,0.0,0.0,0.0
0.0,0.0,0.0,-0.1,0.0,0.0,0.0
0.0,0.0,0.0,-0.1,0.0,0.0,0.0
0.0,0.0,0.0,-0.1,0.0,0.0,0.0
0.0,0.0,0.0,-0.1,0.0,0.0,0.0
0.0,0.0,0.0,-0.1,0.0,0.0,0.0
0.0,0.0,0.0,-0.1,0.0,0.0,0.0
0.0,0.0,0.0,-0.1,0.0,0.0,0.0
0.0,0.0,0.0,-0.1,0.0,0.0,0.0
0.0,0.0,0.0,-0.1,0.0,0.0,0.0
0.0,0.0,0.0,-0.1,0.0,0.0,0.0
0.0,0.0,0.0,-0.1,0.0,0.0,0.0
0.0,0.0,0.0,-0.1,0.0,0.0,0.0
0.0,0.0,0.0,-0.1,0.0,0.0,0.0
0.0,0.0,0.0,-0.1,0.0,0.0,0.0
0.0,0.0,0.0,-0.1,0.0,0.0,0.0
0.0,0.0,0.0,-0.1,0.0,0.0,0.0
0.0,0.0,0.0,-0.1,0.0,0.0,0.0
0.0,0.0,0.0,-0.1,0.0,0.0,0.0
0.0,0.0,0.0,-0.1,0.0,0.0,0.0
0.0,0.0,0.0,-0.1,0.0,0.0,0.0
0.0,0.0,0.0,-0.1,0.0,0.0,0.0
0.0,0.0,0.0,-0.1,0.0,0.0,0.0
0.0,0.0,0.0,-0.1,0.0,0.0,0.0
0.0,0.0,0.0,-0.1,0.0,0.0,0.0
0.865248,0.697723,-0.179906,-0.884518,0.521104,-0.16488,-0.33016
0.0,0.0,0.0,-0.1,0.0,0.0,0.0
0.0,0.0,0.0,-0.1,0.0,0.0,0.0
0.0,0.0,0.0,-0.1,0.0,0.0,0.0
0.0,0.0,0.0,-0.1,0.0,0.0,0.0
0.0,0.0,0.0,-0.1,0.0,0.0,0.0
0.0,0.0,0.0,-0.1,0.0,0.0,0.0
0.0,0.0,0.0,-0.1,0.0,0.0,0.0
0.0,0.0,0.0,-0.1,0.0,0.0,0.0
0.0,0.0,0.0,-0.1,0.0,0.0,0.0
0.0,0.0,0.0,-0.1,0.0,0.0,0.0
0.0,0.0,0.0,-0.1,0.0,0.0,0.0
0.0,0.0,0.0,-0.1,0.0,0.0,0.0
0.0,0.0,0.0,-0.1,0.0,0.0,0.0
0.0,0.0,0.0,-0.1,0.0,0.0,0.0
0.0,0.0,0.0,-0.1,0.0,0.0,0.0
0.0,0.0,0.0,-0.1,0.0,0.0,0.0
0.0,0.0,0.0,-0.1,0.0,0.0,0.0
0.0,0.0,0.0,-0.1,0.0,0.0,0.0
0.0,0.0,0.0,-0.1,0.0,0.0,0.0
0.0,0.0,0.0,-0.1,0.0,0.0,0.0
0.0,0.0,0.0,-0.1,0.0,0.0,0.0
0.0,0.0,0.0,-0.1,0.0,0.0,0.0
0.0,0.0,0.0,-0.1,0.0,0.0,0.0
0.0,0.0,0.0,-0.1,0.0,0.0,0.0
0.0,0.0,0.0,-0.1,0.0,0.0,0.0
0.0,0.0,0.0,-0.1,0.0,0.0,0.0
0.0,0.0,0.0,-0.1,0.0,0.0,0.0
0.0,0.0,0.0,-0.1,0.0,0.0,0.0
0.0,0.0,0.0,-0.1,0.0,0.0,0.0
0.0,0.0,0.0,-0.1,0.0,0.0,0.0
0.0,0.0,0.0,-0.1,0.0,0.0,0.0
0.0,0.0,0.0,-0.1,0.0,0.0,0.0
0.839241,0.702117,-0.203039,-0.869389,0.528215,-0.158423,-0.335531
0.0,0.0,0.0,-0.1,0.0,0.0,0.0
0.837592,0.701594,-0.204543,-0.868712,0.529442,-0.157026,-0.335395
0.0,0.0,0.0,-0.1,0.0,0.0,0.0
0.0,0.0,0.0,-0.1,0.0,0.0,0.0
0.0,0.0,0.0,-0.1,0.0,0.0,0.0
0.0,0.0,0.0,-0.1,0.0,0.0,0.0
0.0,0.0,0.0,-0.1,0.0,0.0,0.0
0.0,0.0,0.0,-0.1,0.0,0.0,0.0
0.0,0.0,0.0,-0.1,0.0,0.0,0.0
0.0,0.0,0.0,-0.1,0.0,0.0,0.0
0.0,0.0,0.0,-0.1,0.0,0.0,0.0
0.0,0.0,0.0,-0.1,0.0,0.0,0.0
0.0,0.0,0.0,-0.1,0.0,0.0,0.0
0.0,0.0,0.0,-0.1,0.0,0.0,0.0
0.0,0.0,0.0,-0.1,0.0,0.0,0.0
0.0,0.0,0.0,-0.1,0.0,0.0,0.0
0.0,0.0,0.0,-0.1,0.0,0.0,0.0
0.0,0.0,0.0,-0.1,0.0,0.0,0.0
0.0,0.0,0.0,-0.1,0.0,0.0,0.0
0.0,0.0,0.0,-0.1,0.0,0.0,0.0
0.0,0.0,0.0,-0.1,0.0,0.0,0.0
0.0,0.0,0.0,-0.1,0.0,0.0,0.0
0.834287,0.706523,-0.208594,-0.875382,0.552849,-0.136956,-0.333754
0.0,0.0,0.0,-0.1,0.0,0.0,0.0
0.0,0.0,0.0,-0.1,0.0,0.0,0.0
0.0,0.0,0.0,-0.1,0.0,0.0,0.0
0.0,0.0,0.0,-0.1,0.0,0.0,0.0
0.0,0.0,0.0,-0.1,0.0,0.0,0.0
0.0,0.0,0.0,-0.1,0.0,0.0,0.0
0.0,0.0,0.0,-0.1,0.0,0.0,0.0
0.0,0.0,0.0,-0.1,0.0,0.0,0.0
0.0,0.0,0.0,-0.1,0.0,0.0,0.0
0.0,0.0,0.0,-0.1,0.0,0.0,0.0
0.0,0.0,0.0,-0.1,0.0,0.0,0.0
0.0,0.0,0.0,-0.1,0.0,0.0,0.0
0.0,0.0,0.0,-0.1,0.0,0.0,0.0
0.0,0.0,0.0,-0.1,0.0,0.0,0.0
0.0,0.0,0.0,-0.1,0.0,0.0,0.0
0.0,0.0,0.0,-0.1,0.0,0.0,0.0
0.0,0.0,0.0,-0.1,0.0,0.0,0.0
0.0,0.0,0.0,-0.1,0.0,0.0,0.0
0.0,0.0,0.0,-0.1,0.0,0.0,0.0
0.0,0.0,0.0,-0.1,0.0,0.0,0.0
0.0,0.0,0.0,-0.1,0.0,0.0,0.0
0.0,0.0,0.0,-0.1,0.0,0.0,0.0
0.0,0.0,0.0,-0.1,0.0,0.0,0.0
0.0,0.0,0.0,-0.1,0.0,0.0,0.0
0.0,0.0,0.0,-0.1,0.0,0.0,0.0
0.0,0.0,0.0,-0.1,0.0,0.0,0.0
0.0,0.0,0.0,-0.1,0.0,0.0,0.0
0.0,0.0,0.0,-0.1,0.0,0.0,0.0
0.0,0.0,0.0,-0.1,0.0,0.0,0.0
0.0,0.0,0.0,-0.1,0.0,0.0,0.0
0.0,0.0,0.0,-0.1,0.0,0.0,0.0
0.0,0.0,0.0,-0.1,0.0,0.0,0.0
0.0,0.0,0.0,-0.1,0.0,0.0,0.0
0.0,0.0,0.0,-0.1,0.0,0.0,0.0
0.84745,0.788449,-0.219056,-0.908232,0.739936,-0.077641,-0.345374
0.0,0.0,0.0,-0.1,0.0,0.0,0.0
0.0,0.0,0.0,-0.1,0.0,0.0,0.0
0.0,0.0,0.0,-0.1,0.0,0.0,0.0
0.0,0.0,0.0,-0.1,0.0,0.0,0.0
0.0,0.0,0.0,-0.1,0.0,0.0,0.0
0.0,0.0,0.0,-0.1,0.0,0.0,0.0
0.0,0.0,0.0,-0.1,0.0,0.0,0.0
0.854524,0.798614,-0.228921,-0.919551,0.822658,-0.063626,-0.316029
0.855811,0.795756,-0.226832,-0.923575,0.835086,-0.060364,-0.308451
0.855725,0.793035,-0.22554,-0.925715,0.841611,-0.058147,-0.303696
0.855078,0.789301,-0.224131,-0.928083,0.848821,-0.054443,-0.297612
0.854129,0.786691,-0.223356,-0.929481,0.852967,-0.050742,-0.293301
0.851744,0.782166,-0.222435,-0.931131,0.85789,-0.043435,-0.286461
0.850814,0.780304,-0.222275,-0.931497,0.859337,-0.040544,-0.283978
0.849226,0.775399,-0.222535,-0.931384,0.861599,-0.034257,-0.278793
0.849061,0.773522,-0.222886,-0.9311,0.862009,-0.031979,-0.27713
0.848424,0.768444,-0.224061,-0.929759,0.86217,-0.02658,-0.273411
0.847861,0.766261,-0.224567,-0.929113,0.862273,-0.024555,-0.271917
0.846827,0.760586,-0.225417,-0.927846,0.862744,-0.019897,-0.268257
0.846027,0.756968,-0.22586,-0.927014,0.862869,-0.01732,-0.266135
0.844487,0.752082,-0.226257,-0.926036,0.86288,-0.014104,-0.263208
0.842603,0.74826,-0.226376,-0.925391,0.862499,-0.011684,-0.260877
0.838677,0.741695,-0.226316,-0.924463,0.861496,-0.0079,-0.256836
0.837311,0.739243,-0.226263,-0.924205,0.861439,-0.006754,-0.255187
0.835746,0.733964,-0.225854,-0.924195,0.863195,-0.005567,-0.250994
0.835703,0.7321,-0.225569,-0.924444,0.864561,-0.005726,-0.249257
0.835959,0.727865,-0.224799,-0.925256,0.868265,-0.00655,-0.244955
0.835893,0.726307,-0.224549,-0.925519,0.869448,-0.006675,-0.24332
0.835274,0.722717,-0.224062,-0.926014,0.87168,-0.006487,-0.239448
0.834785,0.720824,-0.223825,-0.926282,0.872746,-0.006214,-0.237224
0.83405,0.718683,-0.223594,-0.926616,0.873856,-0.005628,-0.234351
0.833394,0.717382,-0.223525,-0.92681,0.874339,-0.004957,-0.232271
0.832133,0.715751,-0.223546,-0.927077,0.874636,-0.003471,-0.228942
0.831652,0.71529,-0.223546,-0.92723,0.874783,-0.002839,-0.227637
0.83065,0.714633,-0.223356,-0.927906,0.875634,-0.001302,-0.224363
0.830244,0.714541,-0.223216,-0.928249,0.876061,-0.000656,-0.223043
0.829518,0.714787,-0.222845,-0.929255,0.877326,0.000907,-0.219869
0.829407,0.715043,-0.222719,-0.929668,0.877872,0.001451,-0.218695
0.829735,0.716351,-0.222382,-0.930854,0.879585,0.002626,-0.216056
0.830191,0.71739,-0.222209,-0.931598,0.880677,0.003217,-0.214604
0.830833,0.718571,-0.222164,-0.932395,0.881781,0.003805,-0.212717
0.831385,0.719195,-0.222283,-0.932776,0.882219,0.004062,-0.21135
0.832552,0.720091,-0.222764,-0.933226,0.882605,0.004138,-0.209165
0.832767,0.720259,-0.223003,-0.933309,0.882485,0.004228,-0.208278
0.831893,0.719943,-0.223632,-0.933212,0.881129,0.005083,-0.205947
0.831048,0.719563,-0.223917,-0.933044,0.880167,0.005661,-0.204996
0.828453,0.718079,-0.224683,-0.932454,0.877296,0.007045,-0.202511
0.827482,0.717318,-0.224998,-0.932219,0.876167,0.007342,-0.201446
0.825126,0.714816,-0.225752,-0.931653,0.873449,0.007349,-0.198535
0.823695,0.713031,-0.226234,-0.931278,0.871728,0.007057,-0.196692
0.821889,0.710636,-0.227009,-0.930639,0.869171,0.006537,-0.194274
0.820509,0.708796,-0.227757,-0.93,0.866932,0.006122,-0.192522
0.81846,0.705701,-0.229149,-0.928875,0.862875,0.005204,-0.189634
0.817809,0.704602,-0.229768,-0.928427,0.861275,0.004721,-0.188469
0.817113,0.702646,-0.231357,-0.927565,0.857757,0.00309,-0.18545
0.817188,0.702139,-0.232014,-0.927314,0.856527,0.002267,-0.184192
0.817626,0.701115,-0.233799,-0.926643,0.853251,2.4e-05,-0.181094
0.8177,0.700668,-0.234598,-0.926272,0.851654,-0.000868,-0.179929
0.817379,0.699505,-0.236831,-0.925057,0.846812,-0.002679,-0.177142
0.817171,0.698816,-0.238299,-0.924209,0.84356,-0.003859,-0.175566
0.817369,0.697824,-0.240368,-0.922996,0.83909,-0.006328,-0.173676
0.817981,0.696776,-0.242045,-0.921954,0.835579,-0.009195,-0.172357
0.819578,0.694754,-0.244945,-0.920028,0.82933,-0.015189,-0.170393
0.820418,0.694279,-0.246104,-0.919315,0.826949,-0.017748,-0.169824
0.823209,0.694731,-0.248714,-0.917901,0.821677,-0.024087,-0.169282
0.824676,0.69543,-0.249677,-0.917396,0.819785,-0.026788,-0.169414
0.828419,0.698114,-0.251942,-0.916554,0.815289,-0.033361,-0.17015
0.829353,0.699242,-0.252757,-0.9162,0.813232,-0.035591,-0.170538
0.829847,0.702611,-0.254554,-0.915487,0.807365,-0.039523,-0.171631
0.82966,0.704928,-0.255492,-0.915141,0.803689,-0.041512,-0.172565
0.829957,0.707832,-0.256651,-0.914556,0.799043,-0.045091,-0.174396
0.830756,0.709642,-0.257419,-0.913955,0.795839,-0.048848,-0.176297
0.832605,0.712344,-0.258506,-0.912733,0.790741,-0.056272,-0.180273
0.833599,0.713469,-0.258974,-0.91216,0.788772,-0.059493,-0.182068
0.83713,0.71665,-0.260314,-0.910461,0.784033,-0.068111,-0.186935
0.839029,0.718036,-0.260893,-0.909688,0.782288,-0.071925,-0.189085
0.843658,0.721433,-0.262421,-0.907466,0.777482,-0.081328,-0.194684
0.844898,0.722746,-0.263283,-0.906343,0.775262,-0.084718,-0.196909
0.847303,0.725983,-0.265146,-0.903553,0.768292,-0.091768,-0.202573
0.848177,0.727768,-0.266317,-0.90172,0.763526,-0.095514,-0.205997
0.848346,0.72931,-0.267747,-0.899068,0.756497,-0.100366,-0.210399
0.847499,0.72967,-0.268709,-0.896855,0.750492,-0.103923,-0.213633
0.844637,0.729198,-0.270152,-0.892862,0.739449,-0.109528,-0.218911
0.843278,0.728698,-0.270594,-0.891302,0.735085,-0.111746,-0.220843
0.83984,0.726661,-0.271207,-0.887693,0.725362,-0.117559,-0.224869
0.838375,0.72549,-0.27126,-0.886353,0.721871,-0.119982,-0.226199
0.83422,0.722091,-0.271269,-0.883023,0.713091,-0.125747,-0.229135
0.832301,0.720701,-0.271344,-0.881632,0.709243,-0.127766,-0.230244
0.82638,0.716873,-0.271774,-0.877854,0.698248,-0.131991,-0.232917
0.822519,0.714495,-0.272089,-0.875566,0.691365,-0.134159,-0.234349
0.817959,0.711787,-0.27252,-0.872801,0.682982,-0.136867,-0.23592
0.815286,0.710208,-0.272812,-0.871033,0.677674,-0.138911,-0.236776
0.811596,0.708127,-0.273328,-0.868469,0.669862,-0.142075,-0.237688
0.810212,0.707497,-0.273613,-0.867533,0.666856,-0.143092,-0.237919
0.806796,0.70657,-0.274624,-0.865408,0.659227,-0.144735,-0.238241
0.805531,0.706476,-0.275109,-0.864646,0.65624,-0.145114,-0.238242
0.802258,0.706474,-0.276601,-0.862946,0.648659,-0.14518,-0.237974
0.800637,0.706343,-0.277269,-0.862236,0.645376,-0.144735,-0.237817
0.795676,0.705776,-0.279273,-0.860611,0.636446,-0.141961,-0.237184
0.79232,0.705226,-0.280533,-0.859629,0.630651,-0.139565,-0.236699
0.788307,0.704691,-0.282513,-0.858362,0.623421,-0.136749,-0.235975
0.785503,0.704053,-0.283978,-0.85727,0.617889,-0.134898,-0.235356
0.781107,0.702818,-0.286543,-0.855353,0.608679,-0.13197,-0.234193
0.779641,0.702421,-0.287521,-0.8546,0.605236,-0.131045,-0.2338
0.77713,0.70203,-0.289704,-0.852838,0.597848,-0.129784,-0.233258
0.776535,0.702062,-0.290493,-0.852163,0.595311,-0.129646,-0.233173
0.77571,0.702414,-0.292365,-0.850454,0.589489,-0.12999,-0.233159
0.775538,0.702614,-0.293106,-0.849734,0.587212,-0.130341,-0.233198
0.775749,0.703087,-0.294943,-0.847721,0.581659,-0.132197,-0.233235
0.776163,0.703518,-0.296009,-0.846472,0.578492,-0.133655,-0.233369
0.776594,0.704598,-0.297365,-0.844991,0.574441,-0.135173,-0.234013
0.7767,0.705981,-0.298291,-0.84413,0.571559,-0.13567,-0.235003
0.776842,0.709147,-0.299815,-0.843011,0.567185,-0.136011,-0.237323
0.776865,0.710404,-0.300396,-0.84253,0.565386,-0.136174,-0.238366
0.776955,0.71283,-0.30187,-0.840887,0.560414,-0.137288,-0.240906
0.777036,0.713567,-0.30248,-0.840064,0.558261,-0.137985,-0.241922
0.776907,0.715623,-0.303847,-0.838137,0.552919,-0.139506,-0.244821
0.776582,0.716787,-0.30426,-0.837595,0.550949,-0.139765,-0.246245
0.77511,0.720869,-0.30494,-0.83678,0.546304,-0.139736,-0.250736
0.77387,0.723735,-0.305153,-0.836574,0.543757,-0.139296,-0.253821
0.771824,0.727458,-0.305231,-0.836669,0.540933,-0.137918,-0.257946
0.769823,0.730162,-0.305113,-0.837201,0.539417,-0.135845,-0.260936
0.76581,0.734652,-0.304597,-0.838689,0.537704,-0.131066,-0.266004
0.764283,0.736251,-0.304321,-0.839216,0.537123,-0.129325,-0.268078
0.761032,0.739193,-0.303619,-0.839642,0.535214,-0.126569,-0.27347
0.759808,0.740017,-0.303338,-0.839571,0.53428,-0.125816,-0.275714
0.757489,0.741641,-0.302407,-0.839148,0.532729,-0.125061,-0.281267
0.757085,0.742257,-0.301872,-0.838975,0.532831,-0.125363,-0.283371
0.757603,0.744069,-0.300078,-0.838762,0.535494,-0.127597,-0.288213
0.758644,0.744957,-0.298793,-0.838547,0.538028,-0.129862,-0.290971
0.760515,0.74529,-0.297027,-0.837818,0.541462,-0.133965,-0.294661
0.762007,0.744403,-0.295559,-0.836438,0.543539,-0.138211,-0.29766
0.765214,0.741672,-0.29298,-0.833485,0.547155,-0.146959,-0.302717
0.76644,0.740144,-0.291991,-0.832189,0.548438,-0.150411,-0.304589
0.768623,0.735114,-0.289891,-0.828921,0.550669,-0.157559,-0.308475
0.769212,0.732535,-0.289171,-0.827513,0.551157,-0.160085,-0.309756
0.770847,0.725702,-0.28751,-0.824001,0.552591,-0.166041,-0.312613
0.77184,0.723177,-0.286861,-0.822711,0.553664,-0.168375,-0.313719
0.775655,0.717337,-0.285146,-0.81978,0.557983,-0.174371,-0.316508
0.778331,0.71399,-0.28417,-0.818186,0.561138,-0.177787,-0.318064
0.781549,0.709764,-0.283039,-0.816367,0.565159,-0.181543,-0.319794
0.783918,0.707087,-0.282348,-0.81539,0.568307,-0.18375,-0.32069
0.787686,0.703139,-0.281433,-0.814274,0.573648,-0.186427,-0.321643
0.788487,0.70124,-0.281122,-0.813806,0.575038,-0.186948,-0.321978
0.786996,0.694405,-0.280611,-0.811886,0.574956,-0.186413,-0.323003
0.785369,0.691037,-0.280485,-0.810991,0.573842,-0.185541,-0.323421
0.779304,0.682044,-0.280423,-0.808497,0.569085,-0.182105,-0.324386
0.776419,0.678623,-0.280482,-0.80756,0.566668,-0.180374,-0.324711
0.76649,0.669815,-0.281344,-0.804943,0.557925,-0.174246,-0.325358
0.7598,0.664738,-0.281995,-0.803463,0.551937,-0.170003,-0.325674
0.752701,0.6596,-0.28249,-0.802151,0.546051,-0.16549,-0.326034
0.74934,0.657488,-0.282465,-0.80191,0.543962,-0.163242,-0.326217
0.745919,0.656186,-0.281968,-0.802424,0.543048,-0.160828,-0.326389
0.745254,0.656059,-0.281618,-0.80272,0.543352,-0.160531,-0.326468
0.745417,0.655781,-0.280202,-0.803132,0.54548,-0.162299,-0.326967
0.746291,0.655781,-0.279364,-0.803214,0.547027,-0.164084,-0.327319
0.749641,0.656747,-0.277247,-0.803766,0.551825,-0.169106,-0.327858
0.751262,0.657829,-0.276622,-0.804339,0.553904,-0.170696,-0.32769
0.755857,0.662194,-0.275726,-0.806418,0.558875,-0.173819,-0.326258
0.759266,0.665883,-0.275403,-0.808186,0.562382,-0.175335,-0.324896
0.764993,0.672291,-0.275008,-0.811637,0.569045,-0.176628,-0.322605
0.770233,0.678309,-0.274564,-0.815135,0.575875,-0.176813,-0.32049
0.78107,0.690686,-0.273676,-0.822686,0.5902,-0.176201,-0.31624
0.785578,0.696023,-0.273464,-0.825803,0.596481,-0.175818,-0.3145
0.797172,0.709498,-0.272891,-0.833472,0.612409,-0.174975,-0.310477
0.802169,0.715174,-0.27264,-0.836631,0.619181,-0.174668,-0.308906
0.814623,0.729614,-0.271987,-0.844649,0.636375,-0.173364,-0.305141
0.819092,0.735428,-0.272055,-0.847722,0.643311,-0.172524,-0.303721
0.828731,0.749082,-0.27195,-0.855216,0.659282,-0.168779,-0.300384
0.834079,0.757197,-0.271865,-0.859715,0.668633,-0.16598,-0.298546
0.841161,0.768079,-0.271633,-0.865552,0.681035,-0.162365,-0.296481
0.846426,0.776249,-0.271377,-0.869761,0.690243,-0.159731,-0.295333
0.855021,0.78989,-0.270815,-0.876551,0.705418,-0.155327,-0.293985
0.858402,0.795581,-0.270829,-0.879045,0.71182,-0.153955,-0.293516
0.868012,0.81083,-0.270706,-0.88533,0.728876,-0.152285,-0.292402
0.872236,0.817285,-0.270597,-0.887824,0.736004,-0.15225,-0.292067
0.883762,0.834242,-0.27025,-0.894279,0.755147,-0.15299,-0.291097
0.888776,0.841342,-0.270103,-0.897043,0.76354,-0.153383,-0.290505
0.901362,0.860226,-0.271059,-0.903704,0.7878,-0.154883,-0.288543
0.909376,0.872329,-0.272111,-0.907738,0.803837,-0.156257,-0.287118
0.920505,0.888968,-0.273745,-0.913052,0.825168,-0.15849,-0.284884
0.929978,0.901665,-0.274117,-0.917512,0.840087,-0.160269,-0.2829
0.945367,0.92403,-0.276778,-0.924026,0.86598,-0.164262,-0.279106
0.950473,0.933344,-0.279453,-0.925781,0.877359,-0.166323,-0.277498
0.964345,0.957674,-0.28657,-0.930413,0.908868,-0.172465,-0.27354
0.970345,0.967915,-0.289663,-0.932364,0.92272,-0.175333,-0.271944
0.985789,0.994191,-0.298027,-0.937119,0.958443,-0.183285,-0.268081
0.99189,1.004709,-0.301599,-0.938845,0.972444,-0.18668,-0.266639
0.999882,1.029337,-0.316087,-0.939483,1.00537,-0.194627,-0.263002
1.004742,1.043882,-0.324756,-0.939827,1.024484,-0.199633,-0.260926
1.011792,1.063304,-0.336829,-0.940076,1.050546,-0.20771,-0.258393
1.01734,1.077725,-0.346073,-0.940188,1.070251,-0.214687,-0.256627
1.027235,1.101606,-0.361976,-0.940211,1.103478,-0.227976,-0.253983
1.027003,1.109705,-0.372037,-0.937956,1.116298,-0.233673,-0.252902
1.027611,1.130119,-0.400913,-0.93097,1.152263,-0.252089,-0.251023
1.02837,1.138136,-0.413678,-0.927766,1.167984,-0.261027,-0.250583
1.031307,1.157787,-0.446116,-0.919786,1.207506,-0.284638,-0.249985
1.0328,1.165652,-0.458656,-0.916867,1.222569,-0.29382,-0.24984
1.030799,1.182834,-0.493364,-0.90718,1.25574,-0.314983,-0.249077
1.02997,1.192799,-0.513808,-0.901546,1.274643,-0.327654,-0.248699
1.028879,1.20501,-0.539268,-0.89474,1.298471,-0.344135,-0.248321
1.030535,1.214434,-0.555014,-0.891338,1.31606,-0.356416,-0.248259
1.030194,1.228002,-0.581033,-0.885291,1.342784,-0.375879,-0.248095
1.028659,1.232498,-0.591927,-0.882416,1.352933,-0.383582,-0.248187
1.024587,1.242443,-0.619308,-0.874946,1.379457,-0.404231,-0.249865
1.022847,1.245827,-0.630056,-0.871924,1.390309,-0.412917,-0.251123
1.030194,1.228002,-0.581033,-0.885291,1.342784,-0.375879,-0.248095
1.020249,1.259626,-0.666491,-0.862999,1.431263,-0.444614,-0.256035
1.015688,1.270383,-0.695971,-0.856019,1.460892,-0.466644,-0.257741
1.012837,1.277211,-0.714187,-0.851965,1.479146,-0.479808,-0.258518
1.010633,1.287241,-0.738019,-0.847458,1.505026,-0.497357,-0.260105
1.00579,1.293345,-0.757774,-0.843035,1.523554,-0.509271,-0.261329
1.000401,1.305114,-0.789915,-0.837181,1.556846,-0.529201,-0.264155
0.99839,1.310085,-0.802791,-0.835101,1.570649,-0.537098,-0.26548
0.992777,1.323137,-0.835322,-0.830331,1.605974,-0.556585,-0.269198
0.990309,1.328658,-0.848476,-0.828605,1.62039,-0.564209,-0.270847
0.985498,1.343096,-0.880425,-0.825398,1.657873,-0.583202,-0.275537
0.981021,1.347638,-0.894705,-0.823452,1.672348,-0.590149,-0.277223
0.973844,1.360035,-0.927883,-0.820928,1.712196,-0.60833,-0.282452
0.969297,1.367244,-0.947751,-0.819793,1.736571,-0.618847,-0.285828
0.963513,1.376924,-0.973731,-0.8184,1.767835,-0.63196,-0.290484
0.962769,1.385601,-0.990939,-0.818371,1.791027,-0.641706,-0.294579
0.953682,1.396842,-1.024282,-0.815371,1.824988,-0.655208,-0.300358
0.951578,1.401976,-1.03654,-0.814927,1.839129,-0.660684,-0.302951
0.945712,1.41464,-1.06643,-0.814478,1.874793,-0.673612,-0.30937
0.943149,1.419807,-1.078217,-0.814581,1.889159,-0.678439,-0.311976
0.936625,1.432381,-1.106919,-0.815226,1.924575,-0.689921,-0.318306
0.934085,1.437083,-1.118041,-0.815552,1.938391,-0.694412,-0.320671
0.928113,1.447867,-1.145026,-0.816545,1.972528,-0.705766,-0.326179
0.92457,1.453966,-1.16067,-0.817288,1.992529,-0.712314,-0.329272
0.919877,1.462194,-1.180655,-0.818505,2.018049,-0.720168,-0.333219
0.916384,1.4685,-1.194786,-0.819617,2.036078,-0.725171,-0.336048
0.910638,1.479141,-1.217166,-0.821751,2.064587,-0.732374,-0.340478
0.908498,1.483555,-1.225865,-0.822669,2.075659,-0.735086,-0.342181
0.903329,1.495121,-1.24765,-0.824903,2.102726,-0.741776,-0.346192
0.901331,1.499966,-1.256312,-0.825797,2.113248,-0.74434,-0.347683
0.896552,1.512088,-1.277618,-0.827963,2.138788,-0.750599,-0.351269
0.894735,1.516773,-1.285959,-0.828775,2.148729,-0.753105,-0.352701
0.890169,1.527927,-1.306581,-0.830432,2.17262,-0.759407,-0.356381
0.887569,1.534451,-1.318734,-0.831356,2.186557,-0.763174,-0.358541
0.884132,1.543063,-1.334733,-0.832747,2.205024,-0.768032,-0.361046
0.881506,1.549471,-1.346612,-0.834025,2.218992,-0.771479,-0.362518
0.876417,1.559846,-1.366595,-0.836201,2.2418,-0.77684,-0.364281
0.874675,1.56393,-1.374287,-0.837008,2.250694,-0.779014,-0.364939
0.870739,1.574205,-1.393031,-0.838737,2.271539,-0.784573,-0.366546
0.869353,1.578289,-1.400349,-0.839281,2.279375,-0.786851,-0.36713
0.865999,1.588237,-1.418435,-0.840549,2.298692,-0.792655,-0.36855
0.86379,1.591892,-1.426111,-0.840948,2.306221,-0.794841,-0.368957
0.859727,1.600767,-1.444159,-0.842428,2.326548,-0.800705,-0.370382
0.857206,1.605912,-1.454929,-0.843383,2.338869,-0.80426,-0.371275
0.853931,1.612705,-1.469222,-0.844485,2.354966,-0.809073,-0.372628
0.830802,1.611996,-1.492232,-0.839161,2.356196,-0.808809,-0.36863
0.788376,1.610321,-1.533062,-0.829277,2.356196,-0.807644,-0.361315
0.771025,1.609887,-1.549599,-0.825418,2.355919,-0.807041,-0.358193
0.729216,1.609407,-1.589829,-0.816358,2.355474,-0.805818,-0.349854
0.713086,1.609499,-1.60551,-0.812969,2.355355,-0.805436,-0.346368
0.674423,1.610611,-1.643228,-0.805212,2.355252,-0.804556,-0.337682
0.659765,1.611565,-1.657459,-0.802511,2.355303,-0.804134,-0.334361
0.627075,1.615535,-1.689388,-0.797134,2.356196,-0.803188,-0.326825
0.60772,1.618412,-1.707731,-0.794222,2.356196,-0.802344,-0.322184
0.582659,1.622564,-1.731482,-0.790588,2.356194,-0.801349,-0.316009
0.564541,1.625887,-1.74878,-0.788024,2.356192,-0.800784,-0.311339
0.535772,1.631942,-1.776282,-0.784162,2.356191,-0.800064,-0.303594
0.524379,1.634468,-1.787035,-0.782694,2.356196,-0.79976,-0.300547
0.494485,1.640868,-1.814447,-0.779161,2.356195,-0.798819,-0.293033
0.48206,1.643462,-1.825518,-0.777792,2.356193,-0.798379,-0.290062
0.45253,1.65056,-1.851742,-0.774804,2.356194,-0.797335,-0.282889
0.442144,1.653785,-1.86116,-0.773866,2.356195,-0.797003,-0.280166
0.419679,1.662656,-1.882171,-0.772055,2.356196,-0.796277,-0.273744
0.407927,1.66844,-1.893465,-0.771269,2.356196,-0.79596,-0.270071
0.393911,1.676628,-1.907173,-0.770442,2.356195,-0.795806,-0.265287
0.384712,1.683181,-1.916559,-0.769926,2.356194,-0.79597,-0.261779
0.37153,1.694698,-1.930602,-0.769264,2.356188,-0.796587,-0.256072
0.366527,1.699291,-1.935739,-0.769017,2.356196,-0.796851,-0.253793
0.354129,1.710711,-1.946983,-0.768855,2.356196,-0.797375,-0.248004
0.349396,1.715337,-1.950771,-0.768983,2.356196,-0.797546,-0.24568
0.337859,1.726714,-1.959467,-0.769281,2.356196,-0.798034,-0.239789
0.333325,1.731142,-1.962907,-0.769323,2.356196,-0.798338,-0.237387
0.321724,1.741747,-1.971826,-0.769121,2.356196,-0.799482,-0.231138
0.314974,1.747979,-1.976908,-0.768947,2.356196,-0.800286,-0.227341
0.307222,1.75654,-1.982456,-0.769007,2.356196,-0.801267,-0.222436
0.303017,1.76337,-1.985146,-0.769341,2.356196,-0.80175,-0.219012
0.297688,1.775093,-1.98802,-0.770261,2.356196,-0.802355,-0.213511
0.295253,1.779628,-1.989238,-0.77059,2.356196,-0.802621,-0.211308
0.285518,1.78962,-1.994752,-0.770558,2.356196,-0.803698,-0.205793
0.280804,1.79334,-1.997355,-0.770393,2.356196,-0.804191,-0.203665
0.267976,1.801917,-2.004385,-0.769705,2.356196,-0.805684,-0.197978
0.262882,1.805088,-2.007091,-0.769399,2.356196,-0.806359,-0.19535
0.250048,1.812205,-2.013608,-0.768583,2.356196,-0.808271,-0.187358
0.241994,1.816052,-2.017569,-0.767987,2.35603,-0.809515,-0.182076
0.23132,1.820959,-2.022958,-0.766961,2.355899,-0.811252,-0.175652
0.223739,1.824675,-2.027075,-0.766147,2.356196,-0.812728,-0.171787
0.210438,1.830603,-2.034321,-0.764469,2.356195,-0.815183,-0.165923
0.205281,1.832821,-2.037082,-0.76376,2.356196,-0.816194,-0.163618
0.193243,1.837782,-2.043058,-0.762061,2.356196,-0.81886,-0.157373
0.188575,1.839502,-2.045231,-0.761358,2.356196,-0.820004,-0.154749
0.177397,1.843643,-2.050278,-0.759532,2.355892,-0.82264,-0.148213
0.173596,1.845499,-2.052051,-0.758937,2.355878,-0.823576,-0.145832
0.16571,1.850726,-2.056121,-0.757818,2.356196,-0.825617,-0.140664
0.161593,1.854006,-2.058222,-0.75721,2.356196,-0.826562,-0.137719
0.173596,1.845499,-2.052051,-0.758937,2.355878,-0.823576,-0.145832
0.154777,1.861873,-2.061219,-0.756317,2.356196,-0.828392,-0.130491
0.152445,1.867643,-2.061687,-0.756125,2.356196,-0.82934,-0.124921
0.151365,1.869834,-2.061926,-0.755981,2.356164,-0.829665,-0.12286
0.147843,1.875273,-2.062539,-0.755731,2.356046,-0.830373,-0.118813
0.146212,1.877452,-2.062746,-0.755712,2.355972,-0.830638,-0.117577
0.142134,1.882673,-2.063149,-0.755517,2.355843,-0.831082,-0.114808
0.140747,1.88487,-2.063036,-0.755588,2.355608,-0.831154,-0.113534
0.138502,1.890334,-2.062168,-0.755842,2.355476,-0.831063,-0.110178
0.137175,1.893702,-2.06136,-0.756076,2.354986,-0.830758,-0.108022
0.135401,1.898054,-2.06031,-0.756351,2.354374,-0.830397,-0.105329
0.134054,1.901312,-2.059778,-0.75651,2.354004,-0.830175,-0.103658
0.131438,1.906652,-2.058988,-0.756653,2.352968,-0.829672,-0.101053
0.131219,1.908532,-2.058275,-0.756892,2.353382,-0.829787,-0.100071
0.131335,1.912456,-2.054086,-0.75771,2.35402,-0.829991,-0.096234
0.131715,1.913789,-2.051481,-0.758143,2.354075,-0.829984,-0.094135
0.127682,1.916444,-2.045151,-0.758052,2.349873,-0.829028,-0.087803
0.131354,1.916879,-2.043122,-0.759131,2.355264,-0.831229,-0.087727
0.124155,1.917161,-2.040936,-0.758053,2.355779,-0.833872,-0.084887
0.118674,1.916707,-2.040334,-0.757062,2.356196,-0.83594,-0.083863
0.112207,1.915699,-2.0394,-0.755717,2.355867,-0.838236,-0.0836
0.1099,1.914644,-2.038371,-0.754994,2.356196,-0.839884,-0.084877
0.107565,1.912305,-2.0366,-0.75386,2.356196,-0.84231,-0.088792
0.106896,1.911193,-2.035919,-0.753497,2.356046,-0.843068,-0.090748
0.105341,1.907936,-2.034455,-0.752884,2.355547,-0.844174,-0.096369
0.104822,1.906421,-2.033941,-0.752749,2.355215,-0.844318,-0.099003
0.103996,1.902376,-2.032725,-0.752546,2.353955,-0.844089,-0.106155
0.103916,1.900756,-2.032228,-0.752483,2.353257,-0.843815,-0.109087
0.104526,1.896849,-2.031078,-0.752394,2.350868,-0.842483,-0.116653
0.105282,1.894423,-2.030331,-0.752377,2.34911,-0.841354,-0.121385
0.10639,1.890794,-2.028987,-0.752328,2.346642,-0.839798,-0.12779
0.107235,1.887678,-2.027448,-0.752295,2.344715,-0.838629,-0.132695
0.108848,1.881925,-2.024314,-0.752219,2.341279,-0.836542,-0.141048
0.109503,1.879499,-2.023237,-0.752137,2.339873,-0.835731,-0.144347
0.111207,1.873073,-2.021842,-0.751492,2.336554,-0.833864,-0.15225
0.111942,1.870376,-2.021688,-0.751131,2.335252,-0.833174,-0.155278
0.113677,1.863268,-2.021881,-0.750001,2.332136,-0.831619,-0.162888
0.114253,1.860281,-2.022061,-0.749473,2.330966,-0.831079,-0.166064
0.11512,1.852225,-2.023095,-0.747861,2.328433,-0.83007,-0.174709
0.115543,1.847181,-2.023895,-0.74677,2.327001,-0.829559,-0.179997
0.116566,1.840669,-2.024524,-0.745365,2.324805,-0.828698,-0.186434
0.117924,1.836127,-2.024508,-0.744408,2.322785,-0.827828,-0.190468
0.120822,1.828839,-2.023933,-0.742878,2.319015,-0.826176,-0.196319
0.121955,1.825901,-2.023557,-0.742289,2.317452,-0.825501,-0.198638
0.124381,1.818061,-2.022068,-0.740713,2.313716,-0.823799,-0.205098
0.125182,1.814793,-2.021231,-0.740076,2.312187,-0.823078,-0.207854
0.127392,1.806538,-2.019025,-0.738511,2.308572,-0.82142,-0.214708
0.128255,1.803205,-2.01845,-0.73779,2.30719,-0.820851,-0.217277
0.130426,1.79485,-2.018042,-0.735754,2.303978,-0.819753,-0.222969
0.131749,1.789796,-2.018042,-0.734442,2.302121,-0.819203,-0.226205
0.133505,1.782961,-2.017665,-0.73265,2.299505,-0.818394,-0.230865
0.13479,1.777749,-2.016851,-0.731278,2.297363,-0.817687,-0.234842
0.136927,1.768917,-2.014972,-0.728904,2.293605,-0.816422,-0.241947
0.13777,1.765351,-2.014228,-0.727958,2.292041,-0.815882,-0.244775
0.139953,1.756237,-2.012911,-0.72545,2.288366,-0.814455,-0.251557
0.140803,1.752572,-2.012617,-0.724444,2.287009,-0.813892,-0.254234
0.143313,1.743173,-2.011349,-0.721904,2.283171,-0.812271,-0.260634
0.144632,1.739263,-2.010243,-0.720883,2.281196,-0.811459,-0.262989
0.148895,1.729105,-2.005742,-0.71809,2.274353,-0.808876,-0.267885
0.152008,1.722901,-2.001996,-0.716557,2.269563,-0.807071,-0.270528
0.155531,1.714154,-1.996791,-0.714597,2.263622,-0.804399,-0.274589
0.157501,1.707265,-1.992616,-0.713411,2.259827,-0.80216,-0.278207
0.15849,1.695124,-1.985651,-0.711433,2.252874,-0.797511,-0.284495
0.159313,1.690058,-1.982828,-0.710628,2.250566,-0.795795,-0.287358
0.161666,1.676756,-1.976603,-0.70804,2.244734,-0.791837,-0.295035
0.162622,1.671093,-1.974446,-0.706779,2.242519,-0.790413,-0.298356
0.165435,1.657044,-1.968234,-0.703656,2.236209,-0.786161,-0.306896
0.166876,1.6518,-1.964878,-0.702608,2.232993,-0.78382,-0.310272
0.170322,1.639995,-1.955119,-0.700329,2.222764,-0.775955,-0.318792
0.172748,1.633302,-1.947855,-0.699184,2.215389,-0.770221,-0.323784
0.17638,1.623929,-1.935619,-0.697881,2.20378,-0.761528,-0.329561
0.179409,1.616207,-1.923752,-0.697229,2.19344,-0.753979,-0.332857
0.177576,1.601838,-1.904252,-0.695336,2.170296,-0.737711,-0.335895
0.178921,1.596064,-1.895345,-0.694667,2.161736,-0.731746,-0.337404
0.181483,1.581984,-1.875411,-0.691847,2.139475,-0.717491,-0.341791
0.184781,1.576649,-1.866625,-0.690641,2.131111,-0.712606,-0.344099
0.189594,1.562676,-1.845591,-0.687019,2.107645,-0.699055,-0.348886
0.191427,1.556737,-1.83633,-0.685767,2.097962,-0.693272,-0.350329
0.193008,1.539824,-1.813661,-0.682808,2.073849,-0.677866,-0.352512
0.193843,1.529125,-1.79919,-0.681181,2.059008,-0.668247,-0.353205
0.195152,1.515624,-1.777465,-0.679071,2.036004,-0.653988,-0.353257
0.187988,1.505427,-1.763263,-0.67631,2.011711,-0.638896,-0.350958
0.1826,1.49016,-1.730908,-0.673096,1.967773,-0.612569,-0.34649
0.181047,1.483913,-1.718309,-0.67179,1.95151,-0.602686,-0.345527
0.178347,1.467071,-1.694422,-0.66772,1.922211,-0.583892,-0.348652
0.177702,1.460004,-1.687641,-0.665724,1.914529,-0.578542,-0.351989
0.176263,1.442064,-1.671112,-0.660574,1.89571,-0.565701,-0.360027
0.168934,1.433769,-1.667733,-0.657646,1.884584,-0.557686,-0.360868
0.161362,1.414928,-1.641964,-0.653444,1.846697,-0.534533,-0.356764
0.1563,1.40332,-1.624961,-0.651187,1.821425,-0.519219,-0.352581
0.150981,1.387736,-1.605785,-0.647741,1.793313,-0.501946,-0.350075
0.143042,1.375007,-1.602035,-0.643356,1.780689,-0.492615,-0.352355
0.139581,1.355353,-1.594566,-0.636514,1.767763,-0.483697,-0.360656
0.138167,1.347689,-1.591091,-0.633816,1.761581,-0.479738,-0.363522
0.130215,1.328716,-1.577411,-0.627545,1.734122,-0.462944,-0.364919
0.125612,1.321195,-1.570344,-0.625215,1.719209,-0.453968,-0.363688
0.113662,1.302495,-1.552198,-0.619679,1.681073,-0.430624,-0.360308
0.109679,1.295093,-1.545864,-0.617487,1.668223,-0.422463,-0.360019
0.100016,1.276804,-1.536106,-0.611225,1.644195,-0.405976,-0.362969
0.09527,1.266072,-1.53094,-0.607541,1.632128,-0.397329,-0.36561
0.088369,1.251307,-1.523395,-0.603111,1.615985,-0.384942,-0.367834
0.082145,1.239597,-1.516682,-0.600373,1.603003,-0.374174,-0.367568
0.071241,1.219403,-1.504609,-0.596494,1.581744,-0.355205,-0.365325
0.066021,1.211099,-1.501254,-0.594716,1.574342,-0.347712,-0.364611
0.054356,1.190719,-1.493939,-0.589854,1.558233,-0.330475,-0.364915
0.050503,1.182759,-1.490478,-0.587965,1.552115,-0.323864,-0.36558
0.04198,1.162892,-1.483647,-0.582905,1.539771,-0.309288,-0.367899
0.039733,1.155093,-1.481439,-0.580879,1.536245,-0.304781,-0.368894
0.037922,1.135903,-1.478485,-0.575736,1.533548,-0.298423,-0.371954
0.038237,1.124656,-1.477375,-0.572634,1.533551,-0.296274,-0.373915
0.037347,1.110021,-1.475515,-0.568414,1.530717,-0.29205,-0.375913
0.033338,1.099269,-1.474676,-0.564951,1.524652,-0.286221,-0.376597
0.024898,1.081859,-1.472675,-0.559083,1.510511,-0.274498,-0.376924
0.022041,1.075011,-1.472503,-0.556801,1.5062,-0.270543,-0.377151
0.021685,1.05805,-1.471753,-0.55172,1.503657,-0.266436,-0.378687
0.023813,1.051315,-1.471352,-0.549917,1.505407,-0.266778,-0.379566
0.02999,1.034929,-1.470593,-0.54545,1.510439,-0.268495,-0.381934
0.031374,1.028697,-1.470537,-0.543528,1.51084,-0.268262,-0.382806
0.031236,1.01457,-1.47177,-0.538044,1.506225,-0.264908,-0.385364
0.03022,1.006516,-1.472876,-0.534683,1.502182,-0.262071,-0.386777
0.029732,0.995131,-1.473511,-0.530841,1.498881,-0.258447,-0.387448
0.0305,0.985693,-1.473044,-0.528689,1.499253,-0.256144,-0.386448
0.032823,0.969036,-1.471263,-0.525879,1.502707,-0.252608,-0.383016
0.033814,0.962237,-1.47044,-0.524738,1.504282,-0.251181,-0.381659
0.036123,0.945318,-1.468559,-0.521395,1.507679,-0.24744,-0.379664
0.037235,0.938497,-1.467705,-0.519991,1.509302,-0.246007,-0.379206
0.039123,0.921301,-1.465963,-0.516072,1.512059,-0.241847,-0.378345
0.039021,0.914389,-1.465671,-0.514237,1.511899,-0.239655,-0.377977
0.035918,0.896865,-1.466671,-0.508709,1.507592,-0.232515,-0.37696
0.03297,0.886314,-1.467811,-0.505065,1.503545,-0.227454,-0.376408
0.028959,0.872499,-1.469108,-0.500318,1.498467,-0.220394,-0.375876
0.026001,0.862259,-1.469704,-0.496908,1.495286,-0.214771,-0.375661
0.02078,0.845433,-1.470466,-0.491279,1.490185,-0.204832,-0.375581
0.018762,0.839009,-1.470933,-0.48907,1.488454,-0.201106,-0.375657
0.014828,0.824267,-1.472079,-0.48384,1.484607,-0.193494,-0.376235
0.013615,0.818801,-1.472543,-0.481807,1.483193,-0.191035,-0.376692
0.0108,0.80618,-1.473478,-0.477194,1.480148,-0.185158,-0.377591
0.009558,0.801559,-1.473679,-0.47565,1.479204,-0.18255,-0.377574
0.005779,0.791095,-1.47391,-0.472551,1.477597,-0.174946,-0.376491
0.003474,0.785538,-1.473789,-0.471121,1.477061,-0.170235,-0.375374
0.00096,0.778927,-1.473346,-0.469624,1.476965,-0.16471,-0.373573
-0.000303,0.774581,-1.472747,-0.468847,1.477505,-0.161379,-0.37196
-0.001694,0.768515,-1.471328,-0.468192,1.479295,-0.156806,-0.368752
-0.002152,0.766481,-1.47074,-0.468075,1.480101,-0.155241,-0.367423
-0.003297,0.762358,-1.469395,-0.467956,1.481897,-0.151836,-0.364311
-0.003702,0.761138,-1.468857,-0.468033,1.482626,-0.150685,-0.363111
-0.004661,0.758885,-1.467575,-0.468487,1.484356,-0.148408,-0.359977
-0.005064,0.758204,-1.467119,-0.468749,1.484951,-0.147757,-0.358596
-0.006227,0.757255,-1.466364,-0.469675,1.485871,-0.146779,-0.354558
-0.006932,0.757074,-1.46596,-0.470357,1.486326,-0.146617,-0.351994
-0.007701,0.756956,-1.465027,-0.471346,1.48743,-0.146842,-0.348933
-0.007958,0.75693,-1.463866,-0.472144,1.488891,-0.147518,-0.347084
-0.008089,0.75711,-1.461393,-0.473605,1.492022,-0.149381,-0.344468
-0.008291,0.757158,-1.460328,-0.47419,1.493307,-0.15008,-0.343468
-0.009743,0.756976,-1.457672,-0.475564,1.496193,-0.151014,-0.340738
-0.01062,0.756833,-1.456557,-0.476114,1.497315,-0.151146,-0.339567
-0.013229,0.756314,-1.453731,-0.477369,1.499956,-0.151391,-0.336883
-0.014353,0.756042,-1.452628,-0.477775,1.500899,-0.151599,-0.336052
-0.016861,0.755209,-1.449905,-0.478619,1.503169,-0.152953,-0.33461
-0.018633,0.754522,-1.448295,-0.478915,1.504325,-0.153793,-0.334062
-0.022245,0.753658,-1.446227,-0.479193,1.505299,-0.15382,-0.333695
-0.026435,0.752962,-1.444799,-0.479191,1.505348,-0.152337,-0.333731
-0.035265,0.75173,-1.442544,-0.478883,1.504568,-0.148214,-0.334326
-0.038881,0.751333,-1.441596,-0.478795,1.504252,-0.146749,-0.334645
-0.046864,0.750694,-1.438926,-0.478802,1.504065,-0.145225,-0.335404
-0.049795,0.750598,-1.43778,-0.4789,1.504134,-0.145219,-0.33574
-0.057332,0.750504,-1.434701,-0.479231,1.504393,-0.145849,-0.336679
-0.060674,0.75045,-1.433368,-0.479368,1.504466,-0.146131,-0.337085
-0.070197,0.750149,-1.429725,-0.479668,1.504532,-0.146525,-0.338196
-0.076288,0.749976,-1.427383,-0.479879,1.504561,-0.146993,-0.33889
-0.084165,0.749962,-1.424194,-0.480291,1.504667,-0.148652,-0.339773
-0.089741,0.750116,-1.421825,-0.480734,1.504789,-0.150685,-0.340198
-0.098781,0.750596,-1.417788,-0.481638,1.505052,-0.155374,-0.340754
-0.102311,0.750922,-1.416061,-0.482013,1.505226,-0.157973,-0.341264
-0.110798,0.752192,-1.411239,-0.482832,1.505943,-0.167062,-0.344318
-0.11403,0.752851,-1.409116,-0.483085,1.506343,-0.171731,-0.346269
-0.122207,0.754583,-1.40353,-0.483801,1.507477,-0.184551,-0.351044
-0.125693,0.755236,-1.401259,-0.484229,1.507922,-0.189675,-0.352271
-0.135067,0.756524,-1.395466,-0.485748,1.509137,-0.202585,-0.352927
-0.14099,0.75725,-1.391937,-0.486804,1.509816,-0.21058,-0.352569
-0.149086,0.758558,-1.387324,-0.488084,1.510408,-0.221382,-0.3526
-0.15526,0.759963,-1.38393,-0.488893,1.510593,-0.229525,-0.353425
-0.165903,0.762778,-1.378456,-0.490036,1.51063,-0.243298,-0.355475
-0.1703,0.763907,-1.376299,-0.490392,1.510443,-0.248877,-0.356338
-0.181674,0.766576,-1.371165,-0.491059,1.509381,-0.263227,-0.358213
-0.186366,0.767606,-1.369212,-0.491205,1.508706,-0.269164,-0.35891
-0.198596,0.770148,-1.364351,-0.491349,1.506655,-0.283784,-0.360806
-0.203769,0.771176,-1.362426,-0.491335,1.505858,-0.289321,-0.361727
-0.217375,0.773638,-1.357398,-0.491105,1.503545,-0.302317,-0.364448
-0.225963,0.775177,-1.354328,-0.490932,1.502044,-0.309647,-0.366251
-0.237743,0.77741,-1.350101,-0.490764,1.50009,-0.318877,-0.368652
-0.246846,0.779354,-1.346777,-0.490794,1.498828,-0.325279,-0.370459
-0.262569,0.78295,-1.341031,-0.491078,1.496792,-0.335056,-0.373445
-0.269026,0.784491,-1.338807,-0.491244,1.495856,-0.338799,-0.374564
-0.28593,0.78805,-1.333752,-0.491204,1.49248,-0.347797,-0.376965
-0.293057,0.789479,-1.331913,-0.49109,1.49072,-0.351138,-0.377813
-0.310879,0.792865,-1.327305,-0.490728,1.486277,-0.359558,-0.379651
-0.317694,0.794088,-1.325318,-0.490632,1.484808,-0.363203,-0.38025
-0.333843,0.796882,-1.32004,-0.49068,1.482074,-0.37279,-0.380956
-0.343239,0.79841,-1.316721,-0.49078,1.48074,-0.378835,-0.381194
-0.355792,0.799855,-1.312096,-0.4904,1.478936,-0.387623,-0.382075
-0.365404,0.800407,-1.308481,-0.489556,1.477408,-0.394925,-0.383493
-0.317694,0.794088,-1.325318,-0.490632,1.484808,-0.363203,-0.38025
-0.387941,0.80046,-1.299526,-0.48673,1.473948,-0.413342,-0.387887
-0.40308,0.79978,-1.291534,-0.485069,1.471694,-0.426315,-0.390365
-0.409595,0.799262,-1.2896,-0.484234,1.472193,-0.43162,-0.391242
-0.424661,0.797806,-1.282077,-0.482523,1.471469,-0.444738,-0.393382
-0.430662,0.797063,-1.279155,-0.481544,1.470989,-0.450138,-0.394509
-0.44599,0.795021,-1.27244,-0.478265,1.469293,-0.463721,-0.39855
-0.455121,0.793546,-1.268462,-0.475938,1.468134,-0.472076,-0.401292
-0.466753,0.791073,-1.263022,-0.472723,1.466927,-0.483954,-0.404321
-0.474908,0.788702,-1.258667,-0.470284,1.466409,-0.493609,-0.405783
-0.487918,0.784013,-1.251348,-0.466025,1.465991,-0.510669,-0.407349
-0.493073,0.781888,-1.248515,-0.46407,1.465833,-0.517682,-0.407921
-0.505795,0.776461,-1.241676,-0.458661,1.465027,-0.535507,-0.409694
-0.51084,0.774146,-1.239023,-0.456229,1.46456,-0.542796,-0.410425
-0.523282,0.767917,-1.232374,-0.449695,1.463394,-0.561241,-0.412523
-0.528224,0.76515,-1.229637,-0.446893,1.463014,-0.568613,-0.413564
-0.540607,0.757503,-1.22269,-0.439282,1.462338,-0.586928,-0.417287
-0.547985,0.752532,-1.218426,-0.434439,1.462053,-0.597937,-0.419751
-0.557632,0.74567,-1.212701,-0.428026,1.461906,-0.612834,-0.422135
-0.564681,0.740432,-1.208374,-0.423374,1.461939,-0.62426,-0.422688
-0.576285,0.731353,-1.201177,-0.415641,1.462204,-0.643574,-0.422258
-0.580893,0.727505,-1.198304,-0.412399,1.462441,-0.651353,-0.422156
-0.592225,0.717002,-1.19076,-0.403522,1.463372,-0.670847,-0.423424
-0.596646,0.712479,-1.187594,-0.399728,1.463926,-0.678708,-0.424404
-0.608012,0.700651,-1.179675,-0.389789,1.465244,-0.698129,-0.426956
-0.612777,0.695978,-1.176647,-0.385879,1.465607,-0.705706,-0.427659
-0.625704,0.683851,-1.16968,-0.375566,1.465966,-0.724289,-0.428382
-0.633822,0.676474,-1.165674,-0.369238,1.465979,-0.735142,-0.428524
-0.644739,0.666891,-1.16038,-0.360962,1.466093,-0.748968,-0.428959
-0.6529,0.660023,-1.156324,-0.354955,1.466339,-0.758689,-0.429739
-0.666426,0.649282,-1.149617,-0.345594,1.466939,-0.774003,-0.431296
-0.671916,0.64495,-1.147094,-0.341805,1.467261,-0.780006,-0.431845
-0.685765,0.633659,-1.140896,-0.332058,1.46799,-0.795069,-0.432574
-0.69131,0.629062,-1.138427,-0.328167,1.468325,-0.80105,-0.432645
-0.705479,0.617354,-1.132613,-0.317992,1.468801,-0.815788,-0.432716
-0.71139,0.612459,-1.130467,-0.313437,1.468632,-0.821584,-0.43288
-0.726697,0.600258,-1.126198,-0.301277,1.467675,-0.835975,-0.433573
-0.736159,0.592723,-1.123952,-0.293414,1.466729,-0.844452,-0.434136
-0.748796,0.582493,-1.121095,-0.28276,1.465423,-0.855461,-0.434946
-0.758167,0.574697,-1.11896,-0.274841,1.464572,-0.86342,-0.435598
-0.773712,0.561451,-1.115384,-0.261399,1.462972,-0.876285,-0.436836
-0.780031,0.556119,-1.114347,-0.255805,1.462437,-0.88141,-0.437349
-0.796298,0.542434,-1.112365,-0.240525,1.460363,-0.894478,-0.438641
-0.802991,0.536777,-1.111821,-0.233848,1.459241,-0.89983,-0.43919
-0.819606,0.522827,-1.110564,-0.217259,1.456499,-0.912763,-0.440583
-0.826008,0.517561,-1.109938,-0.2112,1.455675,-0.917506,-0.441106
-0.841156,0.505388,-1.108303,-0.197992,1.454972,-0.928162,-0.442198
-0.849855,0.498576,-1.107186,-0.190849,1.454782,-0.934021,-0.442786
-0.861582,0.489629,-1.105954,-0.181118,1.454329,-0.941571,-0.443769
-0.870542,0.483003,-1.105318,-0.173476,1.453712,-0.947117,-0.444731
-0.885491,0.472275,-1.10447,-0.160636,1.452401,-0.955954,-0.446624
-0.891394,0.468134,-1.104363,-0.155567,1.452079,-0.959447,-0.447499
-0.906323,0.457621,-1.104076,-0.142525,1.451305,-0.967962,-0.450113
-0.912269,0.453507,-1.103973,-0.137313,1.450989,-0.971286,-0.45133
-0.92701,0.443306,-1.103716,-0.124303,1.45025,-0.97945,-0.454475
-0.93282,0.439228,-1.103599,-0.119136,1.450001,-0.982684,-0.455652
-0.947095,0.429022,-1.103705,-0.106231,1.449787,-0.990807,-0.458174
-0.955553,0.422903,-1.103729,-0.098514,1.449715,-0.99559,-0.459656
-0.966653,0.414901,-1.103515,-0.088505,1.449853,-1.001772,-0.462086
-0.974873,0.409046,-1.103065,-0.081277,1.450218,-1.006193,-0.46454
-0.988356,0.39951,-1.10197,-0.069638,1.451172,-1.013257,-0.469301
-0.993618,0.395775,-1.101656,-0.065092,1.45175,-1.016064,-0.471139
-1.006679,0.386298,-1.101084,-0.053546,1.453078,-1.023085,-0.474896
-1.011817,0.382548,-1.100895,-0.048977,1.453591,-1.025898,-0.476133
-1.02436,0.373223,-1.100224,-0.037681,1.454658,-1.032771,-0.478987
-1.029149,0.36956,-1.100234,-0.033279,1.455431,-1.035457,-0.480178
-1.029149,0.36956,-1.100234,-0.033279,1.455431,-1.035457,-0.480178
-1.029149,0.36956,-1.100234,-0.033279,1.455431,-1.035457,-0.480178
-1.029149,0.36956,-1.100234,-0.033279,1.455431,-1.035457,-0.480178
-1.029149,0.36956,-1.100234,-0.033279,1.455431,-1.035457,-0.480178
-1.029149,0.36956,-1.100234,-0.033279,1.455431,-1.035457,-0.480178
-1.029149,0.36956,-1.100234,-0.033279,1.455431,-1.035457,-0.480178
-1.029149,0.36956,-1.100234,-0.033279,1.455431,-1.035457,-0.480178
-1.029149,0.36956,-1.100234,-0.033279,1.455431,-1.035457,-0.480178
-1.029149,0.36956,-1.100234,-0.033279,1.455431,-1.035457,-0.480178
-1.029149,0.36956,-1.100234,-0.033279,1.455431,-1.035457,-0.480178
-1.029149,0.36956,-1.100234,-0.033279,1.455431,-1.035457,-0.480178
-1.029149,0.36956,-1.100234,-0.033279,1.455431,-1.035457,-0.480178
-1.029149,0.36956,-1.100234,-0.033279,1.455431,-1.035457,-0.480178
-1.029149,0.36956,-1.100234,-0.033279,1.455431,-1.035457,-0.480178
-1.029149,0.36956,-1.100234,-0.033279,1.455431,-1.035457,-0.480178
-1.029149,0.36956,-1.100234,-0.033279,1.455431,-1.035457,-0.480178
-1.029149,0.36956,-1.100234,-0.033279,1.455431,-1.035457,-0.480178
-1.029149,0.36956,-1.100234,-0.033279,1.455431,-1.035457,-0.480178
-1.029149,0.36956,-1.100234,-0.033279,1.455431,-1.035457,-0.480178
-1.029149,0.36956,-1.100234,-0.033279,1.455431,-1.035457,-0.480178
-1.029149,0.36956,-1.100234,-0.033279,1.455431,-1.035457,-0.480178
-1.029149,0.36956,-1.100234,-0.033279,1.455431,-1.035457,-0.480178
-1.029149,0.36956,-1.100234,-0.033279,1.455431,-1.035457,-0.480178
-1.029149,0.36956,-1.100234,-0.033279,1.455431,-1.035457,-0.480178
-1.029149,0.36956,-1.100234,-0.033279,1.455431,-1.035457,-0.480178
-1.029149,0.36956,-1.100234,-0.033279,1.455431,-1.035457,-0.480178
-1.029149,0.36956,-1.100234,-0.033279,1.455431,-1.035457,-0.480178
-1.029149,0.36956,-1.100234,-0.033279,1.455431,-1.035457,-0.480178
-1.029149,0.36956,-1.100234,-0.033279,1.455431,-1.035457,-0.480178
-1.029149,0.36956,-1.100234,-0.033279,1.455431,-1.035457,-0.480178
-1.040176,0.348993,-1.094137,-0.000318,1.441345,-1.047198,-0.495073
-1.034029,0.354537,-1.104351,-0.005871,1.452384,-1.045203,-0.496546
-1.027425,0.361804,-1.104267,-0.013445,1.451425,-1.040689,-0.49648
-1.022267,0.36808,-1.104414,-0.02038,1.450544,-1.0366,-0.495243
-1.013205,0.379843,-1.104872,-0.033737,1.448808,-1.028853,-0.491834
-1.00953,0.384516,-1.105144,-0.038992,1.448057,-1.025708,-0.490435
-1.000433,0.395116,-1.10599,-0.050471,1.446081,-1.018347,-0.487787
-0.996833,0.399052,-1.106411,-0.054609,1.445218,-1.015497,-0.486895
-0.987609,0.408845,-1.107706,-0.064692,1.442843,-1.008343,-0.484632
-0.983807,0.412851,-1.108339,-0.068733,1.441775,-1.005384,-0.483602
-0.974256,0.42291,-1.110699,-0.078568,1.439057,-0.997909,-0.48055
-0.968359,0.429033,-1.112305,-0.084433,1.437253,-0.993273,-0.478579
-0.959875,0.437623,-1.114364,-0.092728,1.43485,-0.986655,-0.476153
-0.952848,0.444624,-1.11573,-0.099717,1.433124,-0.981122,-0.474505
-0.940316,0.456874,-1.117881,-0.112048,1.430206,-0.971194,-0.471975
-0.935163,0.46172,-1.118995,-0.116729,1.429203,-0.967335,-0.471153
-0.922728,0.472548,-1.122154,-0.125916,1.426251,-0.958671,-0.470101
-0.917807,0.476527,-1.123557,-0.128778,1.424884,-0.955563,-0.470118
-0.905115,0.486489,-1.127156,-0.135985,1.421359,-0.947733,-0.469668
-0.899709,0.490777,-1.128531,-0.139583,1.420032,-0.94427,-0.468773
-0.885428,0.502303,-1.132031,-0.150834,1.417591,-0.9347,-0.464232
-0.876425,0.509544,-1.134082,-0.158322,1.416237,-0.928548,-0.460741
-0.86388,0.51943,-1.137027,-0.168103,1.41416,-0.920103,-0.456406
-0.854069,0.52686,-1.1395,-0.174888,1.412235,-0.913735,-0.453627
-0.837052,0.53947,-1.144215,-0.185903,1.408856,-0.902799,-0.449211
-0.830057,0.544808,-1.146393,-0.190501,1.407636,-0.89813,-0.447523
-0.812238,0.559276,-1.152088,-0.202923,1.404418,-0.885188,-0.443632
-0.805018,0.565451,-1.154528,-0.208111,1.402967,-0.879523,-0.442257
-0.78657,0.581254,-1.160449,-0.221723,1.3994,-0.864642,-0.438568
-0.837052,0.53947,-1.144215,-0.185903,1.408856,-0.902799,-0.449211
-0.837052,0.53947,-1.144215,-0.185903,1.408856,-0.902799,-0.449211
-0.837052,0.53947,-1.144215,-0.185903,1.408856,-0.902799,-0.449211
-0.730045,0.625319,-1.170614,-0.266021,1.39232,-0.82005,-0.422895
-0.718227,0.635374,-1.17651,-0.275422,1.394381,-0.81001,-0.420445
-0.697881,0.652119,-1.181527,-0.291358,1.392829,-0.791782,-0.416576
-0.69003,0.658676,-1.184274,-0.297605,1.392733,-0.784324,-0.414953
-0.67119,0.674142,-1.191382,-0.313095,1.392182,-0.765006,-0.409803
-0.663935,0.679972,-1.194307,-0.319252,1.391808,-0.75696,-0.407333
-0.64648,0.694199,-1.202176,-0.334227,1.391098,-0.736371,-0.401351
-0.639684,0.699924,-1.20525,-0.340009,1.390688,-0.728001,-0.399369
-0.623436,0.714392,-1.213676,-0.353684,1.389696,-0.706839,-0.39559
-0.614046,0.722955,-1.218698,-0.361546,1.388895,-0.69388,-0.393759
-0.601746,0.734106,-1.225463,-0.371919,1.388521,-0.676453,-0.391565
-0.592416,0.742228,-1.230047,-0.379774,1.388601,-0.663233,-0.390071
-0.576966,0.755339,-1.237275,-0.392657,1.38926,-0.640969,-0.387985
-0.571017,0.760422,-1.240277,-0.397634,1.389688,-0.632018,-0.387207
-0.55667,0.772761,-1.247645,-0.409683,1.390601,-0.609582,-0.385013
-0.551001,0.777561,-1.250447,-0.414419,1.391007,-0.600613,-0.384006
-0.537948,0.788901,-1.258118,-0.425395,1.39192,-0.577935,-0.38192
-0.53337,0.793066,-1.261302,-0.429295,1.391698,-0.568576,-0.381476
-0.524205,0.802834,-1.270134,-0.437576,1.389311,-0.543871,-0.382257
-0.519581,0.808041,-1.275603,-0.44183,1.387127,-0.528755,-0.383126
-0.513187,0.813709,-1.282485,-0.447157,1.384494,-0.509522,-0.382991
-0.507769,0.817007,-1.287592,-0.45122,1.383774,-0.496151,-0.381184
-0.53337,0.793066,-1.261302,-0.429295,1.391698,-0.568576,-0.381476
-0.493632,0.821935,-1.296411,-0.460083,1.381142,-0.467019,-0.374405
-0.485779,0.822857,-1.30568,-0.463043,1.379671,-0.44957,-0.371359
-0.482601,0.822608,-1.308831,-0.463605,1.378186,-0.443415,-0.370437
-0.474917,0.821177,-1.316548,-0.464225,1.373879,-0.428947,-0.368698
-0.472016,0.820441,-1.319636,-0.464364,1.372114,-0.423073,-0.368197
-0.46532,0.818114,-1.327438,-0.464126,1.367401,-0.408403,-0.367906
-0.46149,0.816384,-1.332094,-0.463736,1.364436,-0.399732,-0.368017
-0.456353,0.813753,-1.33817,-0.463381,1.360741,-0.387955,-0.367646
-0.452282,0.811442,-1.342541,-0.463364,1.358394,-0.378969,-0.366635
-0.445338,0.807054,-1.349634,-0.463431,1.355012,-0.363865,-0.364329
-0.442711,0.805322,-1.352462,-0.463476,1.353602,-0.357609,-0.363463
-0.437181,0.801525,-1.359641,-0.463533,1.349565,-0.340774,-0.362283
-0.435367,0.80016,-1.362497,-0.463539,1.347853,-0.333504,-0.362185
-0.430867,0.796493,-1.369897,-0.463299,1.34311,-0.315652,-0.361704
-0.428776,0.794717,-1.373062,-0.463052,1.340915,-0.309167,-0.361007
-0.422572,0.789047,-1.381845,-0.461612,1.334656,-0.295195,-0.357335
-0.418581,0.785191,-1.387421,-0.460531,1.330537,-0.287501,-0.354508
-0.413539,0.779763,-1.394777,-0.458908,1.324994,-0.277014,-0.351356
-0.410319,0.775501,-1.400111,-0.4575,1.320818,-0.268403,-0.349934
-0.40534,0.768128,-1.40898,-0.455083,1.313745,-0.253706,-0.348326
-0.403086,0.764905,-1.412542,-0.453929,1.310946,-0.248385,-0.3477
-0.395703,0.755851,-1.421569,-0.450469,1.304054,-0.238227,-0.345239
-0.392122,0.751805,-1.425266,-0.448871,1.301287,-0.235307,-0.343857
-0.382798,0.741765,-1.434302,-0.444752,1.294656,-0.228741,-0.341054
-0.379282,0.738158,-1.437685,-0.443178,1.292227,-0.225775,-0.340761
-0.371208,0.730474,-1.445409,-0.439129,1.28667,-0.217511,-0.343596
-0.366488,0.726311,-1.44976,-0.436737,1.283602,-0.212454,-0.346248
-0.359642,0.720657,-1.455466,-0.433928,1.279932,-0.206118,-0.34818
-0.353939,0.716217,-1.459702,-0.432347,1.277598,-0.201745,-0.347411
-0.343644,0.708795,-1.466525,-0.430311,1.274397,-0.194983,-0.343983
-0.339555,0.705755,-1.469216,-0.429493,1.273129,-0.192173,-0.342503
-0.32918,0.698177,-1.476033,-0.427121,1.269781,-0.185196,-0.340035
-0.324894,0.695083,-1.478833,-0.426079,1.268389,-0.182526,-0.339267
-0.314718,0.687649,-1.485584,-0.423776,1.265116,-0.174994,-0.337437
-0.31123,0.684926,-1.488069,-0.423108,1.264009,-0.171201,-0.336666
-0.304203,0.678847,-1.493595,-0.4221,1.261904,-0.159021,-0.33496
-0.300695,0.675443,-1.496604,-0.421686,1.260922,-0.150821,-0.333962
-0.296258,0.671109,-1.500471,-0.421303,1.259633,-0.140455,-0.332214
-0.29309,0.667852,-1.503395,-0.421005,1.25851,-0.133276,-0.330352
-0.288243,0.662657,-1.508065,-0.420649,1.256668,-0.121877,-0.326669
-0.286219,0.660727,-1.50971,-0.420513,1.256128,-0.117939,-0.325282
-0.280468,0.656036,-1.512892,-0.419797,1.255651,-0.110476,-0.322639
-0.277969,0.654338,-1.513861,-0.419501,1.255738,-0.108331,-0.321824
-0.271442,0.650561,-1.515696,-0.418845,1.256475,-0.104616,-0.320012
-0.268752,0.649206,-1.516229,-0.418597,1.256946,-0.103692,-0.319293
-0.261604,0.64637,-1.516886,-0.418112,1.258742,-0.103192,-0.31747
-0.257193,0.644966,-1.516941,-0.417871,1.2601,-0.103865,-0.316453
-0.251616,0.643232,-1.516924,-0.417533,1.261847,-0.105112,-0.315269
-0.247632,0.642008,-1.516855,-0.41726,1.263108,-0.106274,-0.314506
-0.241317,0.640195,-1.516551,-0.416795,1.265204,-0.108866,-0.31346
-0.239122,0.639523,-1.516454,-0.416597,1.265886,-0.109883,-0.313146
-0.235019,0.637924,-1.516521,-0.416054,1.266842,-0.111794,-0.312716
-0.233902,0.637229,-1.516645,-0.415714,1.266946,-0.112372,-0.312709
-0.23181,0.635769,-1.517017,-0.415014,1.266912,-0.113763,-0.312809
-0.231107,0.63525,-1.517139,-0.414754,1.266875,-0.114402,-0.312828
-0.229802,0.634163,-1.517395,-0.414207,1.266688,-0.11605,-0.312734
-0.229323,0.63361,-1.51753,-0.413895,1.26648,-0.11714,-0.312701
-0.228814,0.632901,-1.517652,-0.413405,1.266143,-0.119004,-0.312866
-0.228541,0.632378,-1.517715,-0.412938,1.265799,-0.120796,-0.313269
-0.228347,0.63149,-1.517749,-0.411963,1.265094,-0.124333,-0.314265
-0.228246,0.631153,-1.517699,-0.41159,1.26487,-0.125913,-0.314635
-0.227684,0.630308,-1.517286,-0.410778,1.264706,-0.130304,-0.315114
-0.227364,0.629969,-1.517002,-0.410491,1.264783,-0.132286,-0.315154
-0.226554,0.629029,-1.516236,-0.409629,1.265009,-0.137355,-0.315317
-0.226274,0.628662,-1.515992,-0.409217,1.265011,-0.139288,-0.315542
-0.225744,0.627994,-1.51555,-0.408292,1.2648,-0.14385,-0.316631
-0.22547,0.627629,-1.515346,-0.407689,1.264591,-0.146492,-0.317442
-0.225113,0.627143,-1.515126,-0.406882,1.264294,-0.149802,-0.318311
-0.22489,0.62688,-1.515037,-0.406421,1.264036,-0.152055,-0.318648
-0.224557,0.626563,-1.514993,-0.405776,1.263549,-0.155493,-0.318912
-0.224337,0.626483,-1.514972,-0.405543,1.263393,-0.156846,-0.319002
-0.223295,0.62643,-1.51482,-0.404974,1.263233,-0.160443,-0.319392
-0.222696,0.626473,-1.514733,-0.404758,1.263242,-0.161966,-0.319588
-0.221091,0.626654,-1.514495,-0.404292,1.263371,-0.165545,-0.320036
-0.220523,0.626655,-1.514391,-0.404072,1.263448,-0.166737,-0.320166
-0.219256,0.626819,-1.514135,-0.403808,1.263709,-0.169173,-0.320325
-0.218555,0.626935,-1.513981,-0.403723,1.263913,-0.170303,-0.320346
-0.217711,0.627082,-1.513807,-0.403687,1.264208,-0.171351,-0.320298
-0.217178,0.627182,-1.5137,-0.403728,1.26445,-0.17171,-0.320209
-0.216431,0.627344,-1.513559,-0.403913,1.264893,-0.171629,-0.319955
-0.216133,0.627384,-1.513526,-0.403994,1.265067,-0.17147,-0.319817
-0.215315,0.627482,-1.513548,-0.404258,1.265441,-0.170918,-0.319304
-0.214981,0.627502,-1.513597,-0.404388,1.265574,-0.17057,-0.31902
-0.214082,0.627569,-1.513759,-0.404724,1.265894,-0.169619,-0.318326
-0.213677,0.627624,-1.513821,-0.404844,1.266026,-0.169298,-0.318127
-0.212449,0.62778,-1.513933,-0.405032,1.266411,-0.168733,-0.317877
-0.21166,0.627929,-1.514012,-0.405155,1.266636,-0.16843,-0.317811
-0.21075,0.628163,-1.514186,-0.405334,1.266835,-0.167888,-0.317735
-0.210272,0.628371,-1.514413,-0.405486,1.266843,-0.167274,-0.317677
-0.209687,0.628693,-1.514893,-0.405671,1.266698,-0.166043,-0.31762
-0.209434,0.628843,-1.515065,-0.405767,1.266666,-0.165591,-0.317588
-0.208536,0.629208,-1.515305,-0.406019,1.266832,-0.164827,-0.317437
-0.208094,0.629357,-1.515344,-0.406128,1.266974,-0.164635,-0.317347
-0.206969,0.62972,-1.515382,-0.406393,1.267388,-0.164251,-0.317148
-0.206569,0.629854,-1.515396,-0.406487,1.267539,-0.164083,-0.317114
-0.205695,0.630109,-1.515397,-0.406628,1.267909,-0.163598,-0.317186
-0.205221,0.630269,-1.515388,-0.406722,1.268124,-0.163316,-0.317279
-0.204637,0.630459,-1.515411,-0.406824,1.26834,-0.163008,-0.317384
-0.204247,0.630569,-1.515474,-0.406874,1.268424,-0.162827,-0.317447
-0.203673,0.63071,-1.515629,-0.406919,1.268465,-0.16261,-0.317545
-0.203452,0.630741,-1.515692,-0.406903,1.268466,-0.162578,-0.317555
-0.20287,0.630964,-1.515836,-0.406992,1.268487,-0.162673,-0.317377
-0.202635,0.631076,-1.515894,-0.407049,1.268494,-0.162764,-0.317218
-0.202047,0.63137,-1.516025,-0.407158,1.268486,-0.163193,-0.316864
-0.201811,0.631481,-1.516066,-0.407161,1.26847,-0.163472,-0.316828
-0.201194,0.631713,-1.516129,-0.407003,1.268389,-0.16454,-0.317151
-0.200825,0.631854,-1.516152,-0.406865,1.268322,-0.165336,-0.317455
-0.200377,0.632071,-1.516185,-0.406731,1.268231,-0.166385,-0.317696
-0.200071,0.632271,-1.516205,-0.406713,1.268185,-0.167123,-0.317616
-0.19961,0.632648,-1.516233,-0.406752,1.268116,-0.168361,-0.317245
-0.199466,0.632784,-1.516255,-0.406734,1.268058,-0.168855,-0.317141
-0.199289,0.633141,-1.516407,-0.406602,1.267718,-0.170062,-0.317304
-0.199287,0.633286,-1.516507,-0.406507,1.267505,-0.17054,-0.317509
-0.199348,0.633618,-1.516739,-0.40625,1.26697,-0.171716,-0.318077
-0.199362,0.633723,-1.516787,-0.406166,1.266816,-0.172179,-0.318237
-0.199381,0.633879,-1.516747,-0.406025,1.266654,-0.173291,-0.318378
-0.199406,0.633909,-1.516678,-0.405926,1.266609,-0.17393,-0.318401
-0.199402,0.63403,-1.516624,-0.405791,1.266496,-0.174858,-0.318588
-0.199366,0.63418,-1.516649,-0.405629,1.266315,-0.17566,-0.318937
-0.199265,0.634492,-1.516741,-0.405303,1.265934,-0.1771,-0.319729
-0.199222,0.634607,-1.516766,-0.405157,1.265801,-0.17764,-0.320029
-0.199138,0.634982,-1.516784,-0.404995,1.265588,-0.178735,-0.320497
-0.199107,0.635149,-1.516776,-0.40497,1.265539,-0.179103,-0.320603
-0.199042,0.635591,-1.51673,-0.404962,1.265476,-0.179866,-0.320814
-0.199024,0.635768,-1.516701,-0.404967,1.265471,-0.180105,-0.32092
-0.199042,0.636197,-1.516591,-0.404991,1.265515,-0.180487,-0.321247
-0.199061,0.636466,-1.51651,-0.405034,1.265577,-0.180612,-0.321452
-0.199008,0.636841,-1.516397,-0.405106,1.265694,-0.180769,-0.32171
-0.198852,0.63712,-1.516311,-0.405163,1.265814,-0.180941,-0.321866
-0.19847,0.637598,-1.516158,-0.405276,1.266067,-0.181219,-0.322097
-0.198346,0.637815,-1.516092,-0.405332,1.266176,-0.18126,-0.322219
-0.198278,0.638501,-1.515915,-0.405535,1.266438,-0.181022,-0.32272
-0.19833,0.638817,-1.515834,-0.405631,1.266546,-0.180805,-0.323001
-0.198513,0.639711,-1.515647,-0.405933,1.266813,-0.180124,-0.323683
-0.198563,0.640115,-1.515591,-0.406087,1.266911,-0.179849,-0.323875
-0.198489,0.641204,-1.515514,-0.406529,1.26715,-0.17929,-0.324046
-0.19845,0.641943,-1.515491,-0.406853,1.267282,-0.178902,-0.324067
-0.198689,0.643067,-1.515462,-0.40735,1.267418,-0.178046,-0.324223
-0.199194,0.644018,-1.515442,-0.407766,1.267473,-0.176998,-0.324557
-0.200455,0.645747,-1.515421,-0.408494,1.26749,-0.174748,-0.325313
-0.201024,0.646521,-1.515403,-0.408837,1.267495,-0.173832,-0.325556
-0.202541,0.648646,-1.51534,-0.40983,1.267492,-0.171772,-0.325756
-0.203246,0.64956,-1.515323,-0.410274,1.267457,-0.17096,-0.32572
-0.204936,0.652041,-1.515181,-0.411456,1.267497,-0.169106,-0.325417
-0.205445,0.653186,-1.515037,-0.41201,1.267656,-0.168512,-0.325213
-0.206424,0.656178,-1.514375,-0.41358,1.268517,-0.167149,-0.32442
-0.206795,0.658234,-1.51387,-0.41465,1.269214,-0.166564,-0.323807
-0.206855,0.661644,-1.513236,-0.416151,1.270135,-0.166485,-0.322987
-0.206361,0.664918,-1.512817,-0.417391,1.270802,-0.167304,-0.322459
-0.204829,0.671381,-1.512146,-0.419647,1.27196,-0.169764,-0.32158
-0.204223,0.674243,-1.511918,-0.420672,1.272417,-0.17073,-0.321113
-0.203309,0.681866,-1.511491,-0.42359,1.2734,-0.172158,-0.319406
-0.203116,0.685152,-1.511387,-0.424912,1.273719,-0.172447,-0.318536
-0.20265,0.693955,-1.511117,-0.428467,1.27459,-0.173118,-0.316065
-0.202366,0.697737,-1.510939,-0.429992,1.275044,-0.173531,-0.315003
-0.201577,0.707695,-1.510267,-0.434136,1.276623,-0.174531,-0.311921
-0.200976,0.714115,-1.509795,-0.436785,1.277693,-0.175329,-0.30995
-0.199719,0.72345,-1.509267,-0.44033,1.278998,-0.177386,-0.307642
-0.198197,0.731162,-1.509077,-0.442872,1.279707,-0.180211,-0.306386
-0.194869,0.745105,-1.508903,-0.447071,1.280737,-0.186506,-0.304748
-0.19354,0.750965,-1.508786,-0.448911,1.281368,-0.188974,-0.304014
-0.190707,0.765895,-1.507748,-0.454075,1.284006,-0.193607,-0.301464
-0.189691,0.772101,-1.507072,-0.456418,1.285448,-0.195022,-0.300205
-0.187258,0.788081,-1.50528,-0.462511,1.289216,-0.198247,-0.296944
-0.186286,0.794618,-1.504698,-0.464911,1.290531,-0.199632,-0.295736
-0.184369,0.81133,-1.503935,-0.470797,1.293128,-0.202902,-0.292972
-0.18318,0.821632,-1.50357,-0.474343,1.294536,-0.204968,-0.291388
-0.180664,0.835615,-1.502896,-0.479023,1.297011,-0.208767,-0.289352
-0.177731,0.846339,-1.501998,-0.482575,1.299686,-0.212672,-0.287869
-0.171426,0.86462,-1.500126,-0.488499,1.30509,-0.220623,-0.28552
-0.168716,0.872001,-1.49968,-0.490755,1.307356,-0.224173,-0.284658
-0.161565,0.890559,-1.49937,-0.495947,1.311964,-0.233852,-0.282768
-0.158439,0.898039,-1.499521,-0.497823,1.313491,-0.238193,-0.282146
-0.150291,0.916828,-1.5,-0.502426,1.317352,-0.249293,-0.280485
-0.147052,0.924377,-1.500069,-0.504396,1.319165,-0.253483,-0.279639
-0.139068,0.943264,-1.500339,-0.50952,1.324695,-0.263535,-0.277048
-0.134199,0.954666,-1.500372,-0.51274,1.328322,-0.269325,-0.275277
-0.127769,0.969923,-1.50029,-0.517211,1.333426,-0.276494,-0.272754
-0.123056,0.981444,-1.500073,-0.52079,1.33755,-0.281237,-0.27071
-0.115345,1.0008,-1.499476,-0.527112,1.344817,-0.288228,-0.267054
-0.112445,1.008465,-1.499605,-0.529526,1.347866,-0.290999,-0.265613
-0.105266,1.027557,-1.500316,-0.535275,1.354734,-0.298257,-0.262172
-0.10245,1.035161,-1.500728,-0.537472,1.35722,-0.301183,-0.260817
-0.09524,1.054045,-1.501819,-0.542795,1.363449,-0.308763,-0.257551
-0.092173,1.061529,-1.502202,-0.544874,1.366163,-0.311999,-0.256327
-0.084256,1.079962,-1.503824,-0.549726,1.374094,-0.320984,-0.253738
-0.079267,1.090922,-1.50476,-0.552561,1.379132,-0.326632,-0.252287
-0.072821,1.105503,-1.505921,-0.556482,1.385902,-0.333729,-0.25005
-0.068515,1.116463,-1.506952,-0.559641,1.391013,-0.338409,-0.247955
-0.061198,1.134634,-1.507928,-0.565059,1.399279,-0.345651,-0.244027
-0.058623,1.141843,-1.508806,-0.567166,1.402914,-0.348513,-0.242502
-0.051983,1.159844,-1.511075,-0.572335,1.412479,-0.35605,-0.239079
-0.049178,1.167041,-1.511788,-0.574404,1.416373,-0.359115,-0.2378
-0.04206,1.184957,-1.513909,-0.579444,1.426543,-0.367098,-0.234839
-0.039431,1.192028,-1.515407,-0.581305,1.430965,-0.370491,-0.233775
-0.031938,1.209634,-1.519253,-0.585639,1.442311,-0.379878,-0.231427
-0.027149,1.220122,-1.52168,-0.58812,1.449367,-0.385843,-0.230199
-0.020774,1.233883,-1.524825,-0.591409,1.458985,-0.393699,-0.228709
-0.016863,1.243966,-1.527891,-0.593844,1.466662,-0.399249,-0.227708
-0.008407,1.260752,-1.530588,-0.598156,1.479066,-0.408636,-0.226266
-0.005844,1.267175,-1.532686,-0.599663,1.48432,-0.412314,-0.225771
0.000772,1.282653,-1.538112,-0.603099,1.49717,-0.42181,-0.224591
0.003462,1.288616,-1.540318,-0.60436,1.502215,-0.425677,-0.224136
0.010344,1.303198,-1.545969,-0.607278,1.51479,-0.435536,-0.223283
0.013187,1.308975,-1.54831,-0.608358,1.519869,-0.439576,-0.223134
0.019389,1.323058,-1.555721,-0.610443,1.532745,-0.449921,-0.223654
0.023246,1.331362,-1.560277,-0.611564,1.540548,-0.456265,-0.224192
0.028381,1.342275,-1.566267,-0.613298,1.551371,-0.464474,-0.224383
0.032264,1.350351,-1.570698,-0.614915,1.560087,-0.47043,-0.223859
0.038702,1.363603,-1.57797,-0.617959,1.575172,-0.480007,-0.222292
0.040456,1.368753,-1.58131,-0.619161,1.580994,-0.483411,-0.221568
0.044206,1.38137,-1.588795,-0.622063,1.594024,-0.490853,-0.219945
0.045462,1.386392,-1.591485,-0.623269,1.598756,-0.493466,-0.219296
0.048398,1.398716,-1.597859,-0.626319,1.609838,-0.499328,-0.217515
0.049611,1.403505,-1.600391,-0.627537,1.614077,-0.501464,-0.216695
0.05165,1.41495,-1.607127,-0.630471,1.623441,-0.50557,-0.214219
0.052916,1.421616,-1.611071,-0.632231,1.628727,-0.507719,-0.212584
0.054902,1.4303,-1.61682,-0.634498,1.636669,-0.511151,-0.210477
0.056727,1.436707,-1.62175,-0.636132,1.643778,-0.514465,-0.209013
0.060172,1.447105,-1.630622,-0.638781,1.656828,-0.520696,-0.206668
0.061024,1.451028,-1.634602,-0.639748,1.662035,-0.523096,-0.205727
0.063075,1.460189,-1.644072,-0.641994,1.674538,-0.52881,-0.20347
0.063881,1.463667,-1.647775,-0.642867,1.679483,-0.531074,-0.202601
0.065926,1.471949,-1.656884,-0.644968,1.691641,-0.536632,-0.200468
0.066771,1.47512,-1.660473,-0.645775,1.696368,-0.538785,-0.199611
0.068186,1.482586,-1.66978,-0.647601,1.7076,-0.543743,-0.197449
0.069085,1.486814,-1.675274,-0.648641,1.714154,-0.546631,-0.19615
0.069672,1.491981,-1.683059,-0.649842,1.722704,-0.550297,-0.194312
0.071383,1.495819,-1.688155,-0.650928,1.72949,-0.553414,-0.192927
0.073203,1.501506,-1.697434,-0.652448,1.740526,-0.558304,-0.190457
0.073685,1.503639,-1.701212,-0.652991,1.744687,-0.560133,-0.189453
0.074921,1.508804,-1.710175,-0.654177,1.75421,-0.56445,-0.187066
0.07544,1.510827,-1.713626,-0.654597,1.757718,-0.566108,-0.186152
0.076732,1.515519,-1.721911,-0.655588,1.766104,-0.570079,-0.183817
0.077222,1.517173,-1.72507,-0.655993,1.769411,-0.571592,-0.182815
0.078067,1.520706,-1.732558,-0.657074,1.777358,-0.574952,-0.17987
0.078549,1.522501,-1.73681,-0.657709,1.781994,-0.576862,-0.178053
0.079221,1.524545,-1.742561,-0.658377,1.788241,-0.579577,-0.176056
0.079772,1.525795,-1.747193,-0.658679,1.793223,-0.581941,-0.175056
0.08073,1.527366,-1.755089,-0.658939,1.801712,-0.586159,-0.173979
0.081044,1.52786,-1.758055,-0.659003,1.804814,-0.587695,-0.173629
0.081824,1.528886,-1.764301,-0.659187,1.811198,-0.590716,-0.172705
0.082146,1.529212,-1.766462,-0.659252,1.81333,-0.591687,-0.172354
0.082885,1.529703,-1.771009,-0.659359,1.817776,-0.593662,-0.171654
0.083003,1.529691,-1.772536,-0.659327,1.819203,-0.594267,-0.171472
0.083431,1.529447,-1.775281,-0.659311,1.822047,-0.595533,-0.171295
0.083611,1.529024,-1.776302,-0.659237,1.823178,-0.59601,-0.17135
0.083753,1.528081,-1.776781,-0.659101,1.823876,-0.59619,-0.171602
0.083767,1.527031,-1.77628,-0.65901,1.823639,-0.595846,-0.171824
0.08364,1.524738,-1.774117,-0.658833,1.822036,-0.594582,-0.172398
0.083567,1.523659,-1.773094,-0.658638,1.821204,-0.594018,-0.172879
0.083391,1.520932,-1.770733,-0.657927,1.819023,-0.592907,-0.175203
0.083311,1.519765,-1.769776,-0.65752,1.818056,-0.592534,-0.176593
0.083021,1.51648,-1.767082,-0.656282,1.815153,-0.591366,-0.180297
0.083087,1.515067,-1.765689,-0.655823,1.813806,-0.590774,-0.18157
0.082919,1.511139,-1.761728,-0.654779,1.809471,-0.588684,-0.183994
0.082839,1.50856,-1.759044,-0.65411,1.806528,-0.587189,-0.185281
0.082706,1.505308,-1.755469,-0.653323,1.802636,-0.585092,-0.187122
0.082632,1.503136,-1.753201,-0.652752,1.800162,-0.583678,-0.188798
0.082507,1.499724,-1.749535,-0.651861,1.79619,-0.58124,-0.191799
0.082292,1.498272,-1.747574,-0.651582,1.79409,-0.579849,-0.19286
0.081156,1.494071,-1.739699,-0.651336,1.786163,-0.574219,-0.194481
0.080462,1.492228,-1.735428,-0.651462,1.782032,-0.571119,-0.1947
0.078735,1.487194,-1.724316,-0.651603,1.771075,-0.56315,-0.195476
0.078239,1.485007,-1.720434,-0.651347,1.766956,-0.560481,-0.196308
0.077319,1.479016,-1.712658,-0.649562,1.757033,-0.555428,-0.200022
0.076955,1.475157,-1.708388,-0.648144,1.751145,-0.552831,-0.202843
0.076319,1.469818,-1.70241,-0.646484,1.743571,-0.548971,-0.206573
0.07566,1.465711,-1.697724,-0.645574,1.738476,-0.545676,-0.209298
0.074425,1.458563,-1.689746,-0.6443,1.730601,-0.539818,-0.213925
0.073649,1.455532,-1.686409,-0.643823,1.727115,-0.537148,-0.215594
0.071385,1.447283,-1.676499,-0.642659,1.716276,-0.529173,-0.218661
0.070326,1.443739,-1.671893,-0.642287,1.711167,-0.525427,-0.219411
0.067747,1.434579,-1.660349,-0.64123,1.698303,-0.516034,-0.221517
0.066884,1.430917,-1.656226,-0.640633,1.693678,-0.512715,-0.222919
0.064604,1.421781,-1.648502,-0.638315,1.683987,-0.506057,-0.228599
0.063643,1.41625,-1.64407,-0.636734,1.678596,-0.50248,-0.232587
0.061807,1.408549,-1.637348,-0.634943,1.6705,-0.496595,-0.236955
0.059938,1.402411,-1.631052,-0.634115,1.663394,-0.490737,-0.238875
0.056397,1.39167,-1.619322,-0.633198,1.65057,-0.479539,-0.240784
0.054419,1.387242,-1.6151,-0.632699,1.645249,-0.474976,-0.241577
0.049973,1.376087,-1.604996,-0.630483,1.631388,-0.464772,-0.244788
0.048173,1.37161,-1.600976,-0.629371,1.625346,-0.460878,-0.246336
0.04399,1.360352,-1.591398,-0.626385,1.610825,-0.451717,-0.250751
0.042585,1.35584,-1.587961,-0.625214,1.60591,-0.448382,-0.252733
0.039397,1.344669,-1.581879,-0.622089,1.597321,-0.44158,-0.259084
0.037843,1.337875,-1.578733,-0.620127,1.593186,-0.437957,-0.263135
0.035593,1.328415,-1.573352,-0.61785,1.586078,-0.432053,-0.26709
0.032773,1.32056,-1.568207,-0.616415,1.578389,-0.425833,-0.267953
0.027292,1.306613,-1.558459,-0.614362,1.563506,-0.413769,-0.267244
0.024681,1.300912,-1.555381,-0.613341,1.557962,-0.409051,-0.267288
0.020049,1.287433,-1.549268,-0.610035,1.547017,-0.39975,-0.271018
0.018791,1.282287,-1.547328,-0.608436,1.543498,-0.396797,-0.273751
0.015858,1.269215,-1.542609,-0.604349,1.535012,-0.389666,-0.280526
0.014409,1.263657,-1.540446,-0.60288,1.531244,-0.386439,-0.282232
0.009014,1.24848,-1.535133,-0.599811,1.521275,-0.376971,-0.282714
0.005608,1.238993,-1.531787,-0.598097,1.515104,-0.371045,-0.282036
0.001412,1.226543,-1.527663,-0.595332,1.506707,-0.363638,-0.282561
-0.001391,1.217594,-1.525003,-0.592592,1.499972,-0.35866,-0.285112
-0.005797,1.202921,-1.520968,-0.587342,1.488159,-0.350865,-0.29135
-0.0079,1.196955,-1.51988,-0.585264,1.483869,-0.347753,-0.293648
-0.012666,1.181465,-1.516808,-0.580819,1.475172,-0.339947,-0.296861
-0.014332,1.175183,-1.515508,-0.579335,1.472449,-0.336897,-0.29739
-0.018526,1.159122,-1.512161,-0.575661,1.465733,-0.329287,-0.298111
-0.020444,1.152507,-1.510796,-0.574015,1.462501,-0.326163,-0.29852
-0.027371,1.135122,-1.508176,-0.569262,1.452504,-0.317585,-0.29955
-0.031694,1.124429,-1.506613,-0.566242,1.44612,-0.312405,-0.300231
-0.03605,1.110385,-1.50479,-0.562172,1.439158,-0.306437,-0.301808
-0.037474,1.100071,-1.503727,-0.559064,1.436072,-0.303202,-0.303892
-0.037966,1.083069,-1.502334,-0.553735,1.432992,-0.299142,-0.308338
-0.038459,1.076454,-1.502043,-0.551648,1.431607,-0.297409,-0.309974
-0.041931,1.06041,-1.501579,-0.546443,1.425391,-0.29164,-0.312654
-0.043935,1.05426,-1.501536,-0.544433,1.422054,-0.288967,-0.313299
-0.049491,1.039266,-1.501346,-0.539653,1.413388,-0.28167,-0.314555
-0.051676,1.033344,-1.501092,-0.537874,1.410322,-0.278565,-0.315105
-0.05753,1.018864,-1.500626,-0.533637,1.403944,-0.270135,-0.317072
-0.061077,1.010312,-1.500121,-0.531282,1.400524,-0.264797,-0.318155
-0.06556,0.998718,-1.499237,-0.528396,1.396604,-0.257865,-0.318591
-0.068749,0.989577,-1.498327,-0.526536,1.394306,-0.252805,-0.317441
-0.073714,0.973991,-1.496449,-0.523815,1.391467,-0.244622,-0.313913
-0.075531,0.967986,-1.495945,-0.522609,1.390588,-0.241685,-0.312852
-0.079047,0.954694,-1.495112,-0.519181,1.388199,-0.23559,-0.313282
-0.080021,0.949897,-1.494909,-0.517616,1.387278,-0.233679,-0.314503
-0.082409,0.938633,-1.494568,-0.513742,1.384782,-0.229046,-0.31792
-0.083663,0.934253,-1.494458,-0.51236,1.383609,-0.22689,-0.318742
-0.087989,0.923441,-1.494568,-0.509343,1.38014,-0.220376,-0.319022
-0.09085,0.917291,-1.494696,-0.50773,1.377888,-0.216215,-0.318722
-0.09428,0.909828,-1.494792,-0.50571,1.375242,-0.211157,-0.318657
-0.096257,0.90502,-1.494812,-0.504253,1.373675,-0.208084,-0.319258
-0.099045,0.898118,-1.494788,-0.502024,1.371481,-0.203651,-0.320733
-0.100293,0.89548,-1.49476,-0.501241,1.370721,-0.201812,-0.321136
-0.104501,0.888633,-1.494366,-0.499612,1.368821,-0.196249,-0.320919
-0.106607,0.88592,-1.494093,-0.499103,1.368044,-0.19369,-0.320464
-0.111601,0.879156,-1.493234,-0.498025,1.366561,-0.187424,-0.318696
-0.113066,0.876422,-1.492857,-0.497627,1.366316,-0.185267,-0.317801
-0.115426,0.869549,-1.491827,-0.496877,1.366751,-0.1806,-0.314603
-0.116178,0.865396,-1.491131,-0.496487,1.367475,-0.178261,-0.31239
-0.11645,0.859774,-1.490227,-0.495733,1.368664,-0.17597,-0.31003
-0.115818,0.855377,-1.489506,-0.494901,1.369895,-0.175282,-0.308928
-0.113617,0.847882,-1.488296,-0.493221,1.372384,-0.175421,-0.307837
-0.112866,0.845018,-1.487958,-0.492508,1.3731,-0.1753,-0.307633
-0.112596,0.838571,-1.487935,-0.490623,1.373122,-0.173052,-0.307753
-0.112983,0.836243,-1.488231,-0.489823,1.372513,-0.171533,-0.308094
-0.114182,0.830714,-1.489173,-0.487791,1.370622,-0.167402,-0.309272
-0.11446,0.828528,-1.489453,-0.487006,1.370084,-0.165981,-0.309728
-0.114556,0.823106,-1.4899,-0.485122,1.369395,-0.163002,-0.310963
-0.114455,0.819894,-1.4901,-0.483945,1.369122,-0.161401,-0.311754
-0.114346,0.815928,-1.490402,-0.482544,1.368711,-0.159486,-0.312574
-0.114302,0.813182,-1.490673,-0.481588,1.368331,-0.158241,-0.312964
-0.114217,0.808974,-1.491153,-0.480143,1.367662,-0.156501,-0.313333
-0.114232,0.807424,-1.49136,-0.479622,1.36737,-0.155877,-0.313381
-0.114539,0.803856,-1.491936,-0.478475,1.366466,-0.154368,-0.313205
-0.114767,0.802488,-1.492194,-0.478013,1.366019,-0.153786,-0.313016
-0.115368,0.799575,-1.492779,-0.477127,1.364987,-0.152559,-0.312371
-0.115545,0.798646,-1.49293,-0.476865,1.364713,-0.152207,-0.312106
-0.115694,0.797062,-1.493001,-0.476475,1.364539,-0.151916,-0.311561
-0.115741,0.79646,-1.492946,-0.476384,1.364586,-0.151917,-0.311171
-0.116025,0.795779,-1.492954,-0.476372,1.364506,-0.151652,-0.310322
-0.116555,0.795321,-1.49309,-0.47646,1.364219,-0.151019,-0.309293
-0.117753,0.794719,-1.493418,-0.476711,1.363562,-0.149593,-0.307106
-0.118218,0.794562,-1.493551,-0.476897,1.363309,-0.14908,-0.306203
-0.118875,0.79406,-1.493768,-0.477139,1.362899,-0.148638,-0.304225
-0.119,0.793882,-1.493824,-0.477229,1.362803,-0.148709,-0.303484
-0.119235,0.793429,-1.493967,-0.47743,1.362571,-0.149056,-0.301668
-0.119375,0.793218,-1.494048,-0.477497,1.362432,-0.14913,-0.300942
-0.119858,0.792616,-1.494256,-0.477643,1.362039,-0.149103,-0.29908
-0.120178,0.792226,-1.494417,-0.477717,1.361745,-0.149062,-0.297978
-0.120601,0.791592,-1.494774,-0.477691,1.361147,-0.149063,-0.296631
-0.120904,0.791062,-1.495217,-0.4776,1.360427,-0.14918,-0.295738
-0.121401,0.789994,-1.496179,-0.477238,1.358911,-0.149455,-0.294428
-0.121638,0.789526,-1.496542,-0.47709,1.358326,-0.14948,-0.293929
-0.122437,0.788242,-1.497157,-0.476798,1.357225,-0.148993,-0.29268
-0.122833,0.787683,-1.497313,-0.476702,1.356893,-0.148597,-0.292193
-0.123875,0.786156,-1.49766,-0.476419,1.356101,-0.147499,-0.291022
-0.124273,0.7855,-1.497837,-0.476272,1.355724,-0.14715,-0.290567
-0.125235,0.78372,-1.498398,-0.475804,1.354602,-0.146532,-0.289459
-0.125802,0.782577,-1.498768,-0.47548,1.353873,-0.146233,-0.288821
-0.12655,0.780951,-1.499262,-0.474966,1.352902,-0.145796,-0.28803
-0.127017,0.779747,-1.499648,-0.474631,1.352183,-0.145505,-0.287455
-0.127811,0.777583,-1.500314,-0.473956,1.350951,-0.144965,-0.286574
-0.128085,0.776745,-1.500551,-0.473698,1.350517,-0.144786,-0.286244
-0.12906,0.771866,-1.501369,-0.472332,1.348927,-0.144399,-0.28428
