wangss533/urdfTest/left_arm_joints.csv
left_arm_joint1,left_arm_joint2,left_arm_joint3,left_arm_joint4,left_arm_joint5,left_arm_joint6,left_arm_joint7
0.477043,0.637781,-0.321266,-0.879136,0.437698,0.11228,-0.109973
0.478344,0.637428,-0.320761,-0.879401,0.437617,0.110806,-0.109015
0.479631,0.63704,-0.320402,-0.879505,0.437608,0.10894,-0.10798
0.0,0.0,0.0,-0.1,0.0,0.0,0.0
0.482552,0.636095,-0.318298,-0.880649,0.436154,0.106158,-0.107119
0.482772,0.635932,-0.318276,-0.880538,0.436081,0.105434,-0.106974
0.483552,0.635742,-0.318174,-0.880485,0.436352,0.103668,-0.106648
0.483806,0.635632,-0.318087,-0.880454,0.436499,0.10304,-0.106573
0.484354,0.635322,-0.317877,-0.880351,0.436801,0.101566,-0.106433
0.484529,0.635186,-0.317833,-0.880291,0.436816,0.101,-0.106381
0.484846,0.634797,-0.317824,-0.880059,0.436504,0.09953,-0.106188
0.485038,0.634605,-0.317885,-0.879955,0.436253,0.098675,-0.106076
0.485107,0.634265,-0.317967,-0.879707,0.435785,0.09783,-0.106128
0.485169,0.634111,-0.31806,-0.879536,0.435485,0.097413,-0.106415
0.485192,0.633912,-0.318261,-0.879223,0.434939,0.097034,-0.107182
0.485138,0.633789,-0.318341,-0.879078,0.434672,0.096933,-0.107466
0.484895,0.633345,-0.318545,-0.878768,0.43394,0.096646,-0.107834
0.484738,0.633111,-0.318624,-0.878647,0.43361,0.09655,-0.107883
0.484263,0.632464,-0.31884,-0.878338,0.432707,0.096367,-0.107936
0.484062,0.632203,-0.318939,-0.878207,0.43232,0.096314,-0.107976
0.483517,0.631493,-0.31922,-0.877832,0.431263,0.096222,-0.108131
0.483161,0.631059,-0.319407,-0.877603,0.430587,0.096205,-0.108229
0.482666,0.63056,-0.319664,-0.877328,0.429675,0.09624,-0.108357
0.482284,0.630283,-0.319869,-0.87715,0.428977,0.096316,-0.108491
0.481616,0.629933,-0.320227,-0.876891,0.427786,0.096524,-0.108733
0.481407,0.629874,-0.320377,-0.876856,0.427399,0.096614,-0.10876
0.480523,0.629397,-0.320658,-0.876631,0.426216,0.097047,-0.108494
0.480213,0.629272,-0.320782,-0.876646,0.425835,0.097276,-0.108246
0.479409,0.628928,-0.321024,-0.876631,0.424909,0.097777,-0.107543
0.479183,0.628844,-0.321092,-0.876637,0.424624,0.09785,-0.107292
0.478965,0.628821,-0.321185,-0.876685,0.424177,0.097603,-0.106745
0.478947,0.628877,-0.321197,-0.876739,0.424027,0.097305,-0.106427
0.478844,0.628928,-0.32117,-0.876832,0.42386,0.096963,-0.106011
0.478668,0.628939,-0.321103,-0.876925,0.423773,0.096802,-0.105725
0.478292,0.628942,-0.320921,-0.877117,0.423706,0.096586,-0.105271
0.47808,0.628897,-0.320848,-0.877175,0.423622,0.096522,-0.105066
0.477399,0.628656,-0.320758,-0.87731,0.423166,0.096416,-0.104351
0.477032,0.628486,-0.320751,-0.877349,0.422866,0.096411,-0.103983
0.476166,0.628097,-0.320719,-0.877455,0.422172,0.09636,-0.103101
0.475936,0.62803,-0.320673,-0.877516,0.42203,0.096276,-0.102841
0.475734,0.628159,-0.320425,-0.877694,0.422113,0.095835,-0.102622
0.475683,0.628285,-0.320225,-0.877768,0.422253,0.095505,-0.102595
0.475584,0.628395,-0.320025,-0.877955,0.422411,0.095169,-0.102254
0.475508,0.628421,-0.319932,-0.878169,0.422491,0.094941,-0.101584
0.47503,0.628116,-0.319797,-0.878372,0.422276,0.09474,-0.100065
0.474921,0.628063,-0.319759,-0.878475,0.422249,0.094646,-0.099567
0.474397,0.627923,-0.31965,-0.878609,0.422088,0.094857,-0.09913
0.474186,0.627912,-0.319607,-0.87864,0.422043,0.095019,-0.099231
0.473663,0.627864,-0.319534,-0.878675,0.421896,0.095501,-0.099626
0.473477,0.627802,-0.319531,-0.878675,0.421805,0.09567,-0.099677
0.473054,0.627481,-0.319617,-0.87861,0.421424,0.096021,-0.099455
0.472832,0.627247,-0.319701,-0.878552,0.421165,0.096222,-0.099243
0.472576,0.626987,-0.319789,-0.878491,0.420906,0.096505,-0.099032
0.472429,0.626858,-0.319812,-0.878469,0.420826,0.096721,-0.098972
0.472247,0.626709,-0.319818,-0.878454,0.420813,0.097093,-0.098958
0.472223,0.626705,-0.319824,-0.878474,0.42086,0.097244,-0.098973
0.471959,0.626575,-0.31987,-0.878445,0.420777,0.097845,-0.099
0.471894,0.626592,-0.319903,-0.878472,0.420798,0.098115,-0.099019
0.471621,0.626524,-0.319978,-0.878451,0.420705,0.098871,-0.099112
0.471531,0.626509,-0.320004,-0.878446,0.420692,0.09915,-0.09919
0.471257,0.626432,-0.320086,-0.878393,0.420583,0.09987,-0.099511
0.47111,0.626393,-0.320126,-0.878359,0.420542,0.100279,-0.099756
0.471027,0.62638,-0.320092,-0.87832,0.42067,0.100667,-0.100096
0.471169,0.626471,-0.319989,-0.878382,0.421042,0.100799,-0.100334
0.471572,0.626673,-0.319695,-0.878484,0.421922,0.100785,-0.100763
0.471713,0.626759,-0.31956,-0.878533,0.422282,0.100776,-0.100925
0.471855,0.626968,-0.319247,-0.878695,0.423019,0.100898,-0.101255
0.471841,0.627053,-0.319126,-0.878773,0.423265,0.10099,-0.101355
0.471795,0.627278,-0.31877,-0.878993,0.423947,0.101182,-0.101626
0.471818,0.627373,-0.318588,-0.879088,0.424304,0.1012,-0.101777
0.471981,0.627641,-0.318005,-0.87934,0.425471,0.101147,-0.102368
0.472124,0.627808,-0.317603,-0.879506,0.426276,0.101034,-0.10276
0.472353,0.627996,-0.317061,-0.879731,0.42733,0.100717,-0.103118
0.472588,0.628093,-0.31666,-0.879904,0.428105,0.100295,-0.10315
0.473101,0.628245,-0.31599,-0.880256,0.429452,0.099353,-0.102941
0.473184,0.628222,-0.315702,-0.880315,0.42986,0.098971,-0.102906
0.473231,0.628336,-0.315077,-0.880583,0.430738,0.098223,-0.103083
0.473133,0.628386,-0.314858,-0.88068,0.430956,0.098003,-0.103234
0.472888,0.628512,-0.31423,-0.880938,0.431592,0.097313,-0.103732
0.472881,0.628561,-0.313891,-0.881062,0.432024,0.096872,-0.103962
0.473059,0.62861,-0.312732,-0.881417,0.43368,0.095418,-0.104626
0.473286,0.628659,-0.311931,-0.881666,0.434888,0.094313,-0.105085
0.473613,0.62868,-0.3109,-0.881931,0.436327,0.092564,-0.105743
0.474035,0.628752,-0.310169,-0.882127,0.437313,0.090822,-0.106271
0.474718,0.628724,-0.308966,-0.882247,0.438676,0.087423,-0.107243
0.474921,0.62874,-0.308531,-0.88231,0.439126,0.0862,-0.107643
0.474895,0.628857,-0.307699,-0.882486,0.439741,0.084172,-0.108644
0.474709,0.628933,-0.307471,-0.882552,0.439765,0.083665,-0.10905
0.473946,0.629068,-0.306897,-0.882703,0.439743,0.082901,-0.110104
0.473666,0.629106,-0.306595,-0.882809,0.439922,0.082653,-0.110524
0.472734,0.629141,-0.305673,-0.883243,0.440854,0.082796,-0.111491
0.472106,0.629125,-0.305032,-0.883535,0.441581,0.083053,-0.112107
0.471379,0.62904,-0.304032,-0.883777,0.442551,0.08279,-0.11322
0.471275,0.629191,-0.303169,-0.884012,0.443576,0.081763,-0.114412
0.471449,0.629482,-0.301575,-0.88439,0.445506,0.079187,-0.116773
0.471464,0.629525,-0.300928,-0.88447,0.446168,0.078071,-0.11772
0.471231,0.629559,-0.299488,-0.884746,0.447487,0.075591,-0.119659
0.471071,0.629509,-0.298954,-0.884836,0.447866,0.074576,-0.120307
0.470542,0.629387,-0.297621,-0.885059,0.448728,0.07217,-0.121966
0.470289,0.629408,-0.297063,-0.88518,0.44914,0.071358,-0.12275
0.469481,0.629641,-0.295548,-0.885557,0.450437,0.069857,-0.125242
0.468874,0.629825,-0.294615,-0.885799,0.451231,0.069182,-0.12685
0.46821,0.630179,-0.29347,-0.886174,0.452166,0.068063,-0.128688
0.46778,0.63048,-0.292768,-0.886421,0.452519,0.066928,-0.129628
0.467104,0.631075,-0.291746,-0.886864,0.452812,0.064861,-0.130754
0.46688,0.631319,-0.291279,-0.887064,0.45309,0.064055,-0.131259
0.466488,0.631907,-0.289725,-0.887676,0.454808,0.062383,-0.133149
0.46633,0.632103,-0.28898,-0.887944,0.455797,0.061896,-0.134088
0.466195,0.632634,-0.286945,-0.888683,0.458729,0.060495,-0.136564
0.466227,0.632842,-0.286098,-0.888997,0.45998,0.05978,-0.13748
0.466415,0.633267,-0.283939,-0.889709,0.463116,0.057656,-0.139493
0.466661,0.633506,-0.282569,-0.890179,0.46521,0.0562,-0.140651
0.467183,0.63376,-0.280555,-0.890819,0.468353,0.053836,-0.142403
0.467787,0.63387,-0.278823,-0.891354,0.471083,0.051744,-0.143896
0.468985,0.633871,-0.275673,-0.892211,0.476102,0.047736,-0.146638
0.469412,0.633783,-0.274371,-0.892467,0.478061,0.045942,-0.147878
0.4705,0.63345,-0.2711,-0.892988,0.482692,0.040685,-0.151526
0.470931,0.633195,-0.269742,-0.893101,0.484453,0.038213,-0.153238
0.471878,0.632642,-0.266362,-0.893403,0.488727,0.032106,-0.157576
0.472311,0.632634,-0.264977,-0.893752,0.490406,0.030038,-0.159141
0.472905,0.633047,-0.261887,-0.894576,0.494569,0.02575,-0.162682
0.473135,0.633503,-0.260093,-0.895171,0.496979,0.023576,-0.164616
0.473251,0.634385,-0.257764,-0.896198,0.500174,0.021172,-0.166852
0.473015,0.635252,-0.25613,-0.897103,0.502499,0.019941,-0.168151
0.472353,0.637083,-0.253461,-0.898953,0.506264,0.018676,-0.169791
0.472096,0.63785,-0.252369,-0.89972,0.507769,0.018062,-0.170439
0.471539,0.639554,-0.249468,-0.901482,0.511436,0.015541,-0.172354
0.471397,0.640287,-0.24828,-0.90225,0.51293,0.014266,-0.173143
0.470926,0.6418,-0.245145,-0.903867,0.516548,0.010602,-0.175362
0.47096,0.64241,-0.243824,-0.904521,0.518229,0.008925,-0.176391
0.471944,0.643953,-0.240253,-0.906153,0.523327,0.003851,-0.179465
0.472622,0.644732,-0.238004,-0.907005,0.526509,0.000534,-0.181526
0.473119,0.645687,-0.235085,-0.908191,0.530442,-0.003535,-0.184203
0.472901,0.646343,-0.233032,-0.909089,0.532873,-0.006026,-0.186046
0.472051,0.647289,-0.229588,-0.910698,0.536376,-0.00967,-0.189038
0.471365,0.647372,-0.228199,-0.911149,0.537605,-0.011124,-0.190302
0.470021,0.64716,-0.224481,-0.912347,0.54131,-0.015561,-0.193835
0.469432,0.646827,-0.222887,-0.912808,0.542889,-0.017462,-0.195338
0.467354,0.645354,-0.218884,-0.91356,0.546344,-0.022485,-0.199385
0.466356,0.6446,-0.217244,-0.91383,0.547367,-0.024562,-0.20113
0.462782,0.64197,-0.213403,-0.913866,0.548764,-0.030104,-0.20585
0.460163,0.640034,-0.211105,-0.913655,0.549079,-0.03353,-0.20889
0.456693,0.637615,-0.207994,-0.913447,0.549586,-0.038091,-0.213093
0.454148,0.636004,-0.205592,-0.913377,0.550153,-0.041417,-0.216385
0.449785,0.633432,-0.201512,-0.91328,0.551096,-0.046911,-0.22212
0.448133,0.632543,-0.199901,-0.913343,0.55155,-0.049181,-0.224418
0.443324,0.630078,-0.195866,-0.913175,0.551961,-0.054712,-0.230074
0.44129,0.629151,-0.194271,-0.913093,0.551972,-0.056884,-0.23232
0.436203,0.626762,-0.190228,-0.912921,0.552063,-0.062633,-0.237928
0.434113,0.62559,-0.188526,-0.912787,0.552132,-0.065157,-0.240187
0.428621,0.621974,-0.184042,-0.912229,0.552258,-0.072037,-0.245786
0.425402,0.619622,-0.181252,-0.911918,0.552484,-0.076531,-0.249169
0.42084,0.616171,-0.177375,-0.911302,0.552743,-0.082652,-0.253863
0.417479,0.613539,-0.174363,-0.910883,0.553212,-0.087385,-0.257553
0.411565,0.608684,-0.169043,-0.909955,0.553956,-0.09548,-0.263964
0.409378,0.606816,-0.166939,-0.909682,0.554388,-0.098896,-0.266564
0.402938,0.601366,-0.161681,-0.908151,0.554263,-0.107669,-0.273182
0.400408,0.599134,-0.159601,-0.907496,0.554063,-0.111467,-0.275851
0.393555,0.593233,-0.154335,-0.905511,0.553408,-0.120637,-0.282737
0.390959,0.591014,-0.152204,-0.904916,0.553562,-0.123956,-0.28558
0.384298,0.585629,-0.146743,-0.903656,0.554677,-0.131017,-0.293021
0.380328,0.582456,-0.143418,-0.903026,0.555747,-0.134785,-0.297617
0.375193,0.57812,-0.138954,-0.902211,0.557511,-0.139707,-0.303745
0.390959,0.591014,-0.152204,-0.904916,0.553562,-0.123956,-0.28558
0.390959,0.591014,-0.152204,-0.904916,0.553562,-0.123956,-0.28558
0.363564,0.566751,-0.127489,-0.900509,0.564326,-0.151487,-0.319115
0.356719,0.560652,-0.122514,-0.898697,0.565534,-0.158001,-0.326215
0.35379,0.558025,-0.12054,-0.897809,0.565307,-0.160732,-0.328905
0.345832,0.55144,-0.116073,-0.894992,0.56399,-0.167897,-0.335612
0.34242,0.548769,-0.114322,-0.893698,0.563162,-0.170804,-0.338425
0.3332,0.541862,-0.109966,-0.889823,0.559949,-0.178533,-0.345972
0.327266,0.537632,-0.107414,-0.887193,0.557465,-0.183227,-0.350638
0.318998,0.532118,-0.104193,-0.883646,0.554184,-0.188858,-0.356664
0.313028,0.528283,-0.101809,-0.881559,0.551948,-0.192316,-0.360863
0.302406,0.52219,-0.098357,-0.877808,0.548364,-0.197333,-0.367568
0.298332,0.5198,-0.096925,-0.87646,0.54704,-0.19924,-0.370238
0.288283,0.513603,-0.093124,-0.872865,0.54401,-0.204083,-0.377189
0.284339,0.511153,-0.091612,-0.871402,0.543005,-0.205966,-0.380051
0.274733,0.504968,-0.087728,-0.867816,0.540626,-0.21083,-0.387106
0.271045,0.50238,-0.086029,-0.866486,0.53954,-0.212931,-0.389797
0.261609,0.495809,-0.082067,-0.8626,0.53665,-0.21907,-0.395934
0.255969,0.491746,-0.079641,-0.860186,0.534882,-0.222986,-0.399499
0.248244,0.486168,-0.076338,-0.856828,0.532892,-0.228018,-0.404661
0.24251,0.481768,-0.073538,-0.854477,0.531751,-0.231428,-0.409077
0.271045,0.50238,-0.086029,-0.866486,0.53954,-0.212931,-0.389797
0.228376,0.471273,-0.067219,-0.848338,0.530096,-0.23911,-0.420147
0.217848,0.463805,-0.062883,-0.844067,0.528469,-0.244313,-0.427525
0.213439,0.460797,-0.0612,-0.8423,0.527686,-0.246313,-0.430371
0.202205,0.453252,-0.05705,-0.837776,0.525572,-0.251351,-0.437324
0.197684,0.450222,-0.055386,-0.835904,0.524679,-0.253467,-0.440062
0.18642,0.442514,-0.051038,-0.83132,0.52216,-0.258864,-0.446633
0.179588,0.43786,-0.048399,-0.82847,0.520528,-0.26223,-0.450527
0.170308,0.431704,-0.044887,-0.82431,0.518298,-0.266977,-0.455996
0.163476,0.427058,-0.04192,-0.821206,0.516334,-0.270648,-0.46044
0.15154,0.419547,-0.037326,-0.815128,0.513238,-0.277287,-0.468237
0.146926,0.416501,-0.035376,-0.812853,0.511979,-0.279938,-0.471382
0.134931,0.408403,-0.030337,-0.806632,0.508601,-0.28661,-0.479244
0.130123,0.405063,-0.028286,-0.804062,0.50725,-0.289349,-0.482405
0.15154,0.419547,-0.037326,-0.815128,0.513238,-0.277287,-0.468237
-0.482989,0.268734,0.340789,-0.193182,-0.045887,-0.322289,-0.575371
-0.51237,0.28219,0.234626,-0.143278,0.058825,-0.352123,-0.573415
-0.522462,0.288064,0.1204,-0.117977,0.17322,-0.374418,-0.570443
-0.482989,0.268734,0.340789,-0.193182,-0.045887,-0.322289,-0.575371
-0.482989,0.268734,0.340789,-0.193182,-0.045887,-0.322289,-0.575371
-0.34632,0.247243,0.22696,-0.370593,0.133644,-0.321741,-0.583735
-0.34134,0.246486,0.22218,-0.378803,0.142193,-0.322803,-0.584506
-0.330811,0.244747,0.211887,-0.397492,0.161401,-0.325492,-0.586682
-0.327177,0.244112,0.208234,-0.404471,0.168409,-0.326503,-0.58754
-0.319503,0.242573,0.200309,-0.420599,0.184283,-0.329044,-0.589906
-0.31658,0.242021,0.197337,-0.426897,0.190404,-0.33011,-0.590991
-0.310055,0.240496,0.191667,-0.441961,0.203966,-0.332806,-0.594463
-0.306808,0.239618,0.188774,-0.450321,0.21142,-0.334501,-0.596779
-0.303205,0.238436,0.185294,-0.460822,0.220519,-0.336766,-0.599788
-0.31658,0.242021,0.197337,-0.426897,0.190404,-0.33011,-0.590991
-0.298015,0.236579,0.177538,-0.479685,0.237903,-0.341867,-0.605239
-0.297155,0.235985,0.176271,-0.484164,0.241316,-0.342891,-0.606573
-0.297487,0.234397,0.174375,-0.49305,0.247805,-0.344819,-0.609815
-0.298344,0.233779,0.173869,-0.495934,0.249916,-0.345368,-0.611079
-0.301548,0.232118,0.17334,-0.502171,0.253882,-0.346489,-0.613989
-0.303469,0.231453,0.173225,-0.503882,0.255037,-0.347103,-0.615006
-0.309056,0.229581,0.173838,-0.507284,0.256263,-0.348891,-0.617117
-0.313023,0.228411,0.17448,-0.508643,0.256318,-0.349991,-0.618159
-0.318321,0.22683,0.175195,-0.51052,0.256453,-0.351068,-0.619353
-0.322269,0.225641,0.175516,-0.512096,0.256733,-0.351385,-0.620022
-0.328845,0.223647,0.17583,-0.514853,0.257265,-0.351336,-0.620783
-0.3311,0.222887,0.175784,-0.516276,0.257756,-0.3513,-0.621103
-0.336713,0.22088,0.175962,-0.519438,0.25885,-0.351692,-0.622417
-0.338629,0.220108,0.175949,-0.520878,0.259517,-0.351934,-0.623091
-0.343272,0.218132,0.175895,-0.524529,0.26125,-0.352716,-0.624872
-0.345184,0.217315,0.175902,-0.525944,0.261894,-0.353116,-0.625589
-0.3504,0.215195,0.176155,-0.529027,0.262991,-0.354429,-0.627497
-0.353575,0.213875,0.176356,-0.530825,0.263604,-0.355343,-0.628675
-0.357167,0.21208,0.176369,-0.533903,0.265151,-0.356531,-0.63006
-0.359223,0.210746,0.176124,-0.536957,0.267109,-0.357272,-0.630911
-0.362431,0.208397,0.175744,-0.54229,0.27089,-0.358513,-0.632202
-0.363463,0.207428,0.175488,-0.544662,0.272532,-0.359109,-0.632615
-0.36616,0.204772,0.174825,-0.550273,0.276093,-0.361234,-0.633303
-0.367053,0.203642,0.174453,-0.552658,0.277506,-0.362281,-0.633389
-0.369512,0.200709,0.173672,-0.558237,0.280766,-0.365245,-0.63373
-0.370571,0.199558,0.173445,-0.560365,0.282031,-0.366459,-0.634088
-0.373549,0.196662,0.173292,-0.564975,0.284728,-0.369964,-0.635757
-0.37535,0.194926,0.173285,-0.567679,0.286337,-0.372149,-0.637009
-0.377477,0.192645,0.173111,-0.571783,0.289099,-0.374748,-0.638629
-0.378637,0.190989,0.172744,-0.575586,0.291947,-0.376207,-0.639725
-0.380158,0.188302,0.171915,-0.582649,0.297558,-0.378173,-0.641497
-0.380621,0.187222,0.171545,-0.585701,0.299899,-0.379007,-0.64215
-0.382126,0.184408,0.170742,-0.593054,0.305234,-0.38183,-0.643588
-0.382737,0.18327,0.170411,-0.59604,0.307319,-0.383175,-0.644098
-0.384218,0.180379,0.169486,-0.603657,0.312581,-0.386715,-0.645205
-0.384623,0.179169,0.169124,-0.606971,0.314702,-0.388045,-0.645565
-0.385652,0.176122,0.167885,-0.615255,0.320404,-0.391219,-0.646202
-0.386198,0.174261,0.167054,-0.620351,0.323885,-0.393147,-0.646469
-0.387254,0.171687,0.166166,-0.626798,0.32806,-0.396085,-0.646954
-0.384623,0.179169,0.169124,-0.606971,0.314702,-0.388045,-0.645565
-0.391746,0.165979,0.165489,-0.636958,0.333879,-0.404059,-0.648524
-0.392973,0.164569,0.165382,-0.639402,0.33528,-0.40606,-0.64904
-0.395928,0.161292,0.165121,-0.645807,0.339333,-0.410167,-0.650734
-0.397107,0.160081,0.16502,-0.648424,0.341147,-0.411533,-0.651599
-0.399914,0.157109,0.164827,-0.65513,0.345778,-0.414782,-0.653777
-0.401099,0.155888,0.164802,-0.657683,0.347527,-0.416208,-0.654534
-0.404035,0.152771,0.16485,-0.66394,0.351749,-0.420138,-0.65612
-0.405896,0.150887,0.164948,-0.667514,0.354177,-0.422599,-0.656962
-0.40864,0.148355,0.165195,-0.671943,0.357156,-0.425852,-0.658011
-0.410955,0.14642,0.165461,-0.67496,0.359161,-0.428284,-0.658707
-0.415075,0.143158,0.166099,-0.679638,0.36214,-0.432317,-0.65973
-0.416894,0.141881,0.166433,-0.68126,0.36321,-0.43387,-0.660206
-0.42153,0.138908,0.167367,-0.685054,0.365827,-0.437352,-0.661703
-0.423557,0.137788,0.167867,-0.68633,0.36678,-0.438607,-0.662477
-0.428628,0.135077,0.169104,-0.689303,0.368992,-0.441623,-0.664369
-0.430855,0.133954,0.169663,-0.690173,0.369615,-0.442876,-0.665058
-0.437094,0.131032,0.171385,-0.691194,0.370253,-0.44634,-0.66679
-0.441029,0.129269,0.172479,-0.691449,0.370341,-0.448416,-0.667741
-0.446044,0.126993,0.173691,-0.692165,0.37069,-0.450776,-0.66857
-0.449431,0.125356,0.174266,-0.693321,0.371363,-0.452061,-0.668598
-0.454664,0.122739,0.174824,-0.695851,0.372845,-0.453635,-0.667944
-0.456723,0.121759,0.175024,-0.696853,0.373407,-0.454223,-0.667758
-0.46222,0.119486,0.175744,-0.698719,0.374337,-0.455831,-0.668241
-0.464548,0.11866,0.176106,-0.699262,0.374577,-0.456472,-0.668726
-0.470004,0.116727,0.176808,-0.70077,0.375155,-0.458108,-0.670109
-0.472184,0.115914,0.177054,-0.701256,0.375234,-0.45888,-0.670595
-0.477426,0.113842,0.177467,-0.70234,0.375058,-0.46106,-0.671607
-0.480566,0.112558,0.177676,-0.70281,0.374728,-0.462526,-0.67219
-0.484852,0.110738,0.178012,-0.703238,0.374171,-0.464671,-0.67299
-0.488004,0.109283,0.178301,-0.703516,0.373687,-0.466488,-0.673615
-0.493495,0.106705,0.178888,-0.70357,0.372599,-0.469814,-0.674689
-0.495479,0.105632,0.179044,-0.703811,0.372356,-0.471155,-0.675095
-0.499571,0.102799,0.179059,-0.705483,0.372698,-0.474259,-0.675964
-0.500888,0.101618,0.178921,-0.706534,0.37316,-0.475418,-0.676247
-0.503694,0.098518,0.178419,-0.709658,0.374765,-0.478431,-0.676959
-0.504702,0.097211,0.178215,-0.710985,0.375491,-0.479782,-0.6773
-0.506739,0.093705,0.177623,-0.714736,0.377695,-0.483527,-0.678256
-0.507749,0.091516,0.177238,-0.717167,0.379195,-0.485957,-0.678909
-0.509297,0.088531,0.176836,-0.720068,0.380936,-0.489404,-0.679885
-0.510694,0.086306,0.17667,-0.721912,0.38198,-0.492152,-0.680766
-0.513267,0.082547,0.176562,-0.724585,0.383433,-0.497015,-0.68244
-0.51441,0.080972,0.176582,-0.725439,0.383879,-0.499029,-0.683111
-0.517224,0.076749,0.176551,-0.72729,0.384823,-0.504143,-0.684583
-0.518361,0.074944,0.176532,-0.727892,0.385145,-0.506211,-0.685138
-0.521587,0.070333,0.176664,-0.728737,0.385417,-0.511727,-0.68642
-0.523145,0.068489,0.176867,-0.728718,0.385145,-0.51416,-0.686864
-0.528578,0.063732,0.17804,-0.726589,0.382755,-0.521332,-0.687811
-0.532343,0.060842,0.179007,-0.724624,0.38076,-0.525957,-0.688299
-0.537262,0.057067,0.180331,-0.722258,0.378474,-0.531735,-0.688918
-0.540693,0.054318,0.18127,-0.720951,0.377299,-0.535597,-0.689353
-0.546292,0.049834,0.182876,-0.719082,0.37579,-0.541564,-0.690003
-0.548492,0.04808,0.183534,-0.718421,0.375315,-0.543803,-0.690259
-0.554,0.043768,0.185232,-0.716899,0.37441,-0.54899,-0.690915
-0.556217,0.042073,0.185924,-0.716349,0.374197,-0.550877,-0.691166
-0.561656,0.037946,0.187701,-0.715054,0.373819,-0.555424,-0.691853
-0.563904,0.036332,0.188502,-0.714368,0.373572,-0.5573,-0.692213
-0.569585,0.032324,0.190802,-0.71228,0.372726,-0.562262,-0.693359
-0.573359,0.029944,0.192439,-0.710544,0.371981,-0.565278,-0.69419
-0.578032,0.027055,0.19436,-0.708669,0.371185,-0.568964,-0.695286
-0.581228,0.025151,0.19556,-0.707763,0.370754,-0.571307,-0.696065
-0.586381,0.022344,0.19732,-0.706529,0.370169,-0.574773,-0.697376
-0.588392,0.021273,0.198017,-0.706013,0.369913,-0.576135,-0.697942
-0.593446,0.018568,0.199943,-0.704271,0.36904,-0.579749,-0.699606
-0.595377,0.017516,0.2007,-0.703544,0.368674,-0.58121,-0.70035
-0.600289,0.014929,0.202762,-0.701386,0.367545,-0.584956,-0.702277
-0.602304,0.013887,0.20359,-0.700389,0.367013,-0.586529,-0.702939
-0.607431,0.011268,0.205818,-0.697623,0.36533,-0.590628,-0.704423
-0.610675,0.009666,0.20728,-0.695649,0.364103,-0.593191,-0.705211
-0.614864,0.007445,0.209176,-0.693007,0.362492,-0.596644,-0.706042
-0.617954,0.005618,0.210589,-0.690936,0.361267,-0.599297,-0.70638
-0.62303,0.002413,0.212949,-0.687325,0.359161,-0.603814,-0.706594
-0.624956,0.001196,0.213883,-0.685966,0.358361,-0.605567,-0.706752
-0.630101,-0.001517,0.216459,-0.682246,0.356166,-0.609791,-0.707787
-0.632118,-0.002471,0.217504,-0.680768,0.355291,-0.611451,-0.708402
-0.637111,-0.004697,0.220068,-0.677234,0.353266,-0.615264,-0.710029
-0.63883,-0.005514,0.220941,-0.676225,0.35274,-0.616515,-0.710605
-0.642584,-0.007328,0.222657,-0.674604,0.352097,-0.618829,-0.711735
-0.644504,-0.008311,0.22346,-0.674134,0.352081,-0.619853,-0.712318
-0.647132,-0.009715,0.224561,-0.67354,0.352178,-0.621163,-0.713073
-0.648844,-0.010853,0.225253,-0.673449,0.35256,-0.622108,-0.713616
-0.65135,-0.012831,0.226217,-0.673845,0.353623,-0.623491,-0.714434
-0.652381,-0.013626,0.226591,-0.674009,0.354046,-0.624037,-0.714736
-0.655192,-0.015569,0.22753,-0.674236,0.354826,-0.625477,-0.715383
-0.656523,-0.016364,0.22796,-0.674158,0.354985,-0.626079,-0.71559
-0.659608,-0.018283,0.228917,-0.674232,0.355539,-0.627552,-0.716135
-0.660771,-0.019023,0.229298,-0.67431,0.355841,-0.628132,-0.716423
-0.663084,-0.020756,0.230106,-0.675055,0.35703,-0.62944,-0.717324
-0.664439,-0.021778,0.230625,-0.675526,0.357794,-0.630212,-0.717958
-0.666345,-0.023137,0.231371,-0.676066,0.358771,-0.631325,-0.718929
-0.668077,-0.024158,0.232107,-0.676165,0.359306,-0.632294,-0.719844
-0.671209,-0.02586,0.233493,-0.676091,0.360062,-0.634039,-0.721594
-0.672343,-0.026575,0.233967,-0.676219,0.360468,-0.634705,-0.722229
-0.674157,-0.028548,0.234428,-0.677796,0.362279,-0.636034,-0.723168
-0.67466,-0.02943,0.234411,-0.678756,0.363221,-0.636437,-0.723293
-0.675705,-0.031659,0.234304,-0.681312,0.365663,-0.637559,-0.723724
-0.67641,-0.032528,0.234488,-0.681917,0.366396,-0.638214,-0.724196
-0.678957,-0.034641,0.235618,-0.682357,0.367564,-0.640447,-0.726396
-0.680873,-0.035914,0.236595,-0.682085,0.36795,-0.642026,-0.72806
-0.68356,-0.03763,0.23803,-0.681365,0.368243,-0.644224,-0.730155
-0.685483,-0.038922,0.23909,-0.680741,0.36836,-0.645889,-0.731458
-0.689064,-0.041099,0.241148,-0.678957,0.36816,-0.648864,-0.733539
-0.690461,-0.041972,0.241944,-0.678274,0.368061,-0.650039,-0.734313
-0.693848,-0.044144,0.243759,-0.676815,0.367922,-0.652821,-0.73615
-0.695249,-0.045014,0.244485,-0.676213,0.367859,-0.653882,-0.736865
-0.698782,-0.0472,0.246242,-0.67466,0.367596,-0.656594,-0.738482
-0.700157,-0.048082,0.246868,-0.67412,0.367426,-0.657711,-0.738972
-0.704064,-0.050441,0.248565,-0.672227,0.366545,-0.660857,-0.739841
-0.706511,-0.051862,0.249584,-0.670992,0.365872,-0.662815,-0.740223
-0.710194,-0.053587,0.251261,-0.668888,0.364768,-0.665332,-0.740978
-0.712911,-0.054637,0.252594,-0.667347,0.363996,-0.667056,-0.741882
-0.717762,-0.056121,0.255033,-0.664428,0.362564,-0.669789,-0.743674
-0.719761,-0.056696,0.256078,-0.663195,0.361969,-0.670805,-0.744338
-0.724882,-0.058295,0.258608,-0.660096,0.360503,-0.67304,-0.74523
-0.726957,-0.058972,0.259596,-0.658873,0.359951,-0.673799,-0.745362
-0.73244,-0.060615,0.262272,-0.655418,0.358339,-0.675676,-0.745465
-0.734882,-0.061221,0.263537,-0.653683,0.357454,-0.676528,-0.745499
-0.742017,-0.062592,0.267499,-0.64792,0.354275,-0.679068,-0.745593
-0.746617,-0.063337,0.270135,-0.644008,0.352066,-0.68069,-0.745593
-0.752314,-0.064261,0.273379,-0.639335,0.349456,-0.682653,-0.745485
-0.756043,-0.064874,0.275434,-0.636542,0.347922,-0.683834,-0.745209
-0.761687,-0.065779,0.278467,-0.632601,0.345808,-0.685507,-0.744534
-0.763756,-0.066187,0.27961,-0.631219,0.345091,-0.686182,-0.744372
-0.76852,-0.06743,0.282326,-0.628128,0.343672,-0.688042,-0.744598
-0.770112,-0.068002,0.283266,-0.627169,0.343352,-0.688832,-0.744888
-0.774109,-0.069542,0.285662,-0.62477,0.3426,-0.690931,-0.74593
-0.775793,-0.070187,0.286692,-0.6237,0.342242,-0.691877,-0.746441
-0.780409,-0.071939,0.289659,-0.620442,0.340983,-0.694716,-0.748164
-0.783331,-0.073041,0.291581,-0.618308,0.340156,-0.69656,-0.749374
-0.786798,-0.074492,0.293783,-0.616132,0.339487,-0.698704,-0.75078
-0.789011,-0.075536,0.295091,-0.615132,0.339443,-0.699965,-0.751631
-0.792039,-0.077303,0.296741,-0.614507,0.339932,-0.701639,-0.752718
-0.793147,-0.077993,0.297312,-0.614412,0.340241,-0.702219,-0.753081
-0.795648,-0.079675,0.298524,-0.614529,0.341222,-0.703443,-0.753693
-0.796486,-0.080333,0.298874,-0.61481,0.341764,-0.703791,-0.753789
-0.798733,-0.081963,0.299834,-0.615348,0.342986,-0.704728,-0.754041
-0.799743,-0.082599,0.300329,-0.615362,0.343327,-0.705268,-0.754296
-0.802253,-0.084165,0.301579,-0.615262,0.343921,-0.706991,-0.755134
-0.803867,-0.085082,0.302441,-0.615,0.344115,-0.708207,-0.755811
-0.806349,-0.086283,0.303867,-0.614253,0.344183,-0.709945,-0.757026
-0.808346,-0.087143,0.305094,-0.61351,0.344203,-0.711289,-0.758303
-0.81191,-0.088504,0.307395,-0.611939,0.34411,-0.713662,-0.760921
-0.813302,-0.089067,0.308296,-0.611324,0.344033,-0.714676,-0.761878
-0.817058,-0.090592,0.31074,-0.609333,0.34345,-0.717535,-0.763711
-0.818566,-0.091228,0.311722,-0.608485,0.343137,-0.718771,-0.764274
-0.822947,-0.092892,0.314626,-0.605609,0.341877,-0.722174,-0.765505
-0.824904,-0.093604,0.315942,-0.604188,0.3412,-0.723675,-0.765941
-0.831023,-0.095555,0.320183,-0.599106,0.338547,-0.72815,-0.766898
-0.835068,-0.096783,0.32301,-0.595586,0.336652,-0.731035,-0.767374
-0.839648,-0.09835,0.32613,-0.591862,0.334747,-0.734405,-0.76794
-0.842049,-0.099477,0.327688,-0.590329,0.334091,-0.736327,-0.768308
-0.845037,-0.101328,0.329406,-0.589032,0.333772,-0.738883,-0.768747
-0.846093,-0.102039,0.329994,-0.588654,0.333718,-0.739819,-0.768945
-0.848807,-0.103716,0.331581,-0.587489,0.33342,-0.742232,-0.769651
-0.849802,-0.104357,0.332159,-0.587096,0.333339,-0.743163,-0.769992
-0.852448,-0.105846,0.333737,-0.585831,0.332938,-0.745443,-0.770939
-0.853513,-0.106374,0.334386,-0.585239,0.332706,-0.746329,-0.771318
-0.856579,-0.107463,0.336401,-0.58313,0.331679,-0.748514,-0.772422
-0.858339,-0.108023,0.337562,-0.581833,0.331014,-0.749774,-0.77308
-0.860525,-0.108777,0.33903,-0.580107,0.330131,-0.751418,-0.773824
-0.861846,-0.109374,0.340002,-0.578983,0.329574,-0.752595,-0.774264
-0.863822,-0.110331,0.341574,-0.577066,0.328678,-0.754501,-0.774913
-0.864466,-0.110701,0.342122,-0.576425,0.32839,-0.75522,-0.775198
-0.86591,-0.111548,0.343429,-0.575002,0.327802,-0.757014,-0.776256
-0.866474,-0.111861,0.343981,-0.574413,0.327563,-0.757776,-0.776825
-0.867148,-0.112597,0.344791,-0.573766,0.327477,-0.75927,-0.778098
-0.86688,-0.112878,0.34466,-0.574148,0.327832,-0.759522,-0.778375
-0.864201,-0.113661,0.342581,-0.577593,0.330249,-0.75895,-0.778202
-0.861914,-0.11408,0.340777,-0.580433,0.332163,-0.758178,-0.777834
-0.859401,-0.114388,0.338932,-0.58339,0.334215,-0.757272,-0.777635
-0.858253,-0.114372,0.338314,-0.584493,0.335095,-0.756882,-0.777936
-0.856959,-0.114006,0.337966,-0.585312,0.335955,-0.756359,-0.77883
-0.856779,-0.113772,0.338087,-0.585235,0.336053,-0.756142,-0.779198
-0.856007,-0.112923,0.337909,-0.58562,0.336453,-0.755041,-0.779485
-0.855963,-0.112448,0.337993,-0.585486,0.336408,-0.754477,-0.7795
-0.856014,-0.111228,0.338283,-0.585075,0.336206,-0.753036,-0.779366
-0.855852,-0.110844,0.338213,-0.585193,0.3363,-0.752544,-0.779204
-0.855425,-0.110119,0.338041,-0.585764,0.336706,-0.751552,-0.778643
-0.855052,-0.109791,0.33782,-0.586342,0.33708,-0.751047,-0.778189
-0.85448,-0.109479,0.337432,-0.587198,0.337608,-0.750488,-0.777602
-0.853933,-0.109376,0.337017,-0.587954,0.338044,-0.750169,-0.777151
-0.852813,-0.109395,0.336121,-0.589483,0.338864,-0.749782,-0.776347
-0.852555,-0.109417,0.33591,-0.589859,0.339083,-0.749703,-0.776172
-0.852138,-0.109349,0.335511,-0.590568,0.339459,-0.749492,-0.776094
-0.852125,-0.109307,0.335455,-0.590682,0.339512,-0.749445,-0.776222
-0.852221,-0.109154,0.335425,-0.59079,0.339539,-0.749366,-0.776746
-0.852198,-0.109071,0.335402,-0.590884,0.339556,-0.749314,-0.776978
-0.852172,-0.108741,0.335378,-0.590981,0.339522,-0.749264,-0.77771
-0.852389,-0.108511,0.335562,-0.590742,0.339354,-0.749272,-0.77826
-0.852089,-0.108207,0.335387,-0.591084,0.339521,-0.749066,-0.778764
-0.85174,-0.107989,0.33516,-0.591496,0.339785,-0.74874,-0.778974
-0.85062,-0.107631,0.33441,-0.592776,0.340606,-0.747951,-0.779081
-0.850145,-0.107492,0.334103,-0.593321,0.340971,-0.747611,-0.779076
-0.848974,-0.107194,0.333368,-0.594725,0.341967,-0.746748,-0.77898
-0.848423,-0.107096,0.333045,-0.595418,0.342457,-0.746356,-0.778892
-0.847287,-0.106834,0.332353,-0.596791,0.343512,-0.745471,-0.778595
-0.8469,-0.106704,0.332123,-0.597199,0.343781,-0.745178,-0.778436
-0.84619,-0.106288,0.331711,-0.597676,0.343922,-0.744664,-0.777854
-0.845861,-0.106013,0.331521,-0.597773,0.343826,-0.744432,-0.777451
-0.845524,-0.105652,0.331358,-0.597827,0.343704,-0.744129,-0.77705
-0.845379,-0.105387,0.331334,-0.597793,0.343639,-0.743891,-0.776953
-0.845304,-0.104943,0.331437,-0.597583,0.343497,-0.743516,-0.776992
-0.84526,-0.104781,0.331477,-0.597544,0.343486,-0.743369,-0.776981
-0.845222,-0.104432,0.331661,-0.597491,0.343555,-0.743022,-0.776688
-0.844882,-0.104316,0.331506,-0.597902,0.343839,-0.742825,-0.776403
-0.844481,-0.104045,0.331442,-0.598433,0.344291,-0.742437,-0.775767
-0.844329,-0.103927,0.331387,-0.598618,0.344412,-0.742291,-0.775554
-0.843967,-0.10359,0.331118,-0.599033,0.344541,-0.741896,-0.775093
-0.84375,-0.103384,0.330916,-0.59927,0.344562,-0.741679,-0.774858
-0.8435,-0.103151,0.330735,-0.599498,0.344572,-0.741515,-0.774661
-0.843369,-0.103034,0.330734,-0.599563,0.344536,-0.741571,-0.774663
-0.843327,-0.102875,0.3309,-0.599392,0.3444,-0.741895,-0.774865
-0.843255,-0.102816,0.330941,-0.599386,0.344396,-0.741969,-0.774924
-0.842551,-0.102657,0.330636,-0.600039,0.344845,-0.741644,-0.774732
-0.842004,-0.102595,0.330311,-0.600645,0.345276,-0.741315,-0.774528
-0.84089,-0.102402,0.329675,-0.601753,0.346109,-0.740575,-0.774072
-0.840607,-0.102295,0.329571,-0.601892,0.346188,-0.740462,-0.773996
-0.840536,-0.101977,0.329846,-0.601155,0.345511,-0.740894,-0.774033
-0.840673,-0.101741,0.330168,-0.60036,0.344821,-0.74134,-0.774186
-0.840716,-0.101311,0.33051,-0.599415,0.344019,-0.741669,-0.774615
-0.840567,-0.100854,0.330655,-0.598866,0.343591,-0.741575,-0.775268
-0.840227,-0.099931,0.33087,-0.597962,0.342919,-0.741103,-0.776742
-0.839947,-0.099556,0.330829,-0.597801,0.34277,-0.740838,-0.777196
-0.839435,-0.098774,0.330767,-0.59745,0.342419,-0.740227,-0.777506
-0.839129,-0.09849,0.330623,-0.59753,0.34237,-0.739914,-0.777287
-0.838005,-0.097807,0.329934,-0.598254,0.342592,-0.739008,-0.776519
-0.837587,-0.097533,0.329685,-0.598573,0.342717,-0.738576,-0.776319
-0.836589,-0.096834,0.329056,-0.599448,0.343288,-0.737244,-0.776202
-0.835945,-0.096418,0.328619,-0.600114,0.343749,-0.736355,-0.776173
-0.835245,-0.095935,0.328135,-0.600815,0.344174,-0.735418,-0.775954
-0.83496,-0.095648,0.327928,-0.601021,0.344178,-0.735067,-0.775502
-0.834731,-0.095268,0.327734,-0.601079,0.343899,-0.734841,-0.774469
-0.834706,-0.095145,0.327725,-0.601034,0.343798,-0.73476,-0.774168
-0.833653,-0.094828,0.326942,-0.602255,0.344521,-0.733906,-0.773872
-0.833049,-0.09472,0.326503,-0.603006,0.345062,-0.733385,-0.773937
-0.831626,-0.094489,0.325502,-0.60477,0.346365,-0.732237,-0.774329
-0.831298,-0.094412,0.325302,-0.605139,0.34663,-0.732044,-0.774522
-0.831286,-0.094267,0.325507,-0.604928,0.346438,-0.732523,-0.775222
-0.831531,-0.094207,0.325839,-0.604451,0.34606,-0.733106,-0.775716
-0.831802,-0.094115,0.326187,-0.603921,0.345638,-0.733666,-0.776237
-0.831817,-0.094016,0.32623,-0.603816,0.34554,-0.7337,-0.776464
-0.831774,-0.093832,0.326179,-0.603773,0.345481,-0.733467,-0.77667
-0.831735,-0.093782,0.326157,-0.60375,0.34543,-0.733456,-0.776679
-0.832509,-0.093697,0.326825,-0.602628,0.344644,-0.733997,-0.776666
-0.83295,-0.093706,0.327218,-0.60199,0.344185,-0.734422,-0.776579
-0.834182,-0.093698,0.328336,-0.600185,0.342903,-0.735572,-0.776352
-0.834632,-0.093639,0.328761,-0.599493,0.342421,-0.735935,-0.776318
-0.835949,-0.093315,0.330029,-0.597424,0.341026,-0.736749,-0.776478
-0.836671,-0.093059,0.330753,-0.596235,0.340233,-0.737125,-0.776622
-0.837068,-0.092694,0.331269,-0.595383,0.339656,-0.737247,-0.776679
-0.836763,-0.092412,0.331169,-0.595547,0.339749,-0.736933,-0.776557
-0.835474,-0.091901,0.330382,-0.596835,0.34057,-0.735864,-0.776173
-0.834824,-0.091687,0.329966,-0.597504,0.340995,-0.735367,-0.775996
-0.832928,-0.091152,0.328783,-0.599421,0.342189,-0.734158,-0.775576
-0.831914,-0.090936,0.328165,-0.600467,0.34281,-0.73364,-0.775396
-0.829565,-0.090352,0.326683,-0.60283,0.344259,-0.732273,-0.774923
-0.828736,-0.090084,0.326122,-0.603615,0.344732,-0.731692,-0.77469
-0.826392,-0.089328,0.324436,-0.605809,0.34589,-0.729852,-0.773871
-0.825036,-0.088838,0.323425,-0.607025,0.346481,-0.7287,-0.773319
-0.823659,-0.088207,0.322452,-0.608126,0.346932,-0.727559,-0.772692
-0.823259,-0.08775,0.322288,-0.608207,0.346783,-0.727238,-0.772379
-0.823084,-0.087017,0.322417,-0.60771,0.346121,-0.727258,-0.771979
-0.822929,-0.086742,0.322419,-0.607621,0.345936,-0.727234,-0.771818
-0.822002,-0.086218,0.321918,-0.608119,0.346067,-0.726597,-0.771319
-0.821361,-0.086067,0.321486,-0.608683,0.346382,-0.726151,-0.771043
-0.819562,-0.085694,0.320308,-0.610208,0.347255,-0.72501,-0.770505
-0.818862,-0.085499,0.319912,-0.610666,0.347486,-0.72467,-0.770453
-0.817365,-0.084925,0.319256,-0.611205,0.347597,-0.724265,-0.770963
-0.81639,-0.084525,0.318858,-0.611443,0.347602,-0.724135,-0.771442
-0.814797,-0.083872,0.318286,-0.611902,0.347719,-0.723786,-0.771906
-0.813336,-0.083308,0.317804,-0.612426,0.347951,-0.723397,-0.772034
-0.810587,-0.082225,0.316963,-0.613362,0.34846,-0.722621,-0.772065
-0.809355,-0.081682,0.316591,-0.61378,0.348696,-0.722137,-0.771979
-0.805997,-0.079911,0.31555,-0.614861,0.349327,-0.720217,-0.771458
-0.804536,-0.07904,0.315095,-0.615344,0.349611,-0.719174,-0.771138
-0.800969,-0.076661,0.314143,-0.616064,0.350119,-0.71634,-0.770158
-0.799484,-0.075654,0.313805,-0.616237,0.350264,-0.715184,-0.769707
-0.795867,-0.07306,0.313263,-0.61605,0.350286,-0.712259,-0.7683
-0.793807,-0.0714,0.313131,-0.615547,0.350097,-0.710436,-0.767394
-0.790576,-0.068979,0.31276,-0.615216,0.350025,-0.70788,-0.766343
-0.787875,-0.066959,0.3124,-0.615149,0.350053,-0.705904,-0.765779
-0.783019,-0.063298,0.311753,-0.615131,0.350146,-0.702486,-0.76509
-0.780845,-0.06179,0.311379,-0.61529,0.350299,-0.701033,-0.764846
-0.774619,-0.058066,0.309985,-0.616376,0.351213,-0.697049,-0.764256
-0.771725,-0.05656,0.3092,-0.617163,0.351851,-0.695305,-0.764044
-0.764534,-0.052724,0.307279,-0.618903,0.353299,-0.690901,-0.763546
-0.761901,-0.051149,0.306637,-0.61928,0.353623,-0.689213,-0.76332
-0.756506,-0.047092,0.305733,-0.618723,0.35319,-0.685282,-0.762704
-0.753503,-0.04461,0.305304,-0.618048,0.352662,-0.682982,-0.762306
-0.748843,-0.041368,0.304369,-0.617971,0.352563,-0.679741,-0.761771
-0.744506,-0.038938,0.303175,-0.618925,0.353336,-0.677101,-0.761394
-0.73686,-0.035062,0.301178,-0.621111,0.355014,-0.672516,-0.760876
-0.733598,-0.033564,0.300199,-0.622233,0.355867,-0.670673,-0.7606
-0.725279,-0.030172,0.297404,-0.625305,0.358062,-0.666141,-0.75951
-0.721737,-0.028941,0.296073,-0.626798,0.359075,-0.664316,-0.758888
-0.712942,-0.025943,0.292681,-0.630551,0.361709,-0.659879,-0.757478
-0.709653,-0.024725,0.291491,-0.631863,0.362669,-0.658193,-0.757175
-0.702062,-0.021609,0.289119,-0.634579,0.364713,-0.654268,-0.757407
-0.697803,-0.019752,0.287872,-0.635977,0.365838,-0.652042,-0.757838
-0.691971,-0.01739,0.285975,-0.638231,0.367518,-0.649003,-0.758051
-0.687296,-0.015737,0.284203,-0.64048,0.369062,-0.646585,-0.757691
-0.679309,-0.013087,0.280861,-0.644725,0.371979,-0.642489,-0.75661
-0.676316,-0.01208,0.279661,-0.646265,0.37299,-0.640881,-0.756208
-0.669962,-0.009614,0.277331,-0.64886,0.374783,-0.637161,-0.755686
-0.667761,-0.008662,0.276585,-0.649546,0.375294,-0.635757,-0.75561
-0.662704,-0.006309,0.27489,-0.650831,0.376279,-0.632395,-0.755462
-0.660778,-0.005379,0.27426,-0.651277,0.37655,-0.631083,-0.755349
-0.655843,-0.003027,0.272433,-0.652647,0.377284,-0.627819,-0.754705
-0.653206,-0.001625,0.271474,-0.653157,0.377476,-0.625963,-0.7543
-0.649967,0.000297,0.270395,-0.653411,0.377431,-0.623723,-0.754037
-0.648369,0.001755,0.270131,-0.652538,0.37668,-0.622375,-0.754275
-0.646195,0.004284,0.269963,-0.650365,0.374954,-0.620496,-0.755056
-0.64542,0.005248,0.269987,-0.649409,0.374225,-0.619794,-0.755386
-0.642888,0.007467,0.269778,-0.647841,0.373095,-0.617954,-0.755908
-0.641991,0.008286,0.269783,-0.64715,0.372687,-0.617205,-0.756084
-0.639164,0.010266,0.269532,-0.646112,0.372108,-0.615385,-0.756369
-0.638101,0.011039,0.269474,-0.645642,0.371861,-0.614727,-0.756456
-0.635355,0.012852,0.269298,-0.644705,0.371391,-0.613201,-0.756484
-0.633822,0.013897,0.269285,-0.644055,0.371077,-0.612381,-0.756466
-0.631848,0.015398,0.269406,-0.643009,0.370535,-0.611385,-0.756578
-0.630612,0.016631,0.269743,-0.641846,0.369889,-0.610803,-0.756958
-0.628929,0.018809,0.27066,-0.639336,0.368489,-0.610071,-0.757881
-0.627941,0.019736,0.270834,-0.638659,0.368082,-0.609661,-0.758016
-0.625479,0.022075,0.271211,-0.636812,0.366926,-0.608334,-0.757424
-0.624474,0.02302,0.271332,-0.636033,0.366399,-0.607747,-0.756854
-0.621784,0.025516,0.27158,-0.634227,0.365265,-0.605861,-0.75518
-0.620494,0.026617,0.271601,-0.633764,0.365068,-0.604855,-0.75459
-0.617194,0.029602,0.271834,-0.632754,0.36516,-0.601525,-0.753637
-0.615286,0.031519,0.272095,-0.632066,0.365303,-0.599207,-0.753166
-0.612642,0.034146,0.272299,-0.631118,0.365305,-0.596141,-0.752144
-0.610508,0.036206,0.27228,-0.630481,0.365113,-0.593918,-0.750918
-0.606767,0.039824,0.272017,-0.629464,0.364648,-0.590162,-0.748353
-0.605711,0.041245,0.272186,-0.628478,0.364086,-0.588709,-0.747397
-0.602186,0.044984,0.272117,-0.626754,0.363112,-0.584762,-0.745172
-0.600971,0.046504,0.272209,-0.625739,0.362542,-0.583144,-0.744392
-0.598208,0.050299,0.272616,-0.622662,0.360718,-0.579252,-0.742544
-0.597163,0.051758,0.272844,-0.621275,0.359801,-0.577858,-0.741795
-0.595061,0.055435,0.273706,-0.616941,0.356818,-0.574957,-0.739979
-0.593974,0.057601,0.274338,-0.614009,0.354754,-0.573402,-0.738916
-0.592418,0.060389,0.275095,-0.610253,0.352209,-0.57113,-0.737528
-0.590984,0.062399,0.275476,-0.607811,0.350732,-0.568981,-0.73649
-0.588467,0.065635,0.275989,-0.603899,0.348581,-0.565073,-0.734811
-0.587451,0.066886,0.276196,-0.602334,0.347657,-0.563721,-0.734164
-0.585887,0.06986,0.277343,-0.597237,0.344133,-0.561813,-0.732765
-0.585502,0.071005,0.277964,-0.594884,0.342359,-0.561549,-0.732269
-0.584518,0.073712,0.279559,-0.589041,0.33786,-0.561296,-0.731068
-0.583882,0.07474,0.280062,-0.58702,0.33636,-0.561091,-0.730581
-0.581328,0.077064,0.280732,-0.583246,0.333717,-0.560256,-0.729202
-0.579537,0.078365,0.281005,-0.581314,0.332433,-0.559736,-0.728384
-0.577513,0.080169,0.281681,-0.578221,0.330393,-0.559157,-0.727533
-0.576499,0.08162,0.282626,-0.575184,0.328403,-0.558897,-0.727216
-0.57531,0.084125,0.284662,-0.569405,0.324637,-0.558646,-0.727048
-0.574876,0.085153,0.285475,-0.567046,0.323068,-0.558518,-0.726952
-0.57384,0.087739,0.287263,-0.561222,0.318999,-0.557948,-0.726371
-0.573444,0.088794,0.287917,-0.558888,0.317304,-0.557653,-0.726074
-0.572543,0.091421,0.28947,-0.55307,0.312986,-0.556774,-0.725041
-0.572204,0.092444,0.290059,-0.550797,0.311279,-0.556364,-0.724453
-0.571384,0.094862,0.291365,-0.54537,0.307138,-0.555123,-0.722248
-0.570929,0.096292,0.292094,-0.542181,0.304671,-0.554276,-0.720705
-0.570507,0.098306,0.293279,-0.537672,0.301157,-0.553167,-0.718999
-0.570261,0.1,0.294254,-0.534074,0.298433,-0.552444,-0.718217
-0.570207,0.102962,0.296257,-0.527613,0.293468,-0.551306,-0.717418
-0.570165,0.104161,0.297032,-0.525085,0.291513,-0.550761,-0.717021
-0.569825,0.10707,0.298533,-0.519344,0.28703,-0.548801,-0.715191
-0.56953,0.10823,0.29892,-0.517346,0.285437,-0.547767,-0.714171
-0.569003,0.111071,0.300096,-0.512094,0.281341,-0.545191,-0.711608
-0.569072,0.112166,0.300893,-0.509565,0.279458,-0.544373,-0.710796
-0.57007,0.114785,0.304031,-0.501861,0.274003,-0.543004,-0.709368
-0.571038,0.116316,0.306329,-0.496702,0.270401,-0.542421,-0.708744
-0.57253,0.118366,0.309344,-0.489774,0.265374,-0.541649,-0.708036
-0.573684,0.119972,0.311436,-0.484689,0.261468,-0.541045,-0.707679
-0.569072,0.112166,0.300893,-0.509565,0.279458,-0.544373,-0.710796
-0.576753,0.123655,0.316276,-0.47285,0.251822,-0.539639,-0.707067
-0.579644,0.125662,0.319407,-0.464595,0.24489,-0.538217,-0.705512
-0.580647,0.12626,0.320305,-0.461724,0.242374,-0.537479,-0.704478
-0.583927,0.127736,0.322999,-0.453956,0.235619,-0.535693,-0.70205
-0.585818,0.1284,0.324706,-0.450182,0.232333,-0.535181,-0.701468
-0.59163,0.130348,0.330405,-0.439521,0.222859,-0.534399,-0.700927
-0.595871,0.131633,0.334584,-0.432278,0.216449,-0.534208,-0.701041
-0.601473,0.133336,0.34028,-0.422582,0.207844,-0.534133,-0.70148
-0.605406,0.134549,0.344483,-0.415507,0.201548,-0.534209,-0.702075
-0.61219,0.136589,0.352004,-0.403315,0.19063,-0.53467,-0.703591
-0.614557,0.137323,0.355055,-0.3989,0.186247,-0.534772,-0.704159
-0.621145,0.139273,0.36339,-0.387097,0.17434,-0.535141,-0.705306
-0.623877,0.140081,0.366864,-0.382255,0.169348,-0.535336,-0.705678
-0.630698,0.142192,0.375858,-0.370159,0.156678,-0.5358,-0.706553
-0.633308,0.143077,0.379523,-0.365464,0.151708,-0.535913,-0.706917
-0.638627,0.145088,0.388817,-0.355395,0.139922,-0.535585,-0.707846
-0.641716,0.146374,0.39448,-0.349458,0.132942,-0.535332,-0.708406
-0.646613,0.148206,0.403308,-0.34066,0.122009,-0.535224,-0.709267
-0.651377,0.149827,0.411305,-0.332708,0.111928,-0.535536,-0.71004
-0.660576,0.152311,0.429207,-0.318684,0.090127,-0.535935,-0.711745
-0.663379,0.152836,0.437416,-0.314553,0.080527,-0.535662,-0.712476
-0.669701,0.154114,0.457436,-0.305074,0.057426,-0.534932,-0.714162
-0.671938,0.154557,0.465483,-0.301699,0.048272,-0.534587,-0.714811
-0.678033,0.156069,0.485649,-0.292442,0.025324,-0.534044,-0.716357
-0.678123,0.155453,0.49463,-0.292454,0.015641,-0.53276,-0.717021
-0.677289,0.153775,0.515093,-0.293654,-0.006434,-0.529414,-0.718359
-0.676688,0.1528,0.526836,-0.294418,-0.019134,-0.527481,-0.719081
-0.675691,0.151425,0.542302,-0.295618,-0.035944,-0.524989,-0.720082
-0.674747,0.150242,0.55409,-0.296742,-0.048838,-0.523208,-0.720921
-0.678123,0.155453,0.49463,-0.292454,0.015641,-0.53276,-0.717021
-0.670466,0.146549,0.579934,-0.302127,-0.077164,-0.518655,-0.722862
-0.669316,0.145573,0.595593,-0.302708,-0.094717,-0.516093,-0.723964
-0.668189,0.145062,0.600516,-0.303758,-0.100267,-0.514814,-0.724288
-0.665122,0.143764,0.612122,-0.306686,-0.113395,-0.511513,-0.725014
-0.663794,0.1431,0.617098,-0.308094,-0.118986,-0.510155,-0.725319
-0.658173,0.140043,0.629241,-0.315151,-0.132342,-0.506009,-0.726159
-0.654777,0.138071,0.63674,-0.319541,-0.140602,-0.503495,-0.726654
-0.650408,0.135375,0.646483,-0.325297,-0.151562,-0.500076,-0.72706
-0.647277,0.13324,0.653614,-0.329596,-0.159898,-0.497357,-0.727033
-0.642273,0.129576,0.665188,-0.336657,-0.173805,-0.492699,-0.726602
-0.640418,0.128283,0.669484,-0.339141,-0.178974,-0.490978,-0.726441
-0.635883,0.125698,0.678557,-0.344457,-0.18958,-0.487305,-0.72637
-0.63445,0.125116,0.68178,-0.345746,-0.193222,-0.486164,-0.726432
-0.630391,0.1235,0.68929,-0.34949,-0.201629,-0.483295,-0.726682
-0.628663,0.122666,0.692723,-0.351286,-0.205503,-0.482046,-0.726835
-0.624028,0.120025,0.702567,-0.356613,-0.216602,-0.478674,-0.727426
-0.621155,0.118231,0.708919,-0.360122,-0.223787,-0.476568,-0.727872
-0.617382,0.115734,0.717484,-0.364966,-0.233666,-0.47368,-0.728454
-0.614629,0.113747,0.724045,-0.368825,-0.24147,-0.471366,-0.728897
-0.610124,0.110233,0.735236,-0.375575,-0.255055,-0.467358,-0.72966
-0.608398,0.108918,0.739485,-0.378048,-0.260239,-0.465884,-0.729891
-0.603929,0.105706,0.749235,-0.383826,-0.271853,-0.462656,-0.730078
-0.602483,0.105116,0.752097,-0.384877,-0.275401,-0.461853,-0.729787
-0.598348,0.102821,0.759933,-0.388868,-0.284758,-0.459562,-0.729439
-0.596721,0.101818,0.763258,-0.390643,-0.288744,-0.458605,-0.729593
-0.592797,0.09923,0.771784,-0.395362,-0.29908,-0.456173,-0.730974
-0.590485,0.097595,0.777056,-0.398353,-0.305487,-0.454722,-0.732129
-0.587368,0.095076,0.784723,-0.402758,-0.314686,-0.452738,-0.733535
-0.584995,0.092808,0.791174,-0.406503,-0.322289,-0.451184,-0.734308
-0.581047,0.088547,0.802793,-0.413309,-0.335861,-0.448546,-0.735438
-0.579525,0.086831,0.80754,-0.41601,-0.341419,-0.44753,-0.735955
-0.575651,0.082674,0.819185,-0.422643,-0.355165,-0.445149,-0.737698
-0.573801,0.080516,0.824266,-0.426097,-0.361066,-0.444058,-0.738687
-0.569753,0.076297,0.835489,-0.432979,-0.374499,-0.441732,-0.740854
-0.568813,0.075254,0.839997,-0.43456,-0.379971,-0.440965,-0.741567
-0.565732,0.071549,0.850915,-0.440667,-0.39329,-0.438057,-0.743358
-0.564017,0.069485,0.857139,-0.444164,-0.400961,-0.436178,-0.744316
-0.56175,0.067227,0.864526,-0.448207,-0.410071,-0.43377,-0.745301
-0.559976,0.066394,0.86844,-0.450137,-0.414957,-0.432221,-0.745551
-0.556989,0.065878,0.873368,-0.452287,-0.421165,-0.429774,-0.745449
-0.555873,0.065305,0.876147,-0.453647,-0.424535,-0.428627,-0.745606
-0.553616,0.061001,0.888947,-0.460791,-0.439501,-0.424746,-0.747651
-0.552935,0.058338,0.895979,-0.464879,-0.447632,-0.422861,-0.749056
-0.551618,0.050623,0.915487,-0.476274,-0.470064,-0.417961,-0.752885
-0.551155,0.047546,0.923162,-0.480698,-0.478851,-0.416115,-0.754158
-0.550606,0.040144,0.942556,-0.490793,-0.500953,-0.411911,-0.756354
-0.550425,0.035489,0.954464,-0.496975,-0.514446,-0.409481,-0.757492
-0.550327,0.029197,0.970514,-0.505227,-0.532482,-0.406479,-0.759462
-0.550401,0.024416,0.982764,-0.51144,-0.546095,-0.404464,-0.761558
-0.550838,0.016309,1.003667,-0.521797,-0.569085,-0.401483,-0.765703
-0.55133,0.013346,1.01229,-0.525376,-0.578512,-0.400524,-0.767353
-0.552535,0.005891,1.033835,-0.534209,-0.601874,-0.39829,-0.771112
-0.553022,0.002889,1.042494,-0.537688,-0.611142,-0.397499,-0.772539
-0.554575,-0.004827,1.064838,-0.546563,-0.635114,-0.395578,-0.776205
-0.555433,-0.00803,1.07422,-0.550267,-0.645334,-0.394765,-0.777782
-0.55891,-0.016164,1.100248,-0.559431,-0.674027,-0.39281,-0.782228
-0.56156,-0.021431,1.117126,-0.565342,-0.692719,-0.391673,-0.78517
-0.565578,-0.02844,1.140138,-0.5731,-0.718225,-0.390462,-0.789073
-0.568799,-0.033377,1.157215,-0.57848,-0.737217,-0.389808,-0.791804
-0.575215,-0.041292,1.18714,-0.586815,-0.770461,-0.389297,-0.796362
-0.578575,-0.044,1.20034,-0.589326,-0.785001,-0.389561,-0.798216
-0.588899,-0.051386,1.237543,-0.595971,-0.825494,-0.391194,-0.803498
-0.594165,-0.054378,1.2548,-0.598446,-0.844069,-0.392424,-0.80591
-0.575215,-0.041292,1.18714,-0.586815,-0.770461,-0.389297,-0.796362
-0.575215,-0.041292,1.18714,-0.586815,-0.770461,-0.389297,-0.796362
-0.575215,-0.041292,1.18714,-0.586815,-0.770461,-0.389297,-0.796362
-0.575215,-0.041292,1.18714,-0.586815,-0.770461,-0.389297,-0.796362
-0.575215,-0.041292,1.18714,-0.586815,-0.770461,-0.389297,-0.796362
-0.221635,0.440883,-0.354487,-0.449759,0.78343,-0.581348,-0.54788
-0.220527,0.445999,-0.374519,-0.444483,0.799722,-0.585911,-0.544212
-0.21793,0.447014,-0.375328,-0.445043,0.799769,-0.586054,-0.542784
-0.212313,0.449476,-0.377422,-0.445979,0.799381,-0.586135,-0.539669
-0.210395,0.450401,-0.378287,-0.446132,0.799001,-0.586133,-0.538599
-0.20556,0.452836,-0.380492,-0.446675,0.798112,-0.585963,-0.53591
-0.203319,0.453968,-0.381381,-0.447214,0.797997,-0.585783,-0.534685
-0.196838,0.457303,-0.383655,-0.449481,0.798406,-0.585034,-0.531173
-0.192596,0.459503,-0.38503,-0.451236,0.798937,-0.584426,-0.528908
-0.186852,0.462408,-0.386849,-0.453689,0.799788,-0.583485,-0.525875
-0.18234,0.464547,-0.388184,-0.45572,0.800602,-0.582694,-0.523566
-0.17472,0.468096,-0.390419,-0.459289,0.802218,-0.581121,-0.519651
-0.171725,0.469489,-0.39132,-0.460634,0.80284,-0.580533,-0.518178
-0.164907,0.472714,-0.393506,-0.463174,0.803821,-0.57935,-0.515005
-0.162375,0.473922,-0.394363,-0.463935,0.804031,-0.578981,-0.513907
-0.156187,0.476882,-0.396472,-0.465714,0.804498,-0.578042,-0.511352
-0.153661,0.478093,-0.397304,-0.466541,0.804786,-0.577575,-0.510338
-0.147318,0.481117,-0.399364,-0.468742,0.805705,-0.576301,-0.507985
-0.143611,0.482881,-0.40056,-0.470044,0.806297,-0.575405,-0.506612
-0.138173,0.48558,-0.402224,-0.472471,0.807535,-0.573891,-0.504518
-0.133603,0.487937,-0.403536,-0.474969,0.808923,-0.572384,-0.502609
-0.125442,0.492266,-0.40577,-0.479947,0.81181,-0.569384,-0.499069
-0.122232,0.494026,-0.406691,-0.481945,0.812991,-0.568164,-0.497666
-0.114891,0.498229,-0.40892,-0.486349,0.815457,-0.565322,-0.49446
-0.112096,0.499915,-0.409804,-0.48802,0.816342,-0.564216,-0.493234
-0.105459,0.503944,-0.411953,-0.491981,0.818407,-0.561474,-0.490343
-0.102962,0.505405,-0.412769,-0.493463,0.819194,-0.56038,-0.489282
-0.097111,0.508696,-0.414762,-0.49698,0.821164,-0.557634,-0.486889
-0.093961,0.510403,-0.415875,-0.498815,0.822206,-0.55599,-0.485612
-0.089865,0.512552,-0.417338,-0.501133,0.823506,-0.5539,-0.484018
-0.086967,0.513992,-0.418403,-0.502641,0.824337,-0.552439,-0.482943
-0.082444,0.516105,-0.420116,-0.504821,0.825515,-0.550136,-0.481346
-0.080627,0.516968,-0.420827,-0.505723,0.826009,-0.549234,-0.480684
-0.075981,0.519315,-0.422596,-0.508126,0.827309,-0.546946,-0.478838
-0.074245,0.520221,-0.42329,-0.509017,0.827776,-0.546001,-0.478027
-0.069638,0.522669,-0.425057,-0.511455,0.829065,-0.543723,-0.476029
-0.067809,0.523639,-0.425748,-0.512352,0.829546,-0.542851,-0.475329
-0.0632,0.526045,-0.42741,-0.514371,0.830735,-0.540884,-0.473935
-0.060541,0.527435,-0.428383,-0.515406,0.831345,-0.539735,-0.473206
-0.056993,0.529387,-0.4298,-0.51689,0.83209,-0.538057,-0.472114
-0.054453,0.53091,-0.430982,-0.518003,0.832489,-0.536626,-0.471213
-0.05035,0.533521,-0.433097,-0.519862,0.832964,-0.534034,-0.469599
-0.048651,0.534591,-0.433984,-0.520704,0.833214,-0.532944,-0.468815
-0.04409,0.537257,-0.436235,-0.52327,0.834207,-0.530057,-0.466224
-0.042066,0.53838,-0.437182,-0.524575,0.834794,-0.528834,-0.464932
-0.037179,0.541094,-0.439505,-0.52763,0.836136,-0.525703,-0.461561
-0.03515,0.54227,-0.440432,-0.528831,0.836661,-0.524532,-0.46027
-0.029756,0.545604,-0.442808,-0.531961,0.838104,-0.521726,-0.457027
-0.026579,0.547613,-0.444204,-0.533665,0.838868,-0.520115,-0.455138
-0.022501,0.550095,-0.446028,-0.535548,0.839621,-0.518247,-0.452955
-0.019702,0.551685,-0.447327,-0.536475,0.839888,-0.517073,-0.451768
-0.015351,0.554007,-0.449421,-0.537376,0.839905,-0.515475,-0.450296
-0.013712,0.554841,-0.45028,-0.53759,0.839771,-0.514971,-0.449659
-0.010034,0.556594,-0.452542,-0.537739,0.838837,-0.514127,-0.447407
-0.008756,0.557148,-0.453493,-0.537588,0.838178,-0.513992,-0.446305
-0.005497,0.558468,-0.455846,-0.537234,0.83659,-0.513723,-0.443454
-0.003978,0.559079,-0.456731,-0.537298,0.836249,-0.513496,-0.442398
0.000547,0.560885,-0.458774,-0.538305,0.836495,-0.512432,-0.439967
0.003437,0.561995,-0.459926,-0.53904,0.836909,-0.511703,-0.438591
0.007303,0.563511,-0.461479,-0.539695,0.837183,-0.511033,-0.436868
0.010206,0.564647,-0.462676,-0.539744,0.836997,-0.511026,-0.435669
0.015116,0.566566,-0.46469,-0.539382,0.836335,-0.5115,-0.433809
0.017113,0.567401,-0.465536,-0.539279,0.836083,-0.51162,-0.433075
0.022035,0.569689,-0.467781,-0.539381,0.835591,-0.511227,-0.431247
0.023981,0.570685,-0.468729,-0.539491,0.835391,-0.510898,-0.430558
0.029043,0.573346,-0.471168,-0.540147,0.835166,-0.509689,-0.428679
0.031239,0.574474,-0.472156,-0.540654,0.8353,-0.509044,-0.427771
0.037181,0.577466,-0.474737,-0.542655,0.836269,-0.506896,-0.424905
0.040966,0.579369,-0.476303,-0.544193,0.837162,-0.505348,-0.42301
0.046176,0.582013,-0.478291,-0.546363,0.83861,-0.503245,-0.420697
0.050283,0.584135,-0.479642,-0.548149,0.840033,-0.501628,-0.419247
0.057419,0.587855,-0.481742,-0.551383,0.842863,-0.498819,-0.417107
0.060214,0.589314,-0.482622,-0.552548,0.843897,-0.497786,-0.416289
0.066597,0.592565,-0.485002,-0.554609,0.845451,-0.495606,-0.414164
0.068993,0.593767,-0.486019,-0.555211,0.845778,-0.494846,-0.413279
0.074825,0.596623,-0.488566,-0.556278,0.846206,-0.493285,-0.411253
0.077223,0.597768,-0.489547,-0.556604,0.846354,-0.492852,-0.410599
0.082944,0.60031,-0.491817,-0.556559,0.846301,-0.492457,-0.409605
0.086394,0.601793,-0.493148,-0.556327,0.846152,-0.49247,-0.409191
0.091097,0.603898,-0.49502,-0.556295,0.846091,-0.492164,-0.408409
0.094747,0.605611,-0.496526,-0.556589,0.846228,-0.491558,-0.407596
0.100963,0.608621,-0.499151,-0.557404,0.84662,-0.490148,-0.405993
0.103475,0.609914,-0.500263,-0.557879,0.846844,-0.489451,-0.405199
0.109621,0.613305,-0.503207,-0.559353,0.847344,-0.48733,-0.402619
0.112165,0.61481,-0.504488,-0.560153,0.84759,-0.486369,-0.401342
0.118202,0.618538,-0.50761,-0.562299,0.848276,-0.483479,-0.397957
0.120642,0.620109,-0.508789,-0.563398,0.848809,-0.482169,-0.396632
0.126989,0.624482,-0.511582,-0.56707,0.85118,-0.478292,-0.393353
0.130563,0.62705,-0.513126,-0.569374,0.85277,-0.475688,-0.391406
0.135052,0.630233,-0.51516,-0.572244,0.854635,-0.472414,-0.388899
0.137973,0.632232,-0.516656,-0.574018,0.855617,-0.470156,-0.38707
0.14227,0.635111,-0.519071,-0.576593,0.85684,-0.466565,-0.38413
0.14389,0.636182,-0.520039,-0.57747,0.857223,-0.465241,-0.383064
0.14777,0.638694,-0.522432,-0.579069,0.857711,-0.462322,-0.380916
0.149211,0.639605,-0.523385,-0.579452,0.857674,-0.461325,-0.380268
0.15287,0.641846,-0.525691,-0.580381,0.857667,-0.458969,-0.378723
0.154481,0.642803,-0.526559,-0.580952,0.857932,-0.457985,-0.377989
0.159144,0.645499,-0.528502,-0.583173,0.859746,-0.455412,-0.375879
0.161983,0.647082,-0.529581,-0.584584,0.861029,-0.453836,-0.374509
0.165602,0.649102,-0.531189,-0.58625,0.862287,-0.45182,-0.372529
0.167998,0.650422,-0.532597,-0.587134,0.86258,-0.450375,-0.370859
0.171671,0.652414,-0.535155,-0.588245,0.8624,-0.448039,-0.367828
0.173096,0.653204,-0.536206,-0.588631,0.862251,-0.447127,-0.366643
0.176622,0.655299,-0.538755,-0.589593,0.861956,-0.44478,-0.364011
0.178017,0.656209,-0.539769,-0.589991,0.861843,-0.443799,-0.363056
0.181402,0.658266,-0.542308,-0.590711,0.861309,-0.441576,-0.360738
0.182705,0.658871,-0.543325,-0.590793,0.860921,-0.440894,-0.359791
0.18601,0.659789,-0.545895,-0.590486,0.859563,-0.439981,-0.357111
0.187783,0.659966,-0.547429,-0.589918,0.85841,-0.439643,-0.355513
0.189958,0.660185,-0.549498,-0.589024,0.856685,-0.43905,-0.353915
0.191179,0.660216,-0.551048,-0.588011,0.855004,-0.438446,-0.353465
0.192664,0.65999,-0.553632,-0.585836,0.851653,-0.437251,-0.353507
0.193478,0.660102,-0.554707,-0.585268,0.850579,-0.436635,-0.353393
0.196089,0.660884,-0.557427,-0.584964,0.848985,-0.434245,-0.351865
0.1974,0.661383,-0.558513,-0.58525,0.848782,-0.433047,-0.350927
0.200823,0.663105,-0.561405,-0.586545,0.848542,-0.429427,-0.348007
0.202098,0.664011,-0.562699,-0.587184,0.848306,-0.427705,-0.34665
0.204903,0.666936,-0.56639,-0.589249,0.847302,-0.422413,-0.342504
0.2065,0.669014,-0.568783,-0.590726,0.846603,-0.4188,-0.339714
0.208782,0.671905,-0.571974,-0.592646,0.845708,-0.414036,-0.336182
0.210677,0.674201,-0.574355,-0.594045,0.84511,-0.410521,-0.333768
0.214024,0.678269,-0.578363,-0.596378,0.844142,-0.404618,-0.329927
0.215433,0.679848,-0.579942,-0.597208,0.843771,-0.402452,-0.328495
0.219021,0.683197,-0.583639,-0.598671,0.842723,-0.39795,-0.3253
0.220529,0.684365,-0.585038,-0.599065,0.842289,-0.396485,-0.324177
0.224486,0.687229,-0.588466,-0.599868,0.841214,-0.393239,-0.32151
0.226149,0.68847,-0.589849,-0.600212,0.840808,-0.391978,-0.320421
0.230399,0.691849,-0.593371,-0.600923,0.839662,-0.389042,-0.317976
0.233099,0.693971,-0.595485,-0.601361,0.839037,-0.38741,-0.316468
0.237046,0.696843,-0.598286,-0.602319,0.838679,-0.385174,-0.313782
0.24045,0.699009,-0.600347,-0.603541,0.839065,-0.383413,-0.310833
0.246687,0.702714,-0.603774,-0.606155,0.840503,-0.380436,-0.30489
0.24904,0.704163,-0.605162,-0.607073,0.84093,-0.379185,-0.30266
0.254126,0.707819,-0.608786,-0.608546,0.840753,-0.376023,-0.298705
0.255875,0.709264,-0.610295,-0.608813,0.840205,-0.374782,-0.297672
0.260271,0.713063,-0.614069,-0.609724,0.839049,-0.371324,-0.295084
0.262272,0.714741,-0.615527,-0.610527,0.839129,-0.369655,-0.293626
0.267993,0.719428,-0.619081,-0.613791,0.840986,-0.36465,-0.288686
0.27165,0.722429,-0.62114,-0.616232,0.842721,-0.361253,-0.285298
0.276449,0.72645,-0.623799,-0.619602,0.845207,-0.356514,-0.280817
0.279887,0.729495,-0.625722,-0.622244,0.847175,-0.352658,-0.277562
0.285518,0.734638,-0.628781,-0.626901,0.850797,-0.345805,-0.272119
0.28779,0.736646,-0.630024,-0.628635,0.852252,-0.343287,-0.270008
0.293646,0.741241,-0.633058,-0.632178,0.855402,-0.338205,-0.265047
0.296094,0.742995,-0.634254,-0.633406,0.856572,-0.336536,-0.263153
0.30233,0.747167,-0.637182,-0.636076,0.859314,-0.333153,-0.258633
0.304819,0.748702,-0.63827,-0.636974,0.860272,-0.332088,-0.256915
0.311111,0.752177,-0.641063,-0.638529,0.862287,-0.330796,-0.252761
0.314924,0.754121,-0.642672,-0.639242,0.86339,-0.330475,-0.250418
0.319904,0.756866,-0.644671,-0.640495,0.865296,-0.329496,-0.247615
0.323482,0.759202,-0.646016,-0.641882,0.867279,-0.327908,-0.245909
0.329284,0.763321,-0.648029,-0.644589,0.871178,-0.324513,-0.243585
0.331621,0.764906,-0.648841,-0.645637,0.872798,-0.323255,-0.242637
0.337765,0.768293,-0.650809,-0.64796,0.876868,-0.320881,-0.23974
0.340423,0.769537,-0.651541,-0.64896,0.878762,-0.320078,-0.23842
0.346737,0.772255,-0.653496,-0.650701,0.882402,-0.318863,-0.235133
0.349078,0.773296,-0.654437,-0.650937,0.882942,-0.31897,-0.233926
0.354109,0.775554,-0.657278,-0.649948,0.881805,-0.320885,-0.231467
0.356817,0.776761,-0.659234,-0.648667,0.879845,-0.322842,-0.230033
0.360011,0.778217,-0.662208,-0.646469,0.875917,-0.32578,-0.227547
0.361908,0.779102,-0.664851,-0.644272,0.871474,-0.328346,-0.224953
0.364343,0.780279,-0.669828,-0.639726,0.861854,-0.333223,-0.219731
0.365382,0.780835,-0.671823,-0.638053,0.85821,-0.334946,-0.217603
0.368736,0.782696,-0.676387,-0.635114,0.851548,-0.337658,-0.212667
0.370315,0.7836,-0.678132,-0.634307,0.849544,-0.338291,-0.210758
0.374482,0.786102,-0.682327,-0.632839,0.84551,-0.339117,-0.206186
0.376208,0.787239,-0.683934,-0.632477,0.844201,-0.339233,-0.204466
0.380379,0.790392,-0.687769,-0.631979,0.841598,-0.338728,-0.200777
0.383014,0.792453,-0.689968,-0.632006,0.840612,-0.338094,-0.198724
0.38678,0.795046,-0.692717,-0.632205,0.839821,-0.337292,-0.195651
0.389953,0.796824,-0.694711,-0.632504,0.839711,-0.336901,-0.19275
0.395704,0.799645,-0.697833,-0.633305,0.840402,-0.336343,-0.187402
0.398134,0.800795,-0.699006,-0.63367,0.840987,-0.3362,-0.185465
0.404448,0.803788,-0.701592,-0.634526,0.84314,-0.336036,-0.182058
0.407126,0.805067,-0.702502,-0.634908,0.844347,-0.336036,-0.181179
0.414027,0.808155,-0.704558,-0.635837,0.847811,-0.336373,-0.179352
0.416809,0.809248,-0.705321,-0.636155,0.849232,-0.336706,-0.178515
0.423765,0.811602,-0.707147,-0.636713,0.852805,-0.338179,-0.176137
0.428017,0.81284,-0.708125,-0.636993,0.855116,-0.33935,-0.174689
0.433912,0.814421,-0.709216,-0.637545,0.858637,-0.340991,-0.172806
0.438438,0.815364,-0.709925,-0.637969,0.861904,-0.342329,-0.171386
0.446398,0.816808,-0.710755,-0.638959,0.868088,-0.344769,-0.169064
0.449412,0.817442,-0.711146,-0.639323,0.870366,-0.345624,-0.168282
0.455897,0.819385,-0.712477,-0.639927,0.87447,-0.346934,-0.16715
0.458167,0.820289,-0.713104,-0.640093,0.87566,-0.347182,-0.167037
0.463409,0.82268,-0.714867,-0.640389,0.877876,-0.347545,-0.166692
0.46544,0.823638,-0.715649,-0.640476,0.878546,-0.347718,-0.166227
0.470144,0.825965,-0.718014,-0.640413,0.87903,-0.348394,-0.163813
0.472734,0.827301,-0.719516,-0.640259,0.878907,-0.348702,-0.162016
0.476573,0.829491,-0.721327,-0.640576,0.879815,-0.348782,-0.160095
0.479937,0.831511,-0.722373,-0.641357,0.88188,-0.348491,-0.159388
0.486007,0.835347,-0.723808,-0.643285,0.886746,-0.347531,-0.15889
0.488341,0.836924,-0.724433,-0.644099,0.888653,-0.347017,-0.158607
0.493286,0.840635,-0.72636,-0.64582,0.89181,-0.34532,-0.156966
0.494962,0.842091,-0.727257,-0.646455,0.892572,-0.344421,-0.156036
0.499139,0.845729,-0.729459,-0.648123,0.894574,-0.342165,-0.153445
0.501042,0.847199,-0.730214,-0.648883,0.89583,-0.341455,-0.152416
0.506665,0.85101,-0.73176,-0.651158,0.90073,-0.340391,-0.149836
0.510203,0.853235,-0.732526,-0.652552,0.904091,-0.339936,-0.148263
0.514678,0.856212,-0.733655,-0.654364,0.908136,-0.339178,-0.146142
0.517598,0.858393,-0.734664,-0.655546,0.910379,-0.338351,-0.144506
0.52206,0.861954,-0.736459,-0.657367,0.913443,-0.336753,-0.141732
0.523838,0.863346,-0.73717,-0.658104,0.914782,-0.336117,-0.140675
0.528694,0.866684,-0.738635,-0.66016,0.919227,-0.334663,-0.138348
0.530794,0.867985,-0.73912,-0.661076,0.921407,-0.334109,-0.137523
0.535883,0.871108,-0.74026,-0.663283,0.926732,-0.332797,-0.135591
0.53768,0.872295,-0.740744,-0.664033,0.928455,-0.332311,-0.134829
0.541285,0.875154,-0.742211,-0.66542,0.931164,-0.331168,-0.132889
0.543145,0.876722,-0.74307,-0.666067,0.932343,-0.33053,-0.131775
0.545904,0.878719,-0.743989,-0.667128,0.934732,-0.32984,-0.130456
0.548339,0.880135,-0.744373,-0.668228,0.937667,-0.32939,-0.129649
0.552717,0.882328,-0.74466,-0.670311,0.943672,-0.32882,-0.12856
0.554469,0.88311,-0.744802,-0.671033,0.946007,-0.328768,-0.128166
0.558802,0.884724,-0.745414,-0.672164,0.950688,-0.329467,-0.12715
0.560553,0.885199,-0.745712,-0.672363,0.952259,-0.330087,-0.126739
0.564732,0.886262,-0.74653,-0.672674,0.955651,-0.331712,-0.125872
0.566173,0.886672,-0.746864,-0.672789,0.956762,-0.332119,-0.125654
0.569123,0.887602,-0.747734,-0.672978,0.958797,-0.332536,-0.125605
0.570595,0.888127,-0.748281,-0.673047,0.959634,-0.332527,-0.125733
0.572287,0.88883,-0.749008,-0.673161,0.960508,-0.332194,-0.125746
0.573379,0.88952,-0.749591,-0.67338,0.961034,-0.331643,-0.125568
0.574841,0.890787,-0.750599,-0.673854,0.961582,-0.330257,-0.125088
0.575446,0.891273,-0.750994,-0.674065,0.961861,-0.329707,-0.124818
0.577343,0.892311,-0.751904,-0.674673,0.963153,-0.328657,-0.123839
0.578205,0.892683,-0.752243,-0.674971,0.963868,-0.328288,-0.123301
0.580391,0.89342,-0.753043,-0.675567,0.965636,-0.327554,-0.12197
0.581293,0.893696,-0.753382,-0.675722,0.966255,-0.327409,-0.121564
0.583564,0.89429,-0.754272,-0.675853,0.96752,-0.3274,-0.120946
0.584982,0.894599,-0.754824,-0.675819,0.968195,-0.327614,-0.120709
0.586981,0.894999,-0.755581,-0.675696,0.969085,-0.328167,-0.120388
0.588433,0.895181,-0.756143,-0.675414,0.969534,-0.328758,-0.120122
0.591084,0.895588,-0.757159,-0.674901,0.970316,-0.330181,-0.119695
0.592237,0.895702,-0.757541,-0.674703,0.970776,-0.330841,-0.119505
0.595616,0.895732,-0.75832,-0.674375,0.972906,-0.332801,-0.118897
0.597148,0.895562,-0.758542,-0.674239,0.974102,-0.333763,-0.118602
0.600934,0.895289,-0.759144,-0.67402,0.977082,-0.335961,-0.117907
0.602174,0.895333,-0.759458,-0.673946,0.977881,-0.336483,-0.117707
0.604517,0.895947,-0.760498,-0.673731,0.978646,-0.336836,-0.117616
0.605606,0.896506,-0.761207,-0.673649,0.978687,-0.336599,-0.117626
0.60679,0.897172,-0.762086,-0.673666,0.978693,-0.335872,-0.117282
0.607542,0.897681,-0.762713,-0.673898,0.978806,-0.33499,-0.116593
0.608455,0.898562,-0.763719,-0.67454,0.978939,-0.332907,-0.114962
0.608786,0.898885,-0.764073,-0.674848,0.979085,-0.332025,-0.11428
0.609706,0.899527,-0.764751,-0.675761,0.980019,-0.329888,-0.112658
0.610073,0.899724,-0.764947,-0.676228,0.980614,-0.328942,-0.111941
0.610932,0.900106,-0.765299,-0.67721,0.982085,-0.32694,-0.11052
0.61131,0.900304,-0.765432,-0.677444,0.982548,-0.326535,-0.110289
0.612382,0.900931,-0.765744,-0.677452,0.983273,-0.326849,-0.110909
0.613046,0.901333,-0.765893,-0.677261,0.983579,-0.327523,-0.111702
0.61382,0.901802,-0.766037,-0.677085,0.984026,-0.328291,-0.112568
0.614267,0.902069,-0.766087,-0.677107,0.984464,-0.328568,-0.112891
0.614859,0.902423,-0.766084,-0.677229,0.985238,-0.328903,-0.113223
0.615065,0.902535,-0.766074,-0.677248,0.985502,-0.329068,-0.113339
0.61561,0.902871,-0.766106,-0.677194,0.985976,-0.32974,-0.113674
0.615824,0.903006,-0.766129,-0.677136,0.986101,-0.330084,-0.113802
0.616306,0.90331,-0.766178,-0.676927,0.986302,-0.331055,-0.114143
0.616467,0.903408,-0.766184,-0.676825,0.986349,-0.331473,-0.114305
0.616786,0.903554,-0.766158,-0.676444,0.986314,-0.332709,-0.114878
0.616932,0.903614,-0.766126,-0.676193,0.98624,-0.333492,-0.115239
0.617075,0.90372,-0.766072,-0.675963,0.986208,-0.334348,-0.115538
0.617131,0.903853,-0.766021,-0.675933,0.986286,-0.334743,-0.115542
0.617147,0.904117,-0.765917,-0.676034,0.986509,-0.335132,-0.115292
0.617077,0.904146,-0.76585,-0.676028,0.986527,-0.335232,-0.115175
0.617205,0.904226,-0.765771,-0.676021,0.986714,-0.335885,-0.114875
0.617259,0.904194,-0.765731,-0.675983,0.986774,-0.336187,-0.114729
0.61733,0.904055,-0.765647,-0.675822,0.986768,-0.336932,-0.114443
0.617289,0.903995,-0.765626,-0.675723,0.98664,-0.33718,-0.114422
0.616953,0.903794,-0.765616,-0.675318,0.985859,-0.337676,-0.11472
0.616668,0.903663,-0.765627,-0.675033,0.985234,-0.337916,-0.115006
0.61629,0.903531,-0.765632,-0.674724,0.984486,-0.338167,-0.115272
0.616015,0.903484,-0.765619,-0.674595,0.984056,-0.338265,-0.115296
0.615539,0.903463,-0.765585,-0.674476,0.983432,-0.33831,-0.115181
0.615364,0.903456,-0.765569,-0.674421,0.983197,-0.33835,-0.115144
0.615066,0.903458,-0.765558,-0.674215,0.982649,-0.338654,-0.115201
0.614991,0.903468,-0.76556,-0.674111,0.982446,-0.338839,-0.115269
0.614844,0.903482,-0.765562,-0.673842,0.981979,-0.339355,-0.11545
0.61478,0.903469,-0.765555,-0.673743,0.981808,-0.339551,-0.115497
0.614606,0.903378,-0.765503,-0.673498,0.981423,-0.340059,-0.115588
0.614507,0.903304,-0.765464,-0.673364,0.98122,-0.340359,-0.115612
0.614367,0.903204,-0.76542,-0.673221,0.980967,-0.340679,-0.115553
0.614208,0.903109,-0.765403,-0.673149,0.980777,-0.340777,-0.115371
0.614026,0.902998,-0.765366,-0.673135,0.98054,-0.340883,-0.114936
0.613995,0.90301,-0.765376,-0.673156,0.980486,-0.340957,-0.114805
0.613824,0.902814,-0.765347,-0.672896,0.980077,-0.341297,-0.114774
0.613797,0.902759,-0.765349,-0.672764,0.979907,-0.34152,-0.114883
0.613761,0.902647,-0.765361,-0.672439,0.979507,-0.342084,-0.115157
0.613752,0.902623,-0.76537,-0.672354,0.97939,-0.342251,-0.115172
0.61381,0.902688,-0.765394,-0.67231,0.979342,-0.342522,-0.114919
0.613851,0.902748,-0.765416,-0.672328,0.97935,-0.342621,-0.114666
0.613778,0.902705,-0.765461,-0.672282,0.979131,-0.342693,-0.114317
0.61355,0.902515,-0.765515,-0.672149,0.97865,-0.342683,-0.11402
0.612978,0.902026,-0.76563,-0.671831,0.977513,-0.342569,-0.113469
0.612767,0.901825,-0.765672,-0.6717,0.977086,-0.342521,-0.113316
0.612473,0.90143,-0.765745,-0.671422,0.976392,-0.342459,-0.113339
0.612413,0.901293,-0.765767,-0.671316,0.976204,-0.342435,-0.113501
0.612371,0.900976,-0.765795,-0.671079,0.975921,-0.342454,-0.113963
0.612392,0.900857,-0.765791,-0.671004,0.975885,-0.342526,-0.114068
0.612627,0.900574,-0.765735,-0.670874,0.976099,-0.342962,-0.114045
0.612825,0.900419,-0.765679,-0.670824,0.976345,-0.343303,-0.113964
0.612988,0.900232,-0.76559,-0.670767,0.976596,-0.343665,-0.113947
0.612969,0.900127,-0.765514,-0.670727,0.976656,-0.343802,-0.114069
0.6128,0.899989,-0.765366,-0.670677,0.97666,-0.343909,-0.114394
0.612753,0.899958,-0.765316,-0.670705,0.976707,-0.343944,-0.114507
0.612616,0.899595,-0.76512,-0.67061,0.97679,-0.3441,-0.114679
0.612571,0.899417,-0.765042,-0.670589,0.976847,-0.344161,-0.114698
0.612544,0.898972,-0.764831,-0.67055,0.977118,-0.34438,-0.114748
0.6126,0.898836,-0.764742,-0.670548,0.977319,-0.344522,-0.114805
0.612991,0.898602,-0.764488,-0.670571,0.97816,-0.34511,-0.115075
0.613311,0.89851,-0.76433,-0.670604,0.978784,-0.345526,-0.115275
0.613675,0.898428,-0.764143,-0.670668,0.979532,-0.345957,-0.115516
0.613849,0.898411,-0.764028,-0.670737,0.979968,-0.346133,-0.115672
0.61406,0.898452,-0.763868,-0.670883,0.980596,-0.346268,-0.115909
0.614141,0.898459,-0.763817,-0.670948,0.98083,-0.346282,-0.115978
0.614405,0.898374,-0.763718,-0.671097,0.981433,-0.346284,-0.116011
0.614527,0.898303,-0.763689,-0.671158,0.981678,-0.346259,-0.115969
0.614823,0.898142,-0.763654,-0.671309,0.982226,-0.346121,-0.115846
0.614922,0.89812,-0.763659,-0.671367,0.982393,-0.346031,-0.11583
0.615103,0.898217,-0.763739,-0.671477,0.982607,-0.345703,-0.115964
0.615191,0.898322,-0.763813,-0.671543,0.982672,-0.345452,-0.116064
0.615322,0.898422,-0.763904,-0.671672,0.982824,-0.345088,-0.116038
0.615443,0.898456,-0.763952,-0.671855,0.983074,-0.344749,-0.115756
0.615662,0.898472,-0.764022,-0.672237,0.983594,-0.344113,-0.11503
0.615737,0.898438,-0.764048,-0.672327,0.983734,-0.343923,-0.114827
0.615945,0.898241,-0.764139,-0.672205,0.983731,-0.343917,-0.115004
0.61605,0.898111,-0.764184,-0.672021,0.983613,-0.344103,-0.115322
0.616185,0.89774,-0.764289,-0.671524,0.983153,-0.344523,-0.116162
0.616125,0.897601,-0.76432,-0.671404,0.98294,-0.344504,-0.116337
0.615518,0.897277,-0.764387,-0.671355,0.982179,-0.343727,-0.116204
0.61502,0.897085,-0.764411,-0.671403,0.981676,-0.343075,-0.115974
0.61451,0.896813,-0.764381,-0.671433,0.981228,-0.342494,-0.115816
0.614331,0.896586,-0.764296,-0.67141,0.981161,-0.342405,-0.115883
0.614227,0.896182,-0.764066,-0.671342,0.981352,-0.342617,-0.116169
0.61422,0.89602,-0.763957,-0.67129,0.981468,-0.342802,-0.116346
0.614263,0.895666,-0.763653,-0.67109,0.981792,-0.343527,-0.117033
0.614309,0.895506,-0.763494,-0.670949,0.981958,-0.343959,-0.117444
0.61447,0.895218,-0.76316,-0.670666,0.982346,-0.345082,-0.118371
0.614459,0.895069,-0.76307,-0.670535,0.982338,-0.345433,-0.118567
0.614263,0.894614,-0.76298,-0.670177,0.981888,-0.346091,-0.118445
0.614067,0.894326,-0.762986,-0.669952,0.981425,-0.346383,-0.118172
0.613684,0.893951,-0.763017,-0.669647,0.980653,-0.346585,-0.11791
0.613259,0.893686,-0.763057,-0.669409,0.979908,-0.346533,-0.117892
0.61232,0.893227,-0.763168,-0.668972,0.97838,-0.346146,-0.117984
0.611992,0.89308,-0.76322,-0.668842,0.97783,-0.345997,-0.118015
0.611241,0.892629,-0.763272,-0.668542,0.976686,-0.345662,-0.117992
0.610959,0.892444,-0.763273,-0.668455,0.976311,-0.345513,-0.117964
0.610377,0.891978,-0.76329,-0.668228,0.975466,-0.345259,-0.117826
0.610226,0.891795,-0.763322,-0.668103,0.975137,-0.345264,-0.11773
0.610175,0.891306,-0.763485,-0.66765,0.974378,-0.345737,-0.117344
0.610247,0.891022,-0.763612,-0.667345,0.973947,-0.346142,-0.117057
0.610228,0.89073,-0.763783,-0.667016,0.973331,-0.346454,-0.116703
0.610039,0.89064,-0.763919,-0.666881,0.972792,-0.346335,-0.116473
0.60957,0.890629,-0.764157,-0.666766,0.971826,-0.345805,-0.116116
0.609383,0.890591,-0.764228,-0.666709,0.971469,-0.345639,-0.115998
0.609065,0.890223,-0.764284,-0.666418,0.970764,-0.345778,-0.11579
0.608976,0.889982,-0.764264,-0.666253,0.970536,-0.346006,-0.11573
0.608774,0.88934,-0.764156,-0.665836,0.970072,-0.346664,-0.115689
0.60868,0.889124,-0.764103,-0.665702,0.969925,-0.346862,-0.115738
0.608412,0.888693,-0.763939,-0.665447,0.969664,-0.347168,-0.116127
0.608243,0.888472,-0.763818,-0.665334,0.969576,-0.347301,-0.116445
0.608011,0.888206,-0.76364,-0.665228,0.969511,-0.347474,-0.116763
0.607819,0.888049,-0.763495,-0.665196,0.969496,-0.347606,-0.116846
0.607483,0.887842,-0.763227,-0.665216,0.96955,-0.347808,-0.116843
0.607382,0.88779,-0.763131,-0.665281,0.969632,-0.347885,-0.116838
0.607173,0.887331,-0.762813,-0.665186,0.969826,-0.348176,-0.117007
0.60714,0.88713,-0.762682,-0.665162,0.969976,-0.348319,-0.117127
0.607074,0.886567,-0.76237,-0.665094,0.970334,-0.348643,-0.117375
0.607025,0.88633,-0.76227,-0.665066,0.970418,-0.348724,-0.117391
0.606788,0.88566,-0.762086,-0.664979,0.97039,-0.348775,-0.117146
0.606635,0.88524,-0.762007,-0.664928,0.970316,-0.348747,-0.116904
0.606522,0.884726,-0.761926,-0.66488,0.970297,-0.348689,-0.116619
0.606531,0.884404,-0.761887,-0.66487,0.970379,-0.348615,-0.116475
0.606666,0.883929,-0.761862,-0.664885,0.970614,-0.348444,-0.116275
0.606753,0.883734,-0.761852,-0.664881,0.970734,-0.348404,-0.1162
0.607046,0.883203,-0.761818,-0.664841,0.971083,-0.348476,-0.115967
0.607193,0.882966,-0.761805,-0.664804,0.97123,-0.34857,-0.115852
0.607654,0.882424,-0.761762,-0.664747,0.971745,-0.348826,-0.115637
0.607882,0.882263,-0.761734,-0.664767,0.972055,-0.34889,-0.115624
0.608582,0.882046,-0.761619,-0.664969,0.973194,-0.348879,-0.115903
0.609073,0.881986,-0.76154,-0.665143,0.974017,-0.348846,-0.116152
0.609747,0.881861,-0.761455,-0.665325,0.975043,-0.348928,-0.116334
0.610276,0.881681,-0.761412,-0.665391,0.975721,-0.349167,-0.116237
0.611204,0.881319,-0.761366,-0.665436,0.976783,-0.349751,-0.115859
0.611538,0.88118,-0.761353,-0.665434,0.977143,-0.349966,-0.115752
0.612251,0.881042,-0.761359,-0.665448,0.977894,-0.350293,-0.115863
0.612483,0.881048,-0.761373,-0.665448,0.978122,-0.350357,-0.116049
0.613029,0.88108,-0.761434,-0.665434,0.978605,-0.350485,-0.116482
0.613266,0.881056,-0.761469,-0.665426,0.978795,-0.350561,-0.11652
0.613928,0.880875,-0.761591,-0.665411,0.979277,-0.35081,-0.11614
0.614338,0.880734,-0.761683,-0.665397,0.979542,-0.350981,-0.115769
0.614835,0.880535,-0.761809,-0.665333,0.9798,-0.35122,-0.115386
0.615167,0.880377,-0.761906,-0.665233,0.979904,-0.351413,-0.11526
0.615661,0.88009,-0.762077,-0.664999,0.979946,-0.351755,-0.115184
0.615805,0.879962,-0.762135,-0.664883,0.979907,-0.351879,-0.115175
0.616034,0.879724,-0.762269,-0.664646,0.979726,-0.352122,-0.115164
0.616045,0.879637,-0.762317,-0.66455,0.979582,-0.352173,-0.115183
0.616103,0.879461,-0.762418,-0.664313,0.979268,-0.352399,-0.115214
0.616214,0.879417,-0.762452,-0.664224,0.979238,-0.352599,-0.115194
0.616775,0.879377,-0.762502,-0.664026,0.979495,-0.35345,-0.114994
0.617212,0.879394,-0.762522,-0.663914,0.979758,-0.354097,-0.114843
0.617776,0.879444,-0.762563,-0.663738,0.980047,-0.354962,-0.114733
0.618148,0.879519,-0.762617,-0.663578,0.980155,-0.355555,-0.114772
0.618754,0.879696,-0.762728,-0.663278,0.98026,-0.356556,-0.114965
0.618996,0.879736,-0.762762,-0.663133,0.980298,-0.356988,-0.115048
0.619709,0.879747,-0.762816,-0.662759,0.980518,-0.358288,-0.115161
0.620032,0.879712,-0.762827,-0.662589,0.980637,-0.358894,-0.115176
0.620804,0.879597,-0.762826,-0.662165,0.980943,-0.360407,-0.115263
0.621055,0.87956,-0.762813,-0.662013,0.981049,-0.36094,-0.115358
0.621469,0.879459,-0.762736,-0.661654,0.981204,-0.362031,-0.115781
0.621658,0.879413,-0.762672,-0.661465,0.981294,-0.362612,-0.11611
0.621945,0.879381,-0.762568,-0.661245,0.981503,-0.363401,-0.116571
0.622219,0.879392,-0.762466,-0.661104,0.981772,-0.364048,-0.116947
0.622717,0.879452,-0.762265,-0.660912,0.982348,-0.365147,-0.117626
0.622906,0.87946,-0.762185,-0.660838,0.982577,-0.365544,-0.117874
0.62339,0.879489,-0.762048,-0.660712,0.983116,-0.36639,-0.118292
0.623585,0.879499,-0.762007,-0.66068,0.98333,-0.366681,-0.118392
0.624054,0.879521,-0.761948,-0.660638,0.983857,-0.367269,-0.118608
0.624225,0.879484,-0.761925,-0.660593,0.984018,-0.367474,-0.118719
0.6246,0.879327,-0.761891,-0.660484,0.984361,-0.367802,-0.119038
0.624806,0.879213,-0.761891,-0.660425,0.984532,-0.367913,-0.119255
0.625023,0.879054,-0.76191,-0.660327,0.984664,-0.367973,-0.119632
0.625096,0.878922,-0.761939,-0.660217,0.984628,-0.367938,-0.120034
0.625119,0.878682,-0.762015,-0.659999,0.984412,-0.367744,-0.120841
0.625154,0.878591,-0.76205,-0.659923,0.984356,-0.367646,-0.12114
0.625498,0.878469,-0.762156,-0.659872,0.984562,-0.367422,-0.121685
0.625706,0.878451,-0.762203,-0.659893,0.984746,-0.36732,-0.121855
0.626345,0.878433,-0.762348,-0.659985,0.985312,-0.367082,-0.12214
0.626635,0.878424,-0.762425,-0.660016,0.985538,-0.367014,-0.122186
0.627457,0.878382,-0.76267,-0.660079,0.986094,-0.366894,-0.122007
0.628022,0.878368,-0.762845,-0.660124,0.986459,-0.366861,-0.121805
0.6288,0.878344,-0.763074,-0.660149,0.986946,-0.366871,-0.121664
0.629405,0.878309,-0.763244,-0.660115,0.987291,-0.366942,-0.121732
0.630464,0.878237,-0.76353,-0.660002,0.987864,-0.367148,-0.122012
0.630832,0.87817,-0.763614,-0.65993,0.98807,-0.367205,-0.12214
0.631778,0.878196,-0.763781,-0.659977,0.988849,-0.367289,-0.122407
0.63214,0.878243,-0.76382,-0.660045,0.98923,-0.367289,-0.122519
0.632988,0.878345,-0.763895,-0.66022,0.990158,-0.367302,-0.122754
0.633296,0.878345,-0.76393,-0.660255,0.990456,-0.367343,-0.122806
0.633983,0.878217,-0.764018,-0.66024,0.991015,-0.367565,-0.12277
0.634332,0.878096,-0.764087,-0.660198,0.991267,-0.367719,-0.122688
0.634759,0.877899,-0.764165,-0.660095,0.99146,-0.367939,-0.122663
0.634964,0.877689,-0.764257,-0.659958,0.991424,-0.368012,-0.122706
0.635173,0.877258,-0.764436,-0.659647,0.991129,-0.368078,-0.122851
0.635297,0.877166,-0.764504,-0.659579,0.991091,-0.368155,-0.122943
0.63551,0.876868,-0.764513,-0.659265,0.991036,-0.36851,-0.123338
0.63562,0.876831,-0.764496,-0.659173,0.991085,-0.368728,-0.123563
0.635984,0.876788,-0.764383,-0.659009,0.991449,-0.369388,-0.124133
0.636198,0.876769,-0.764309,-0.658991,0.991746,-0.369686,-0.124307
0.637044,0.876732,-0.763987,-0.659152,0.993169,-0.370592,-0.124545
0.637632,0.876718,-0.763752,-0.659307,0.994211,-0.37119,-0.124635
0.638227,0.876665,-0.763505,-0.659406,0.995224,-0.37189,-0.124819
0.638436,0.876593,-0.763411,-0.659328,0.995487,-0.372304,-0.12506
0.638532,0.876431,-0.763343,-0.659047,0.99542,-0.372873,-0.125551
0.638532,0.876342,-0.763317,-0.658938,0.995357,-0.373054,-0.125733
0.638567,0.876079,-0.763187,-0.658795,0.995457,-0.373413,-0.12602
0.638568,0.875956,-0.763113,-0.65878,0.995557,-0.373503,-0.126088
0.638533,0.875591,-0.762955,-0.658716,0.995713,-0.373685,-0.1262
0.638506,0.875417,-0.762926,-0.658638,0.995665,-0.37377,-0.126239
0.638412,0.874891,-0.762952,-0.658282,0.995233,-0.37404,-0.126313
0.638331,0.874534,-0.763011,-0.658005,0.994832,-0.374203,-0.126339
0.638181,0.87404,-0.763113,-0.657618,0.994209,-0.374369,-0.126364
0.638035,0.873648,-0.7632,-0.657305,0.993675,-0.374466,-0.126405
0.637732,0.872958,-0.763382,-0.65674,0.992641,-0.37457,-0.126471
0.637581,0.872694,-0.763465,-0.656525,0.992201,-0.374551,-0.126453
0.637099,0.872157,-0.76373,-0.656128,0.991035,-0.374204,-0.126149
0.636845,0.871979,-0.763867,-0.65601,0.990503,-0.373927,-0.125921
0.636268,0.871572,-0.764172,-0.65576,0.989317,-0.373284,-0.125354
0.636131,0.871408,-0.76424,-0.655663,0.989009,-0.373182,-0.125216
0.636088,0.870949,-0.764234,-0.655425,0.988775,-0.373426,-0.125091
0.636174,0.870688,-0.764166,-0.655296,0.98884,-0.373747,-0.125117
0.636288,0.870445,-0.764077,-0.655149,0.988944,-0.374143,-0.12527
0.636331,0.870387,-0.764034,-0.655057,0.988965,-0.374344,-0.125514
0.636411,0.870443,-0.763958,-0.654936,0.989042,-0.37465,-0.126111
0.636464,0.870469,-0.763916,-0.654899,0.98912,-0.374791,-0.126344
0.636735,0.870483,-0.763758,-0.654869,0.989566,-0.375275,-0.126741
0.636897,0.870491,-0.763675,-0.654887,0.989847,-0.375514,-0.126847
0.637311,0.87044,-0.763452,-0.654916,0.99057,-0.376139,-0.127101
0.637441,0.870359,-0.763369,-0.65489,0.990789,-0.376373,-0.127235
0.637688,0.869957,-0.763155,-0.654714,0.991188,-0.376988,-0.127667
0.637798,0.869638,-0.763034,-0.654566,0.99135,-0.377335,-0.127957
0.637874,0.869207,-0.762924,-0.654364,0.991432,-0.377626,-0.128346
0.637828,0.86888,-0.762903,-0.654199,0.991309,-0.377635,-0.128661
0.637631,0.868308,-0.762945,-0.653904,0.990882,-0.377399,-0.129207
0.637582,0.868098,-0.762962,-0.653807,0.99076,-0.377294,-0.129384
0.637757,0.867728,-0.762949,-0.653747,0.990945,-0.37722,-0.129569
0.637921,0.867624,-0.762924,-0.653785,0.991183,-0.37724,-0.12955
0.638392,0.867436,-0.762888,-0.653918,0.991829,-0.377255,-0.12945
0.638549,0.867378,-0.762907,-0.653953,0.991999,-0.377199,-0.129447
0.638867,0.867323,-0.763066,-0.65398,0.99215,-0.376856,-0.129589
0.639038,0.867322,-0.763202,-0.653988,0.992161,-0.376579,-0.129696
0.63923,0.867251,-0.763364,-0.654,0.992168,-0.376218,-0.129747
0.639313,0.867088,-0.76346,-0.65401,0.992155,-0.375946,-0.129639
0.639386,0.866715,-0.763602,-0.654026,0.992095,-0.375478,-0.129318
0.639475,0.866599,-0.76365,-0.654035,0.992139,-0.375367,-0.129234
0.639812,0.86645,-0.763694,-0.654054,0.992459,-0.375242,-0.12935
0.640053,0.86647,-0.763688,-0.654074,0.992722,-0.375316,-0.129528
0.640663,0.866549,-0.763681,-0.654133,0.99338,-0.375504,-0.129949
0.640843,0.86655,-0.763706,-0.654158,0.993547,-0.375492,-0.13
0.641063,0.866388,-0.763855,-0.654157,0.993593,-0.375182,-0.129704
0.641181,0.866373,-0.763995,-0.65427,0.99361,-0.374893,-0.129395
0.641273,0.866264,-0.764129,-0.654322,0.993581,-0.374552,-0.129112
0.641338,0.866177,-0.764186,-0.654336,0.993597,-0.37438,-0.12907
0.641406,0.866021,-0.764238,-0.654339,0.993631,-0.374136,-0.12915
0.641438,0.865972,-0.764249,-0.654352,0.993676,-0.374036,-0.129207
0.641397,0.865944,-0.764254,-0.654528,0.993839,-0.373484,-0.129305
0.641381,0.865975,-0.764246,-0.654644,0.993961,-0.373214,-0.129361
0.641281,0.866049,-0.76422,-0.654956,0.994239,-0.37246,-0.129471
0.641205,0.866043,-0.764217,-0.655061,0.99429,-0.372152,-0.129477
0.640902,0.865912,-0.76422,-0.655273,0.994253,-0.371348,-0.129362
0.64067,0.865797,-0.764231,-0.655386,0.99416,-0.370843,-0.129247
0.640345,0.865643,-0.764266,-0.655506,0.993964,-0.370171,-0.129105
0.640093,0.865536,-0.764322,-0.655563,0.993735,-0.369667,-0.12902
0.63964,0.865352,-0.76445,-0.655611,0.993235,-0.368821,-0.128886
0.639451,0.865266,-0.764488,-0.655626,0.993045,-0.368492,-0.128838
0.63897,0.865033,-0.764521,-0.655704,0.992716,-0.367723,-0.12872
0.638822,0.86497,-0.764507,-0.655782,0.992649,-0.367442,-0.128676
0.63838,0.864757,-0.764446,-0.655932,0.992508,-0.366779,-0.128582
0.638209,0.864687,-0.764409,-0.655994,0.992474,-0.366551,-0.128557
0.637836,0.864567,-0.764259,-0.656166,0.992522,-0.36613,-0.128544
0.637617,0.864515,-0.76415,-0.656275,0.992582,-0.365927,-0.128554
0.637254,0.864425,-0.764028,-0.656396,0.992544,-0.365598,-0.128558
0.636884,0.864325,-0.763969,-0.656451,0.992351,-0.365265,-0.12855
0.636161,0.864131,-0.763902,-0.656506,0.991857,-0.364631,-0.128529
0.635874,0.864046,-0.763871,-0.656522,0.991665,-0.36438,-0.128517
0.635265,0.863883,-0.763765,-0.656632,0.991378,-0.363817,-0.12848
0.635036,0.86383,-0.763712,-0.656693,0.991307,-0.363598,-0.128461
0.634515,0.863654,-0.763584,-0.656808,0.991177,-0.3631,-0.128409
0.634431,0.863609,-0.76354,-0.656878,0.991191,-0.362991,-0.128384
0.634363,0.863328,-0.76345,-0.656897,0.991302,-0.36291,-0.128324
0.634462,0.86324,-0.763432,-0.656976,0.991483,-0.362935,-0.128283
0.634352,0.862945,-0.763389,-0.656898,0.991419,-0.362794,-0.128212
0.634164,0.862873,-0.763415,-0.656927,0.991256,-0.362485,-0.128157
0.633712,0.862826,-0.76351,-0.656998,0.990804,-0.361756,-0.128049
0.633533,0.862789,-0.763544,-0.657028,0.990635,-0.361465,-0.127979
0.633222,0.862572,-0.763564,-0.657131,0.99045,-0.360903,-0.127661
0.63314,0.862447,-0.763551,-0.65719,0.990461,-0.360719,-0.127471
0.632919,0.862086,-0.763522,-0.657297,0.990433,-0.360286,-0.127009
0.632787,0.861935,-0.763531,-0.657297,0.990316,-0.360104,-0.126885
0.632289,0.861504,-0.763629,-0.657129,0.98962,-0.359612,-0.126772
0.631945,0.861233,-0.763709,-0.656979,0.989089,-0.359316,-0.12677
0.631548,0.860913,-0.763786,-0.656832,0.988522,-0.358951,-0.126755
0.63132,0.86072,-0.763799,-0.656801,0.988294,-0.358686,-0.126724
0.631012,0.86045,-0.763779,-0.656819,0.988097,-0.358275,-0.126669
0.631005,0.860409,-0.763794,-0.656863,0.988104,-0.358224,-0.126634
0.630777,0.860135,-0.763811,-0.656734,0.987785,-0.358083,-0.126439
0.630765,0.860057,-0.76384,-0.656676,0.987677,-0.358143,-0.126317
0.630757,0.859896,-0.763923,-0.656514,0.987391,-0.35834,-0.126038
0.63073,0.859849,-0.763954,-0.656453,0.987266,-0.358384,-0.125983
0.630629,0.859829,-0.764032,-0.656338,0.986958,-0.35838,-0.126003
0.630544,0.859837,-0.764078,-0.656267,0.986753,-0.358352,-0.126082
0.630359,0.859765,-0.764127,-0.656124,0.986393,-0.358328,-0.126234
0.630129,0.85961,-0.764156,-0.655952,0.985996,-0.358319,-0.126392
0.629633,0.85924,-0.764191,-0.655594,0.985197,-0.358313,-0.126733
0.629445,0.859076,-0.764191,-0.655453,0.98491,-0.358336,-0.126865
0.629106,0.858658,-0.764135,-0.655171,0.984443,-0.358502,-0.12707
0.629004,0.858471,-0.764093,-0.655074,0.984325,-0.358608,-0.1271
0.62881,0.858033,-0.763953,-0.654859,0.984164,-0.35893,-0.127252
0.628757,0.857902,-0.763884,-0.654783,0.984147,-0.359069,-0.127411
0.628715,0.857727,-0.763661,-0.654618,0.984289,-0.359483,-0.1282
0.628729,0.857673,-0.763508,-0.654537,0.984452,-0.359751,-0.128783
0.628726,0.857569,-0.763325,-0.654445,0.984635,-0.360052,-0.12941
0.628686,0.857425,-0.763208,-0.65439,0.984722,-0.360212,-0.129664
0.628592,0.857139,-0.763035,-0.654322,0.984834,-0.360405,-0.129887
0.628569,0.857081,-0.762988,-0.654341,0.984893,-0.360443,-0.129969
0.628516,0.856934,-0.762902,-0.654204,0.984872,-0.360564,-0.130372
0.628503,0.856934,-0.762898,-0.65416,0.984833,-0.360577,-0.130578
0.62854,0.856987,-0.762896,-0.654072,0.984808,-0.360626,-0.131089
0.628606,0.857011,-0.762879,-0.654062,0.984887,-0.360681,-0.131254
0.628939,0.857072,-0.762784,-0.654102,0.985355,-0.360964,-0.13153
0.629208,0.857126,-0.762712,-0.65416,0.985748,-0.361171,-0.131656
0.629575,0.857238,-0.762619,-0.654269,0.986308,-0.361382,-0.131856
0.629831,0.857369,-0.762552,-0.654381,0.986735,-0.361456,-0.132062
0.630272,0.857649,-0.762441,-0.654616,0.98751,-0.361496,-0.13245
0.630469,0.857761,-0.762402,-0.654718,0.987841,-0.361498,-0.1326
0.63104,0.857988,-0.762329,-0.654962,0.988701,-0.361509,-0.132909
0.631295,0.858064,-0.762309,-0.65506,0.989059,-0.361505,-0.133013
0.631992,0.858258,-0.762267,-0.65532,0.990014,-0.361496,-0.13326
0.632296,0.858349,-0.762247,-0.655433,0.99043,-0.361502,-0.133365
0.633098,0.858588,-0.762181,-0.655735,0.991553,-0.361532,-0.133658
0.633625,0.858753,-0.762142,-0.655931,0.992281,-0.361564,-0.133835
0.634403,0.859038,-0.762103,-0.656214,0.993312,-0.361638,-0.134047
0.635083,0.859339,-0.762082,-0.656452,0.994178,-0.361753,-0.134206
0.636341,0.859943,-0.762062,-0.656883,0.995732,-0.362005,-0.134452
0.63682,0.860164,-0.762068,-0.657045,0.996309,-0.362066,-0.134512
0.637852,0.860575,-0.762171,-0.657421,0.997463,-0.362007,-0.134396
0.638213,0.860689,-0.762246,-0.657557,0.997821,-0.361906,-0.134246
0.639064,0.860962,-0.762439,-0.657898,0.998662,-0.361597,-0.133867
0.639404,0.861103,-0.762493,-0.658045,0.99904,-0.361491,-0.133801
0.640164,0.861552,-0.76257,-0.658437,1.00002,-0.361139,-0.133922
0.640624,0.861858,-0.762594,-0.65869,1.000658,-0.360954,-0.134081
0.641374,0.862229,-0.762583,-0.658997,1.001649,-0.360971,-0.134261
0.642127,0.862437,-0.762521,-0.659186,1.002589,-0.361336,-0.13435
0.643587,0.862727,-0.76235,-0.659457,1.00438,-0.362343,-0.134473
0.644136,0.862857,-0.762291,-0.659565,1.005055,-0.362708,-0.134511
0.645206,0.863379,-0.762268,-0.659915,1.006361,-0.363119,-0.134492
0.645535,0.863659,-0.762299,-0.66008,1.006758,-0.363124,-0.134442
0.646306,0.864332,-0.762382,-0.660478,1.007686,-0.3631,-0.134319
0.646652,0.864524,-0.762387,-0.660607,1.008106,-0.363184,-0.134305
0.647669,0.864776,-0.762298,-0.660848,1.009387,-0.363712,-0.134424
0.648302,0.864839,-0.76222,-0.660957,1.010181,-0.364116,-0.134527
0.649049,0.86488,-0.762155,-0.661061,1.01106,-0.364587,-0.134592
0.64949,0.864877,-0.762155,-0.661106,1.01151,-0.364834,-0.134535
0.650092,0.864796,-0.762205,-0.66112,1.012014,-0.36516,-0.134335
0.650311,0.864757,-0.76223,-0.661107,1.012172,-0.365292,-0.134275
0.650927,0.864771,-0.762288,-0.661065,1.012619,-0.365727,-0.13428
0.651192,0.864814,-0.76231,-0.661043,1.012808,-0.365933,-0.134344
0.651774,0.864866,-0.762387,-0.660931,1.013128,-0.366444,-0.134478
0.651935,0.864818,-0.762432,-0.660851,1.013139,-0.366623,-0.134464
0.652097,0.864466,-0.762596,-0.660551,1.01279,-0.366928,-0.134174
0.652104,0.864174,-0.762714,-0.660321,1.012425,-0.367094,-0.133929
0.652122,0.863788,-0.76286,-0.659959,1.011905,-0.367445,-0.133698
0.652192,0.863499,-0.762947,-0.659621,1.01153,-0.367917,-0.133663
0.652318,0.862999,-0.763075,-0.658963,1.010842,-0.368908,-0.133733
0.652316,0.862823,-0.76313,-0.658703,1.010523,-0.369237,-0.133757
0.652102,0.862604,-0.763342,-0.65823,1.009581,-0.369556,-0.133728
0.651927,0.862594,-0.763458,-0.658087,1.009125,-0.369497,-0.133696
0.651451,0.862588,-0.763712,-0.657769,1.008028,-0.369338,-0.133582
0.651302,0.862536,-0.763762,-0.657638,1.007691,-0.369415,-0.133522
0.651066,0.862242,-0.763736,-0.657307,1.007162,-0.370036,-0.133239
0.650959,0.862019,-0.763656,-0.657112,1.006963,-0.370556,-0.13306
0.650785,0.861751,-0.763519,-0.656843,1.006705,-0.371263,-0.133
0.650575,0.861576,-0.763412,-0.65661,1.006421,-0.371753,-0.133147
0.65017,0.861311,-0.76319,-0.6562,1.005943,-0.3726,-0.133631
0.650036,0.861214,-0.763063,-0.656046,1.005848,-0.372966,-0.133887
0.650046,0.861138,-0.762622,-0.655857,1.006248,-0.374108,-0.134689
0.650157,0.861153,-0.76239,-0.655828,1.006623,-0.374661,-0.13511
0.65051,0.861257,-0.76178,-0.655864,1.007766,-0.375982,-0.136122
0.650623,0.861312,-0.761563,-0.655921,1.008201,-0.376385,-0.136409
0.65079,0.861454,-0.761075,-0.656189,1.009232,-0.377012,-0.136726
0.650891,0.861584,-0.760812,-0.656427,1.009879,-0.377248,-0.136787
0.651045,0.861776,-0.760493,-0.656748,1.010726,-0.377467,-0.136936
0.651186,0.861952,-0.76027,-0.656989,1.011372,-0.377578,-0.137173
0.651447,0.862284,-0.759938,-0.657409,1.012446,-0.377619,-0.137651
0.651541,0.862385,-0.759836,-0.657556,1.012816,-0.377572,-0.137825
0.651745,0.862515,-0.759712,-0.657823,1.01345,-0.377319,-0.138168
0.651792,0.862512,-0.759713,-0.657886,1.013573,-0.377138,-0.138288
0.652018,0.862496,-0.759767,-0.658048,1.013912,-0.376666,-0.138475
0.652218,0.862527,-0.759787,-0.658153,1.01418,-0.376533,-0.138474
0.653094,0.862676,-0.759866,-0.658527,1.015239,-0.376373,-0.138082
0.653758,0.86281,-0.75992,-0.658799,1.016027,-0.376333,-0.137762
0.654593,0.863069,-0.759936,-0.659178,1.01713,-0.376268,-0.137621
0.655152,0.86338,-0.759878,-0.659477,1.01801,-0.376203,-0.137925
0.656044,0.864031,-0.759701,-0.660007,1.019587,-0.376091,-0.138848
0.656349,0.864242,-0.759623,-0.660201,1.020173,-0.376026,-0.139179
0.656944,0.86445,-0.759489,-0.660642,1.021348,-0.375795,-0.139386
0.657106,0.86441,-0.759451,-0.660792,1.021704,-0.375673,-0.139264
0.657466,0.864296,-0.759332,-0.661177,1.022596,-0.37535,-0.138981
0.657638,0.864336,-0.759254,-0.661359,1.023045,-0.37523,-0.139043
0.658183,0.864755,-0.758945,-0.661928,1.02455,-0.374946,-0.139872
0.658545,0.865095,-0.758743,-0.662301,1.025566,-0.374799,-0.140548
0.6589,0.865408,-0.758481,-0.66273,1.026655,-0.374581,-0.141165
0.659061,0.86545,-0.758349,-0.662966,1.02722,-0.374449,-0.141249
0.659206,0.865341,-0.758185,-0.663268,1.027882,-0.374255,-0.141023
0.659208,0.865238,-0.758105,-0.663279,1.028048,-0.374167,-0.140956
0.659652,0.865726,-0.758042,-0.663771,1.028975,-0.373945,-0.141164
0.659865,0.866014,-0.758018,-0.66395,1.029372,-0.373845,-0.141389
0.660411,0.866764,-0.758001,-0.664377,1.030293,-0.373604,-0.14188
0.660592,0.866981,-0.758014,-0.664515,1.030566,-0.373522,-0.14192
0.660938,0.867251,-0.758107,-0.664787,1.030992,-0.373335,-0.141413
0.661109,0.867334,-0.758195,-0.664906,1.031125,-0.373245,-0.140943
0.661324,0.86748,-0.758329,-0.664984,1.031194,-0.373186,-0.140552
0.661487,0.867672,-0.758443,-0.664957,1.031151,-0.373213,-0.140606
0.661738,0.86804,-0.758663,-0.664789,1.030909,-0.373349,-0.141018
0.661793,0.868156,-0.758746,-0.664718,1.030777,-0.373368,-0.141164
0.661994,0.868267,-0.758945,-0.664573,1.030544,-0.37346,-0.141155
0.662062,0.868263,-0.759014,-0.664542,1.030482,-0.373459,-0.14105
0.662122,0.868141,-0.7592,-0.664392,1.030138,-0.37347,-0.140716
0.662064,0.868049,-0.759289,-0.66426,1.029834,-0.373502,-0.140603
0.661695,0.867669,-0.759559,-0.663689,1.028574,-0.373743,-0.140378
0.661359,0.867373,-0.75974,-0.663258,1.027599,-0.373911,-0.14025
0.660804,0.866975,-0.759992,-0.662702,1.026209,-0.373981,-0.140069
0.660296,0.866705,-0.760205,-0.662331,1.025099,-0.373812,-0.139913
0.659283,0.866248,-0.760585,-0.661726,1.023081,-0.373298,-0.139635
0.658856,0.866044,-0.760713,-0.661486,1.022292,-0.373122,-0.139532
0.657782,0.865376,-0.760868,-0.660848,1.0205,-0.373042,-0.139339
0.65733,0.865049,-0.760869,-0.660584,1.019838,-0.373113,-0.139287
0.656224,0.864229,-0.760848,-0.659914,1.018217,-0.373401,-0.13915
0.655821,0.863948,-0.760872,-0.659643,1.017553,-0.37352,-0.139069
0.654968,0.863385,-0.761003,-0.658934,1.015909,-0.373932,-0.138883
0.654497,0.863096,-0.761116,-0.658506,1.014903,-0.374196,-0.138728
0.653795,0.862717,-0.761326,-0.65796,1.013435,-0.374371,-0.138342
0.653123,0.862423,-0.761565,-0.657577,1.012114,-0.374229,-0.137803
0.65188,0.861947,-0.762063,-0.656972,1.009695,-0.373713,-0.136622
0.651445,0.861775,-0.762243,-0.656745,1.00883,-0.373561,-0.136201
0.650756,0.861366,-0.762492,-0.656182,1.007307,-0.373765,-0.135626
0.650606,0.86121,-0.762524,-0.655962,1.00691,-0.374023,-0.135559
0.650408,0.860877,-0.762578,-0.655441,1.006133,-0.374822,-0.13543
0.650363,0.860778,-0.762633,-0.655248,1.005816,-0.37512,-0.135282
0.650399,0.860622,-0.76286,-0.654795,1.005052,-0.375868,-0.134622
0.650493,0.86058,-0.763028,-0.654549,1.004631,-0.376322,-0.134132
0.65057,0.860573,-0.763271,-0.65425,1.004028,-0.376815,-0.133471
0.650535,0.860639,-0.763487,-0.654064,1.00348,-0.377011,-0.13295
0.65041,0.860837,-0.763887,-0.653802,1.002494,-0.37716,-0.132037
0.650369,0.860875,-0.764018,-0.653676,1.002137,-0.377256,-0.131726
0.650477,0.860746,-0.764173,-0.653295,1.00162,-0.377962,-0.131317
0.65059,0.860611,-0.764167,-0.653114,1.00155,-0.378404,-0.131288
0.650858,0.860231,-0.764144,-0.652643,1.001364,-0.3795,-0.131272
0.650899,0.860113,-0.764183,-0.652465,1.001172,-0.379803,-0.131201
0.650805,0.859951,-0.764448,-0.652041,1.000341,-0.380157,-0.130838
0.650693,0.859855,-0.764641,-0.65178,0.999692,-0.380248,-0.130559
0.650454,0.859702,-0.764887,-0.651475,0.998848,-0.380261,-0.130174
0.650199,0.859526,-0.76504,-0.65128,0.998227,-0.380191,-0.129827
0.649656,0.85917,-0.765273,-0.650997,0.997162,-0.379924,-0.129191
0.649434,0.859021,-0.76535,-0.650881,0.996757,-0.379819,-0.129014
0.648964,0.858667,-0.765471,-0.650536,0.995882,-0.379718,-0.12905
0.648794,0.858525,-0.765489,-0.650385,0.995584,-0.379714,-0.129242
0.648383,0.858167,-0.765521,-0.649984,0.99485,-0.379764,-0.129798
0.648219,0.85802,-0.765549,-0.649815,0.994522,-0.379806,-0.129933
0.647782,0.857591,-0.765664,-0.649332,0.993553,-0.379994,-0.130008
0.647528,0.857335,-0.765747,-0.649033,0.992946,-0.380141,-0.129978
0.647255,0.857103,-0.76586,-0.648693,0.992239,-0.380314,-0.129951
0.647101,0.857039,-0.765957,-0.648494,0.991783,-0.380393,-0.129951
0.646929,0.857078,-0.766132,-0.648235,0.991138,-0.380491,-0.129953
0.646924,0.857178,-0.766195,-0.648222,0.99101,-0.380538,-0.129966
0.647055,0.857381,-0.766191,-0.648127,0.991025,-0.380858,-0.130091
0.647207,0.857541,-0.766157,-0.648171,0.991227,-0.381035,-0.130158
0.647593,0.857948,-0.766029,-0.648305,0.991818,-0.381497,-0.130406
0.647674,0.858063,-0.765978,-0.648326,0.991965,-0.381649,-0.130551
0.64762,0.858178,-0.765892,-0.648212,0.991917,-0.381963,-0.131011
0.647514,0.858201,-0.765825,-0.648124,0.991832,-0.382116,-0.13136
0.647425,0.858277,-0.765637,-0.648144,0.992033,-0.382252,-0.131945
0.647416,0.858399,-0.765392,-0.648322,0.992531,-0.382267,-0.132489
0.647448,0.858666,-0.76486,-0.648813,0.993792,-0.382174,-0.133565
0.647488,0.85875,-0.764609,-0.649015,0.994374,-0.382154,-0.134038
0.647782,0.858956,-0.763937,-0.649542,0.996075,-0.382305,-0.13534
0.647972,0.859024,-0.763629,-0.649761,0.996881,-0.382451,-0.135923
0.648456,0.859192,-0.762869,-0.650347,0.998941,-0.382695,-0.1374
0.648604,0.859275,-0.762606,-0.650598,0.999688,-0.382648,-0.137953
0.648856,0.859506,-0.76205,-0.651252,1.001358,-0.38217,-0.139328
0.64896,0.859665,-0.761766,-0.651675,1.002285,-0.381694,-0.140105
0.64905,0.859926,-0.761457,-0.652305,1.003441,-0.380836,-0.140929
0.649025,0.860163,-0.761298,-0.65283,1.004176,-0.379936,-0.141295
0.648903,0.860633,-0.761142,-0.653806,1.005265,-0.378101,-0.141604
0.6489,0.860832,-0.76108,-0.654214,1.005759,-0.377371,-0.141708
0.649224,0.861343,-0.760827,-0.655283,1.007475,-0.375844,-0.142134
0.649469,0.861561,-0.760692,-0.655748,1.008347,-0.375307,-0.142345
0.650128,0.862096,-0.760388,-0.656848,1.010469,-0.374016,-0.142814
0.650349,0.862303,-0.760327,-0.657229,1.011138,-0.373492,-0.142937
0.650778,0.862802,-0.760373,-0.657974,1.01223,-0.372191,-0.143057
0.651001,0.863092,-0.760471,-0.658351,1.012686,-0.371411,-0.143047
0.651278,0.863461,-0.760589,-0.658884,1.013323,-0.370324,-0.142986
0.651467,0.863721,-0.760657,-0.659349,1.013879,-0.369408,-0.142875
0.651747,0.864129,-0.760767,-0.660163,1.014813,-0.367793,-0.142598
0.651811,0.864238,-0.760774,-0.660417,1.015147,-0.367194,-0.142531
0.652117,0.864576,-0.760755,-0.661032,1.016096,-0.366129,-0.142651
0.652258,0.864696,-0.760721,-0.661232,1.016484,-0.365838,-0.142801
0.652581,0.864995,-0.76059,-0.661708,1.01746,-0.365237,-0.143234
0.652672,0.865125,-0.760523,-0.661917,1.017848,-0.364985,-0.14337
0.652791,0.865513,-0.760291,-0.662541,1.018899,-0.36426,-0.143592
0.652817,0.865755,-0.760131,-0.662927,1.019519,-0.363852,-0.143699
0.652795,0.865984,-0.759942,-0.663308,1.02013,-0.363459,-0.143859
0.652735,0.866045,-0.759835,-0.663433,1.020344,-0.363352,-0.143996
0.652552,0.866014,-0.759689,-0.663451,1.020395,-0.363398,-0.144238
0.652489,0.866027,-0.759646,-0.663478,1.020413,-0.363429,-0.144338
0.652115,0.865988,-0.759464,-0.6635,1.020367,-0.363232,-0.144722
0.651946,0.866003,-0.759392,-0.663541,1.02036,-0.363091,-0.144921
0.651492,0.866005,-0.759217,-0.663614,1.020271,-0.362787,-0.145356
0.65132,0.865972,-0.759156,-0.66361,1.020193,-0.362753,-0.14544
0.6509,0.865748,-0.759042,-0.663482,1.019817,-0.362954,-0.145271
0.650657,0.865576,-0.758985,-0.663368,1.019538,-0.363177,-0.145073
0.650355,0.865397,-0.75889,-0.663227,1.019232,-0.363459,-0.144992
