wangss533/urdfTest/left_arm_joints.csv
left_arm_joint1,left_arm_joint2,left_arm_joint3,left_arm_joint4,left_arm_joint5,left_arm_joint6,left_arm_joint7
0.291562,0.352685,-0.156756,-0.597861,0.376097,-0.032486,0.087467
0.291922,0.352242,-0.15654,-0.597529,0.375889,-0.033593,0.087756
0.29231,0.351715,-0.156285,-0.597126,0.375621,-0.034939,0.088002
0.292497,0.351399,-0.156146,-0.596865,0.375411,-0.035805,0.088022
0.292684,0.350966,-0.155968,-0.596486,0.375066,-0.037067,0.087856
0.292745,0.350793,-0.155883,-0.596352,0.374961,-0.037544,0.087774
0.29293,0.350296,-0.155548,-0.596076,0.374888,-0.038729,0.087629
0.293009,0.350085,-0.155373,-0.595997,0.374939,-0.039181,0.08757
0.293582,0.349365,-0.154794,-0.595622,0.374915,-0.041543,0.087458
0.293611,0.349131,-0.154642,-0.595506,0.374891,-0.041972,0.087437
0.295153,0.347453,-0.150714,-0.597534,0.371362,-0.041604,0.08735
0.295101,0.347031,-0.15055,-0.597228,0.371099,-0.042342,0.087445
0.29509,0.346576,-0.150385,-0.596906,0.370849,-0.043078,0.087407
0.295175,0.346387,-0.150326,-0.596793,0.370821,-0.043304,0.087153
0.295402,0.346236,-0.150315,-0.596734,0.370923,-0.043295,0.086486
0.295468,0.346156,-0.150307,-0.596698,0.370944,-0.043295,0.086234
0.295447,0.345723,-0.150203,-0.596439,0.370792,-0.043618,0.08588
0.295379,0.34548,-0.150136,-0.596287,0.370672,-0.043831,0.08582
0.295154,0.344824,-0.149965,-0.595866,0.370309,-0.044402,0.085697
0.295068,0.344579,-0.149913,-0.595703,0.37016,-0.044598,0.085606
0.295655,0.343503,-0.148217,-0.596342,0.368344,-0.044602,0.08514
0.295524,0.343154,-0.148181,-0.596094,0.368095,-0.044817,0.084889
0.29534,0.34277,-0.148166,-0.595799,0.367758,-0.045061,0.084561
0.29521,0.342576,-0.148191,-0.595618,0.367507,-0.045209,0.084295
0.294989,0.34237,-0.148284,-0.595366,0.367082,-0.045395,0.083838
0.294873,0.342296,-0.148321,-0.595272,0.366907,-0.04545,0.083712
0.294428,0.342052,-0.148381,-0.595028,0.366439,-0.045513,0.083706
0.294187,0.34194,-0.1484,-0.594929,0.366235,-0.045496,0.083818
0.293578,0.34169,-0.148432,-0.594706,0.365748,-0.045482,0.084175
0.293382,0.341624,-0.148438,-0.594636,0.365583,-0.045536,0.084283
0.2934,0.341379,-0.147777,-0.594948,0.364665,-0.045693,0.084421
0.293256,0.341392,-0.147767,-0.594902,0.364507,-0.045944,0.084508
0.293006,0.341393,-0.147723,-0.594848,0.364306,-0.046319,0.0846
0.292768,0.341374,-0.147648,-0.594825,0.364189,-0.046636,0.084632
0.29231,0.34133,-0.147472,-0.594807,0.364029,-0.047234,0.084641
0.292078,0.341293,-0.147409,-0.594778,0.363916,-0.047474,0.084662
0.291262,0.341086,-0.147331,-0.594554,0.363325,-0.048028,0.08486
0.290832,0.340949,-0.147324,-0.594401,0.362964,-0.048246,0.084996
0.289762,0.340648,-0.147326,-0.594039,0.362069,-0.048746,0.085316
0.289426,0.340602,-0.147324,-0.59396,0.361816,-0.048911,0.085383
0.289042,0.340716,-0.147142,-0.594103,0.361379,-0.049269,0.085237
0.288828,0.34091,-0.14715,-0.594206,0.361335,-0.049379,0.085098
0.288453,0.341024,-0.147121,-0.594245,0.361171,-0.049614,0.085165
0.288012,0.340895,-0.147044,-0.594121,0.360864,-0.049941,0.085603
0.287149,0.340473,-0.146853,-0.59377,0.360199,-0.050639,0.086722
0.286843,0.340323,-0.146782,-0.593649,0.359972,-0.050883,0.087084
0.28637,0.340223,-0.146684,-0.593582,0.359744,-0.051181,0.087215
0.286275,0.340272,-0.146667,-0.593634,0.359769,-0.0512,0.08701
0.286118,0.34041,-0.146651,-0.593781,0.359882,-0.051147,0.086382
0.286039,0.34041,-0.146648,-0.593794,0.359874,-0.051126,0.086245
0.28581,0.34021,-0.146649,-0.593642,0.359656,-0.051177,0.086252
0.28566,0.340049,-0.146663,-0.593525,0.359495,-0.051117,0.086346
0.285507,0.339864,-0.146672,-0.593398,0.359334,-0.051044,0.086468
0.285443,0.339768,-0.146663,-0.593344,0.35928,-0.051014,0.086529
0.285399,0.339641,-0.146633,-0.593286,0.359255,-0.050977,0.08664
0.285394,0.339601,-0.146624,-0.593274,0.359263,-0.05094,0.08669
0.285393,0.339537,-0.146621,-0.593277,0.359318,-0.050723,0.08685
0.285401,0.339526,-0.146627,-0.593293,0.359357,-0.050592,0.086935
0.285447,0.339519,-0.146644,-0.593353,0.35949,-0.05023,0.08711
0.285478,0.339521,-0.146649,-0.593381,0.359555,-0.050096,0.087132
0.285573,0.339534,-0.146659,-0.593484,0.359708,-0.049676,0.087022
0.285655,0.339549,-0.146671,-0.593539,0.359831,-0.049474,0.086902
0.28582,0.339583,-0.146638,-0.59364,0.36007,-0.049316,0.086752
0.286027,0.339619,-0.146555,-0.593748,0.360346,-0.049324,0.086656
0.286467,0.339699,-0.146344,-0.59397,0.360922,-0.049496,0.086498
0.286617,0.339735,-0.146257,-0.594059,0.36114,-0.049583,0.086448
0.286768,0.339831,-0.146087,-0.594241,0.361502,-0.049765,0.086417
0.286751,0.339872,-0.146036,-0.594298,0.361579,-0.049834,0.086451
0.286685,0.339985,-0.145876,-0.594469,0.361814,-0.050054,0.08648
0.286703,0.340036,-0.145774,-0.594571,0.361993,-0.050179,0.086407
0.286913,0.340221,-0.145381,-0.595008,0.362714,-0.05047,0.085888
0.287075,0.340335,-0.145117,-0.595282,0.363257,-0.050751,0.085491
0.287235,0.340408,-0.144728,-0.595595,0.363924,-0.051238,0.085086
0.287306,0.34036,-0.144395,-0.595754,0.364347,-0.051743,0.084976
0.287369,0.34016,-0.143772,-0.595943,0.364985,-0.052788,0.084971
0.28735,0.34008,-0.143528,-0.596014,0.365211,-0.053205,0.084949
0.287096,0.339999,-0.143037,-0.596231,0.365659,-0.053991,0.084663
0.286908,0.340008,-0.142892,-0.596326,0.365779,-0.054194,0.084486
0.286064,0.340247,-0.142617,-0.596861,0.366386,-0.053487,0.083813
0.285897,0.340193,-0.142356,-0.596969,0.366608,-0.053911,0.083567
0.28563,0.339891,-0.141372,-0.597313,0.367505,-0.055476,0.082854
0.285561,0.339594,-0.140625,-0.597483,0.368059,-0.056862,0.082388
0.285308,0.33923,-0.139753,-0.597641,0.368687,-0.058563,0.081733
0.285087,0.338889,-0.13913,-0.597602,0.368903,-0.060156,0.081218
0.284671,0.338221,-0.138099,-0.597341,0.368961,-0.06324,0.080321
0.284429,0.338002,-0.137755,-0.597248,0.368928,-0.064282,0.079991
0.283506,0.337777,-0.137263,-0.597198,0.368736,-0.065646,0.079345
0.283017,0.3378,-0.13721,-0.597219,0.368572,-0.065789,0.079147
0.281683,0.337946,-0.137142,-0.597392,0.368252,-0.065689,0.07871
0.281162,0.33798,-0.137042,-0.597523,0.36827,-0.065621,0.078529
0.279811,0.338036,-0.136722,-0.597984,0.368889,-0.065187,0.078222
0.27901,0.338051,-0.1364,-0.59841,0.369382,-0.064738,0.078019
0.278036,0.338026,-0.135877,-0.598891,0.36998,-0.06472,0.077469
0.27745,0.337966,-0.135385,-0.599146,0.370354,-0.065421,0.076696
0.276615,0.337799,-0.134418,-0.599464,0.370933,-0.067395,0.074994
0.276238,0.337704,-0.134026,-0.599555,0.371107,-0.068247,0.074323
0.274973,0.337343,-0.133133,-0.599654,0.371236,-0.070139,0.073037
0.274362,0.337135,-0.132792,-0.59962,0.371157,-0.07091,0.072638
0.272753,0.336663,-0.13196,-0.599586,0.370972,-0.072685,0.071636
0.272132,0.336567,-0.131635,-0.599672,0.371021,-0.073247,0.07115
0.270628,0.336658,-0.130979,-0.60011,0.371784,-0.074323,0.06952
0.269766,0.336797,-0.130502,-0.600568,0.372273,-0.074695,0.068465
0.268495,0.336983,-0.129955,-0.601087,0.372682,-0.075163,0.067411
0.267344,0.337098,-0.129689,-0.601295,0.372558,-0.075522,0.067124
0.265227,0.33731,-0.129397,-0.601508,0.371967,-0.076055,0.067166
0.264451,0.337396,-0.129223,-0.601652,0.371878,-0.076272,0.067116
0.263012,0.337625,-0.128409,-0.602432,0.372692,-0.076822,0.066238
0.262594,0.337733,-0.127971,-0.602886,0.373353,-0.077008,0.065656
0.261727,0.33793,-0.126683,-0.604117,0.375345,-0.07767,0.064069
0.261395,0.33794,-0.126109,-0.604567,0.37613,-0.078118,0.063507
0.260486,0.337883,-0.124775,-0.605466,0.378223,-0.079628,0.062451
0.260072,0.337696,-0.123723,-0.606046,0.379417,-0.08083,0.061844
0.259651,0.337238,-0.122076,-0.606732,0.381107,-0.083132,0.060779
0.259484,0.336692,-0.120587,-0.607192,0.382537,-0.085476,0.059737
0.259164,0.33568,-0.117908,-0.608043,0.385366,-0.089392,0.057593
0.259054,0.335175,-0.116757,-0.608282,0.386361,-0.091362,0.056596
0.258582,0.333692,-0.113845,-0.608432,0.388207,-0.097287,0.053505
0.258338,0.332948,-0.112606,-0.608283,0.388714,-0.100179,0.051981
0.257529,0.331201,-0.109589,-0.607883,0.389809,-0.107283,0.048167
0.257116,0.330735,-0.108524,-0.607904,0.390321,-0.109565,0.046888
0.255897,0.330298,-0.106379,-0.608454,0.391946,-0.113682,0.044258
0.255078,0.330316,-0.105223,-0.609042,0.392929,-0.115513,0.04298
0.253748,0.330568,-0.103812,-0.610044,0.394284,-0.117367,0.041702
0.252529,0.330979,-0.102882,-0.611036,0.395382,-0.118121,0.041211
0.250168,0.332059,-0.101562,-0.613062,0.397316,-0.118389,0.041064
0.249148,0.332498,-0.101028,-0.613854,0.398027,-0.118563,0.04102
0.246406,0.333337,-0.099524,-0.615453,0.39935,-0.120025,0.040531
0.245182,0.333622,-0.098896,-0.615985,0.399698,-0.120862,0.040285
0.24217,0.334226,-0.097187,-0.617237,0.400583,-0.123382,0.039449
0.241116,0.334417,-0.096413,-0.617758,0.401093,-0.124534,0.038975
0.239042,0.334881,-0.094345,-0.61915,0.403252,-0.127759,0.037254
0.237998,0.334998,-0.092864,-0.619997,0.404553,-0.130042,0.036047
0.236064,0.33541,-0.091147,-0.62145,0.406373,-0.131644,0.034492
0.234235,0.335518,-0.089907,-0.622164,0.407058,-0.133371,0.033638
0.230657,0.335613,-0.087949,-0.623203,0.407747,-0.136062,0.032405
0.229111,0.335476,-0.087077,-0.623502,0.407929,-0.137353,0.03182
0.225136,0.334345,-0.084351,-0.623844,0.408366,-0.141737,0.029802
0.223485,0.333614,-0.08307,-0.623847,0.408542,-0.143854,0.028831
0.21893,0.331329,-0.079686,-0.623417,0.408508,-0.14975,0.026078
0.21685,0.330302,-0.078349,-0.623029,0.408149,-0.15227,0.024859
0.210702,0.327328,-0.075226,-0.621106,0.406277,-0.1593,0.021398
0.20667,0.325285,-0.07318,-0.619697,0.404559,-0.163746,0.019109
0.201182,0.322677,-0.070442,-0.617871,0.402299,-0.169538,0.016058
0.197091,0.320893,-0.068386,-0.616668,0.400793,-0.173681,0.013795
0.190056,0.317668,-0.064709,-0.614129,0.397756,-0.181681,0.010036
0.187154,0.316619,-0.063375,-0.613412,0.396759,-0.184158,0.008543
0.179571,0.31413,-0.060149,-0.611552,0.393943,-0.190188,0.005094
0.176422,0.313213,-0.058913,-0.610796,0.392694,-0.192522,0.00383
0.168249,0.310714,-0.055641,-0.608603,0.389269,-0.19882,0.000657
0.164839,0.309483,-0.054144,-0.607492,0.387759,-0.201768,-0.000716
0.15543,0.306177,-0.050919,-0.603532,0.38456,-0.210226,-0.004338
0.149738,0.3036,-0.048075,-0.601044,0.381754,-0.215928,-0.006677
0.14199,0.300028,-0.044035,-0.597598,0.377964,-0.223719,-0.009991
0.136059,0.297269,-0.040833,-0.594923,0.375207,-0.229719,-0.012646
0.125658,0.292136,-0.034931,-0.589579,0.370097,-0.240985,-0.017343
0.121504,0.290268,-0.032672,-0.587742,0.368289,-0.24487,-0.019301
0.110412,0.285142,-0.026663,-0.581812,0.362401,-0.255956,-0.024273
0.105685,0.282972,-0.024149,-0.579017,0.359594,-0.260729,-0.026301
0.093776,0.277557,-0.017689,-0.571958,0.352714,-0.2725,-0.031624
0.089187,0.275455,-0.015048,-0.569369,0.350375,-0.276943,-0.0339
0.077147,0.270929,-0.010221,-0.561793,0.347205,-0.288487,-0.039883
0.070397,0.267555,-0.005723,-0.557727,0.344164,-0.29556,-0.043791
0.062436,0.263883,-0.000464,-0.554379,0.342091,-0.302322,-0.049008
0.056389,0.260619,0.004055,-0.551179,0.340365,-0.308435,-0.053062
0.046237,0.254662,0.012235,-0.545158,0.337448,-0.319536,-0.060036
0.042267,0.252534,0.01521,-0.543124,0.336459,-0.323256,-0.062721
0.031149,0.247236,0.022463,-0.536676,0.331921,-0.332827,-0.068917
0.026299,0.245071,0.025379,-0.533562,0.329398,-0.336852,-0.071224
0.013615,0.239872,0.032521,-0.525283,0.322227,-0.34668,-0.076905
0.00833,0.237893,0.035356,-0.521807,0.319085,-0.350538,-0.07926
-0.007163,0.233815,0.040205,-0.50979,0.311986,-0.361744,-0.085369
-0.016603,0.230728,0.045067,-0.502577,0.305158,-0.368634,-0.089285
-0.028341,0.227354,0.050661,-0.494741,0.297356,-0.3757,-0.09415
-0.037025,0.224985,0.054643,-0.489246,0.291708,-0.380424,-0.0975
-0.051829,0.22109,0.061338,-0.479798,0.281869,-0.388153,-0.102795
-0.057115,0.219869,0.063522,-0.477045,0.278785,-0.390271,-0.104814
-0.070415,0.216552,0.069611,-0.469478,0.270937,-0.396317,-0.110122
-0.076324,0.214884,0.072635,-0.465379,0.266965,-0.399645,-0.112009
-0.08812,0.212084,0.077998,-0.459729,0.261043,-0.404098,-0.117172
-0.093027,0.210864,0.08033,-0.457181,0.25845,-0.406119,-0.11912
-0.110363,0.207671,0.085335,-0.442561,0.251309,-0.41663,-0.12386
-0.119812,0.205034,0.090814,-0.435498,0.244796,-0.422122,-0.126507
-0.132804,0.201343,0.098724,-0.425575,0.235944,-0.429704,-0.130366
-0.1407,0.199127,0.10342,-0.420923,0.231984,-0.433323,-0.133935
-0.155832,0.194587,0.113654,-0.410045,0.223532,-0.441714,-0.14136
-0.161836,0.192839,0.117641,-0.40592,0.220272,-0.444787,-0.144202
-0.179466,0.188043,0.129617,-0.392269,0.20899,-0.454272,-0.151269
-0.187495,0.185993,0.135233,-0.385593,0.203356,-0.458659,-0.154157
-0.205627,0.181632,0.147419,-0.372111,0.191597,-0.467134,-0.160891
-0.214117,0.179696,0.153616,-0.364995,0.185351,-0.4715,-0.163762
-0.238769,0.176289,0.165944,-0.34213,0.172372,-0.484045,-0.170518
-0.251593,0.173833,0.175715,-0.331763,0.162708,-0.489764,-0.174612
-0.271566,0.170508,0.192518,-0.314129,0.145639,-0.499078,-0.180768
-0.287731,0.168323,0.207112,-0.299465,0.130733,-0.506383,-0.18581
-0.31587,0.165225,0.235783,-0.274083,0.101594,-0.518094,-0.194798
-0.32767,0.164064,0.249672,-0.263546,0.087582,-0.522593,-0.198639
-0.358057,0.160184,0.299233,-0.23797,0.038377,-0.532828,-0.209582
-0.368134,0.157404,0.327575,-0.231805,0.010958,-0.535455,-0.214744
-0.344513,0.032987,0.739776,-0.405576,-0.373597,-0.469397,-0.283221
-0.346867,0.039042,0.723978,-0.397003,-0.357603,-0.475449,-0.282246
-0.343627,0.045431,0.684009,-0.39304,-0.316239,-0.487045,-0.281779
-0.345737,0.052073,0.660655,-0.38438,-0.292497,-0.495468,-0.281257
-0.348079,0.059832,0.62936,-0.375078,-0.261108,-0.505517,-0.280319
-0.349628,0.065288,0.604866,-0.36939,-0.237075,-0.511878,-0.279026
-0.351563,0.071235,0.570898,-0.364348,-0.20404,-0.521222,-0.277612
-0.351433,0.073053,0.55691,-0.364093,-0.190426,-0.524245,-0.276981
-0.350201,0.076624,0.52344,-0.365893,-0.157607,-0.531006,-0.275692
-0.349402,0.077254,0.512254,-0.3679,-0.146553,-0.533348,-0.275455
-0.3461,0.078184,0.485001,-0.375557,-0.119512,-0.538039,-0.275008
-0.344718,0.078284,0.475503,-0.379065,-0.110021,-0.539852,-0.275146
-0.380962,0.102384,0.431857,-0.322368,-0.071443,-0.563633,-0.272004
-0.37836,0.103011,0.414157,-0.328117,-0.05373,-0.566332,-0.272266
-0.373642,0.103344,0.391798,-0.338228,-0.03136,-0.568763,-0.272582
-0.370905,0.102752,0.380376,-0.345709,-0.019977,-0.57085,-0.273397
-0.365843,0.101867,0.361575,-0.359378,-0.001458,-0.573339,-0.274539
-0.365062,0.101318,0.356838,-0.363679,0.003073,-0.574561,-0.275244
-0.363261,0.100279,0.344885,-0.37507,0.01435,-0.57565,-0.276445
-0.363628,0.099824,0.341805,-0.378572,0.017067,-0.576088,-0.27703
-0.364425,0.098961,0.333522,-0.38794,0.024178,-0.575846,-0.277876
-0.36633,0.098488,0.332446,-0.389759,0.024567,-0.576476,-0.278334
-0.395559,0.113407,0.297018,-0.352315,0.053752,-0.591065,-0.274657
-0.400801,0.112663,0.29861,-0.352357,0.050505,-0.592425,-0.274984
-0.405409,0.111922,0.297049,-0.355435,0.050055,-0.592489,-0.274831
-0.407091,0.111499,0.293201,-0.360033,0.052608,-0.59118,-0.274312
-0.412529,0.110335,0.290716,-0.364366,0.052878,-0.590289,-0.27399
-0.41456,0.109865,0.289635,-0.366176,0.05312,-0.589948,-0.273921
-0.418922,0.108727,0.286589,-0.371034,0.054273,-0.589491,-0.274126
-0.420343,0.108281,0.285166,-0.373178,0.055032,-0.589381,-0.274318
-0.422226,0.10741,0.279508,-0.380541,0.05913,-0.588239,-0.274601
-0.42379,0.106968,0.278338,-0.38248,0.059577,-0.588313,-0.274908
-0.441609,0.113623,0.258853,-0.364147,0.074731,-0.596707,-0.27395
-0.442638,0.113258,0.255259,-0.368892,0.077104,-0.5959,-0.27416
-0.445986,0.112337,0.253361,-0.372549,0.0776,-0.596472,-0.27495
-0.448249,0.111508,0.251916,-0.375549,0.078482,-0.597041,-0.275565
-0.451764,0.109961,0.249519,-0.380814,0.080456,-0.598216,-0.276612
-0.453095,0.109329,0.248487,-0.382984,0.081265,-0.598732,-0.27697
-0.454605,0.10808,0.243436,-0.390764,0.085164,-0.598864,-0.277067
-0.455918,0.107449,0.242256,-0.39291,0.08562,-0.599486,-0.277102
-0.459033,0.105933,0.239163,-0.398398,0.086811,-0.601092,-0.277307
-0.460189,0.105384,0.237907,-0.400654,0.087405,-0.601739,-0.277624
-0.468244,0.108543,0.223495,-0.39664,0.099265,-0.606659,-0.277807
-0.469676,0.107942,0.221543,-0.400224,0.100417,-0.607618,-0.278994
-0.471401,0.10703,0.218911,-0.405326,0.102447,-0.608923,-0.2806
-0.472458,0.106197,0.216866,-0.409556,0.104594,-0.609844,-0.281779
-0.473027,0.104846,0.212361,-0.418344,0.110001,-0.610645,-0.283593
-0.473707,0.104226,0.211069,-0.421311,0.111622,-0.61136,-0.284372
-0.474742,0.103023,0.206804,-0.42992,0.11623,-0.61274,-0.28583
-0.476121,0.102399,0.206084,-0.432156,0.116892,-0.614082,-0.286537
-0.479534,0.100837,0.204167,-0.437926,0.118589,-0.617483,-0.288161
-0.480605,0.100227,0.203095,-0.440637,0.119623,-0.618637,-0.288722
-0.485854,0.100806,0.194627,-0.442611,0.12775,-0.623358,-0.289312
-0.487258,0.099773,0.192877,-0.44698,0.129579,-0.625019,-0.289997
-0.488016,0.098844,0.189175,-0.454505,0.133207,-0.626165,-0.290613
-0.490545,0.097875,0.188234,-0.45761,0.133579,-0.62843,-0.291477
-0.495391,0.096331,0.187022,-0.462161,0.133417,-0.632459,-0.293011
-0.497308,0.095732,0.186553,-0.464018,0.133456,-0.634019,-0.293721
-0.501418,0.094301,0.185089,-0.469455,0.134766,-0.637418,-0.295942
-0.502847,0.093766,0.184403,-0.471899,0.135685,-0.638601,-0.297015
-0.506322,0.092452,0.182725,-0.47811,0.138237,-0.641432,-0.299707
-0.507821,0.091905,0.182177,-0.480434,0.139121,-0.642632,-0.300646
-0.512046,0.091907,0.177347,-0.484925,0.144679,-0.645982,-0.302008
-0.514581,0.091016,0.176926,-0.487955,0.145656,-0.648046,-0.303053
-0.518174,0.089845,0.176518,-0.491729,0.146755,-0.650669,-0.30436
-0.521055,0.088978,0.176314,-0.494356,0.147391,-0.652516,-0.305249
-0.526107,0.087556,0.176154,-0.498415,0.148198,-0.655445,-0.306568
-0.52816,0.08702,0.17614,-0.499954,0.148496,-0.656522,-0.307116
-0.533134,0.085849,0.176126,-0.503786,0.149451,-0.658873,-0.308736
-0.535036,0.08545,0.176109,-0.505352,0.149944,-0.659688,-0.309469
-0.539903,0.084508,0.176192,-0.508969,0.15099,-0.661516,-0.31127
-0.542006,0.084113,0.176328,-0.510166,0.151179,-0.662195,-0.311903
-0.548397,0.083667,0.175842,-0.511093,0.151981,-0.664364,-0.313235
-0.552029,0.083046,0.176434,-0.512014,0.151491,-0.665324,-0.314018
-0.558151,0.081724,0.178475,-0.511516,0.149553,-0.667538,-0.315076
-0.561763,0.080857,0.178978,-0.512608,0.149246,-0.66826,-0.315172
-0.567732,0.079252,0.179722,-0.514536,0.148838,-0.669266,-0.314791
-0.570082,0.078634,0.180005,-0.515292,0.148673,-0.669661,-0.31472
-0.575828,0.077315,0.180757,-0.517028,0.148226,-0.670787,-0.315407
-0.57807,0.07685,0.181074,-0.517695,0.148076,-0.671277,-0.315956
-0.583382,0.075839,0.181606,-0.519501,0.14772,-0.672409,-0.31746
-0.585344,0.0755,0.181621,-0.520336,0.147552,-0.672763,-0.317952
-0.5891,0.07548,0.179371,-0.523492,0.148724,-0.672768,-0.318486
-0.59151,0.075196,0.178781,-0.525082,0.148382,-0.673015,-0.318943
-0.594609,0.074843,0.177897,-0.527269,0.147949,-0.673345,-0.319594
-0.597008,0.074598,0.177284,-0.528778,0.147483,-0.673639,-0.320151
-0.60092,0.074236,0.176167,-0.531278,0.146617,-0.67415,-0.321138
-0.602303,0.074047,0.175619,-0.532461,0.14647,-0.67438,-0.321553
-0.604969,0.073334,0.173828,-0.536311,0.147129,-0.675016,-0.322629
-0.605768,0.072968,0.172962,-0.538152,0.147732,-0.675274,-0.323067
-0.607387,0.071936,0.170644,-0.543098,0.149638,-0.676123,-0.324245
-0.607963,0.071502,0.169719,-0.545097,0.150434,-0.67661,-0.324772
-0.609122,0.070449,0.167022,-0.550204,0.152996,-0.678275,-0.326172
-0.609672,0.06968,0.165591,-0.553392,0.154427,-0.679464,-0.327128
-0.610467,0.068724,0.163731,-0.557502,0.156173,-0.68108,-0.328473
-0.611197,0.068108,0.162427,-0.560391,0.157262,-0.682332,-0.32957
-0.612521,0.067163,0.160358,-0.564978,0.158839,-0.684542,-0.331534
-0.613007,0.066778,0.159492,-0.566807,0.159464,-0.685362,-0.332302
-0.613754,0.065713,0.156961,-0.571718,0.161382,-0.686955,-0.334079
-0.613825,0.065257,0.155783,-0.573866,0.16234,-0.687419,-0.334769
-0.613351,0.064463,0.152098,-0.5801,0.16518,-0.687723,-0.336026
-0.613935,0.064033,0.151236,-0.581584,0.165427,-0.688307,-0.336503
-0.617098,0.062763,0.150503,-0.58313,0.163569,-0.690632,-0.337442
-0.619109,0.062226,0.149863,-0.583939,0.16235,-0.691833,-0.337697
-0.621841,0.061437,0.149177,-0.585017,0.160957,-0.693369,-0.338062
-0.623848,0.06075,0.14878,-0.585941,0.160277,-0.694456,-0.338401
-0.627322,0.059505,0.148376,-0.587401,0.159362,-0.696219,-0.338958
-0.628714,0.058997,0.148258,-0.588003,0.159093,-0.696866,-0.339179
-0.632094,0.057735,0.147955,-0.589719,0.158779,-0.698216,-0.339713
-0.633418,0.057216,0.147844,-0.590489,0.158813,-0.698653,-0.339914
-0.636737,0.055962,0.147669,-0.592358,0.158971,-0.699664,-0.340427
-0.63809,0.055506,0.147658,-0.592999,0.158956,-0.700091,-0.340653
-0.641629,0.054413,0.147977,-0.59416,0.158546,-0.701332,-0.341276
-0.643734,0.053855,0.148175,-0.594787,0.158312,-0.702051,-0.341665
-0.646356,0.053255,0.14827,-0.595861,0.158172,-0.702804,-0.342247
-0.648106,0.052957,0.148108,-0.597024,0.158311,-0.703121,-0.342734
-0.650721,0.052688,0.147575,-0.599353,0.158828,-0.703351,-0.343628
-0.651703,0.052616,0.147343,-0.600281,0.159041,-0.703423,-0.344016
-0.653981,0.052464,0.146806,-0.602392,0.159484,-0.7037,-0.345117
-0.654764,0.052447,0.146553,-0.603252,0.159698,-0.703802,-0.345623
-0.656733,0.052395,0.146014,-0.605152,0.160042,-0.704148,-0.34684
-0.657648,0.052324,0.145912,-0.605695,0.159996,-0.704368,-0.347235
-0.660261,0.052043,0.145986,-0.606496,0.159354,-0.705165,-0.348039
-0.661946,0.051827,0.146141,-0.6067,0.158759,-0.705753,-0.348394
-0.66423,0.051422,0.146407,-0.606785,0.157824,-0.706566,-0.348646
-0.665955,0.050966,0.146627,-0.606709,0.157011,-0.707183,-0.348532
-0.668868,0.050027,0.14707,-0.606314,0.15544,-0.708269,-0.347965
-0.670028,0.049683,0.147271,-0.606123,0.154803,-0.708709,-0.34781
-0.672899,0.049129,0.147854,-0.605629,0.153271,-0.709835,-0.348083
-0.674049,0.049004,0.148129,-0.605382,0.152633,-0.710315,-0.348401
-0.676789,0.048768,0.148775,-0.604937,0.151279,-0.711403,-0.349344
-0.677786,0.048655,0.148971,-0.604932,0.150941,-0.71173,-0.349669
-0.680036,0.048464,0.149103,-0.605305,0.150822,-0.712228,-0.350313
-0.681178,0.0483,0.149172,-0.605877,0.150968,-0.712337,-0.350679
-0.68274,0.047927,0.149356,-0.606621,0.151263,-0.712613,-0.351193
-0.683974,0.047461,0.149624,-0.607106,0.151561,-0.713012,-0.35162
-0.68606,0.04646,0.15019,-0.607923,0.152252,-0.713845,-0.352362
-0.686931,0.04605,0.150424,-0.608241,0.152509,-0.714185,-0.352653
-0.689326,0.045122,0.15098,-0.608935,0.152859,-0.714953,-0.353316
-0.690387,0.04476,0.15121,-0.609159,0.152891,-0.715245,-0.353556
-0.692978,0.043904,0.151743,-0.609803,0.153029,-0.715965,-0.354177
-0.693878,0.0436,0.15191,-0.610171,0.153215,-0.716251,-0.354457
-0.695691,0.04304,0.152014,-0.611394,0.154257,-0.716963,-0.355182
-0.696588,0.042717,0.152093,-0.612335,0.154961,-0.717356,-0.355673
-0.697954,0.042256,0.152333,-0.613412,0.155774,-0.718007,-0.356462
-0.699289,0.041879,0.152742,-0.61389,0.156128,-0.718665,-0.357249
-0.701762,0.041227,0.153628,-0.614423,0.156536,-0.719939,-0.358781
-0.702653,0.040939,0.153904,-0.614761,0.156803,-0.720432,-0.359342
-0.704178,0.040063,0.154018,-0.616485,0.15818,-0.721427,-0.360238
-0.704541,0.039643,0.153859,-0.617497,0.158994,-0.721739,-0.360399
-0.705388,0.038605,0.153429,-0.620046,0.161031,-0.722588,-0.360893
-0.705873,0.038258,0.153391,-0.620827,0.161641,-0.723045,-0.36132
-0.70765,0.037614,0.153724,-0.621918,0.16258,-0.724709,-0.363247
-0.708797,0.037292,0.154064,-0.622413,0.162924,-0.725785,-0.36465
-0.710208,0.036889,0.154421,-0.62311,0.163379,-0.727027,-0.366253
-0.711097,0.036601,0.154557,-0.62372,0.163756,-0.727723,-0.367079
-0.712419,0.036173,0.154671,-0.624752,0.164347,-0.728646,-0.368113
-0.712925,0.036007,0.154681,-0.625192,0.164592,-0.728963,-0.368493
-0.714134,0.035595,0.154587,-0.626476,0.165338,-0.729649,-0.369559
-0.714559,0.035443,0.154485,-0.627079,0.165708,-0.729854,-0.370006
-0.715752,0.035021,0.154251,-0.62849,0.166486,-0.730363,-0.371039
-0.716379,0.034808,0.154228,-0.628906,0.166629,-0.730628,-0.371379
-0.718468,0.034096,0.154319,-0.629385,0.166477,-0.731595,-0.371934
-0.719849,0.033617,0.154458,-0.629586,0.166179,-0.732179,-0.372174
-0.721847,0.033069,0.154816,-0.629665,0.165699,-0.732926,-0.372646
-0.723429,0.032801,0.155239,-0.629594,0.165324,-0.733477,-0.373267
-0.726272,0.032492,0.156179,-0.62922,0.164576,-0.734378,-0.374536
-0.727505,0.032347,0.156612,-0.628985,0.164223,-0.734667,-0.374957
-0.730853,0.031764,0.157768,-0.628234,0.163227,-0.735046,-0.375428
-0.732283,0.031458,0.158261,-0.627883,0.162808,-0.735077,-0.375443
-0.736154,0.030675,0.159673,-0.626682,0.161473,-0.735011,-0.375181
-0.737845,0.030405,0.160343,-0.626007,0.160744,-0.734976,-0.374987
-0.742962,0.029895,0.162422,-0.623092,0.15816,-0.735093,-0.374224
-0.746083,0.029604,0.163847,-0.621322,0.156325,-0.734996,-0.373599
-0.749938,0.029262,0.165563,-0.619308,0.154184,-0.73481,-0.37272
-0.752494,0.029059,0.166627,-0.618216,0.152931,-0.734574,-0.371957
-0.756389,0.028794,0.168172,-0.616817,0.151202,-0.734082,-0.370554
-0.757792,0.028673,0.168722,-0.616384,0.150658,-0.733949,-0.370119
-0.760749,0.028251,0.16988,-0.615681,0.149821,-0.733959,-0.369735
-0.761684,0.028051,0.170231,-0.615598,0.149724,-0.734059,-0.369807
-0.763858,0.027484,0.171076,-0.615463,0.149626,-0.734549,-0.37033
-0.765775,0.026883,0.172413,-0.613974,0.148586,-0.735685,-0.370914
-0.768012,0.026603,0.172766,-0.613612,0.148801,-0.736427,-0.37174
-0.769714,0.026126,0.173649,-0.612942,0.148287,-0.737297,-0.372546
-0.771897,0.025463,0.174755,-0.612253,0.1478,-0.738409,-0.373504
-0.774448,0.024576,0.17648,-0.610587,0.146711,-0.740039,-0.374402
-0.776999,0.023623,0.177726,-0.610257,0.146665,-0.741343,-0.375284
-0.777972,0.023247,0.178178,-0.61021,0.14671,-0.741822,-0.37555
-0.780258,0.022344,0.17915,-0.610319,0.146946,-0.742815,-0.375834
-0.781118,0.021985,0.17948,-0.610466,0.147113,-0.743127,-0.375783
-0.78316,0.021151,0.180207,-0.61095,0.147567,-0.743894,-0.375613
-0.783941,0.020869,0.180474,-0.611142,0.147714,-0.74426,-0.375653
-0.78602,0.02045,0.180788,-0.611199,0.148232,-0.745562,-0.375919
-0.787046,0.020176,0.181082,-0.611541,0.148371,-0.746261,-0.376218
-0.78846,0.019886,0.181548,-0.611893,0.148501,-0.747251,-0.376913
-0.789561,0.019761,0.181974,-0.612075,0.14859,-0.74803,-0.377823
-0.791436,0.019678,0.182769,-0.612262,0.148689,-0.749403,-0.379812
-0.792233,0.019625,0.183122,-0.612266,0.148653,-0.749986,-0.38054
-0.794344,0.01933,0.184057,-0.6121,0.148305,-0.751522,-0.381681
-0.795198,0.019177,0.18443,-0.612005,0.148105,-0.752158,-0.381947
-0.797652,0.018668,0.185594,-0.611364,0.147231,-0.753896,-0.382352
-0.798868,0.018392,0.186233,-0.610829,0.14665,-0.754683,-0.38246
-0.803338,0.017572,0.188466,-0.607621,0.144271,-0.757412,-0.382492
-0.806084,0.016903,0.190122,-0.60572,0.142452,-0.758974,-0.382405
-0.809052,0.016094,0.191791,-0.603996,0.140738,-0.760698,-0.382338
-0.81048,0.015564,0.19242,-0.603644,0.140297,-0.761614,-0.382358
-0.812015,0.014732,0.192812,-0.604032,0.140448,-0.762747,-0.382453
-0.812505,0.014432,0.192882,-0.604303,0.140614,-0.763144,-0.382548
-0.813722,0.01379,0.193096,-0.604869,0.140935,-0.764164,-0.383028
-0.814121,0.013574,0.193129,-0.605161,0.141125,-0.764553,-0.383316
-0.815027,0.013117,0.193168,-0.605892,0.1416,-0.765432,-0.384122
-0.815412,0.012965,0.19321,-0.606107,0.141717,-0.76574,-0.38443
-0.81717,0.012739,0.193529,-0.605398,0.141675,-0.766923,-0.38532
-0.817855,0.012615,0.193701,-0.60545,0.141605,-0.767268,-0.385809
-0.818417,0.012497,0.193707,-0.605754,0.141691,-0.767582,-0.386294
-0.818431,0.012461,0.193422,-0.606297,0.141973,-0.767625,-0.386403
-0.817944,0.012484,0.192609,-0.607551,0.142691,-0.767455,-0.386315
-0.81769,0.012487,0.192288,-0.608054,0.143019,-0.767425,-0.386346
-0.817255,0.012407,0.19184,-0.608936,0.143753,-0.767784,-0.387014
-0.817142,0.012352,0.191785,-0.609146,0.144,-0.768085,-0.387485
-0.816563,0.012179,0.191512,-0.609904,0.144925,-0.768794,-0.388716
-0.816067,0.012098,0.191207,-0.610495,0.145562,-0.76892,-0.389087
-0.813878,0.011885,0.18947,-0.61301,0.148418,-0.768786,-0.389569
-0.812167,0.0117,0.188297,-0.614976,0.150366,-0.768466,-0.389755
-0.810221,0.011609,0.187086,-0.617042,0.1525,-0.768086,-0.390098
-0.809193,0.011703,0.186631,-0.617876,0.153516,-0.767964,-0.390555
-0.807889,0.01206,0.186331,-0.618531,0.154623,-0.76784,-0.391467
-0.807485,0.012252,0.186279,-0.618681,0.154947,-0.767705,-0.391752
-0.806728,0.012864,0.186116,-0.619065,0.155613,-0.766799,-0.391949
-0.80654,0.013188,0.186069,-0.619166,0.155782,-0.766207,-0.391857
-0.806322,0.013971,0.186093,-0.619237,0.156016,-0.764759,-0.391456
-0.806319,0.014192,0.186187,-0.619189,0.156063,-0.76439,-0.391303
-0.806593,0.01449,0.186733,-0.618849,0.155996,-0.764035,-0.390877
-0.806942,0.014556,0.187196,-0.61846,0.155848,-0.764098,-0.390608
-0.807234,0.014607,0.187628,-0.618157,0.155781,-0.764191,-0.390288
-0.807192,0.01462,0.187695,-0.618237,0.155928,-0.764209,-0.390058
-0.806882,0.014571,0.187556,-0.618674,0.156358,-0.764281,-0.389703
-0.806776,0.014553,0.187499,-0.618832,0.156507,-0.764327,-0.389635
-0.806809,0.014554,0.187558,-0.618907,0.156625,-0.7645,-0.389821
-0.806912,0.014558,0.187634,-0.618846,0.156597,-0.764597,-0.390027
-0.807198,0.014626,0.187834,-0.618644,0.156458,-0.764849,-0.39067
-0.807266,0.014697,0.187887,-0.618591,0.156407,-0.764932,-0.390918
-0.807383,0.015045,0.18795,-0.618443,0.156224,-0.765146,-0.391583
-0.807389,0.015305,0.187967,-0.618404,0.156104,-0.765242,-0.391993
-0.807263,0.015631,0.187921,-0.618484,0.156096,-0.765284,-0.392415
-0.807,0.015854,0.187785,-0.618718,0.156278,-0.765205,-0.39259
-0.806352,0.016215,0.187445,-0.619311,0.156799,-0.764941,-0.392712
-0.80611,0.016331,0.187343,-0.61952,0.157017,-0.764847,-0.392735
-0.805767,0.016471,0.187371,-0.619747,0.157461,-0.76479,-0.392813
-0.805708,0.016465,0.187483,-0.619747,0.157632,-0.764827,-0.392845
-0.805597,0.016441,0.187784,-0.61968,0.157987,-0.764904,-0.392839
-0.805521,0.016472,0.187844,-0.619668,0.158074,-0.764874,-0.392773
-0.805204,0.016694,0.187746,-0.619696,0.158129,-0.764601,-0.392311
-0.804988,0.016862,0.187647,-0.619719,0.158076,-0.764368,-0.391963
-0.804784,0.017083,0.187597,-0.619677,0.158008,-0.764088,-0.391673
-0.804712,0.017248,0.18765,-0.619577,0.157981,-0.763906,-0.39171
-0.804696,0.017534,0.187836,-0.619314,0.157928,-0.763627,-0.392023
-0.804731,0.017629,0.187956,-0.619176,0.157898,-0.763553,-0.392123
-0.804976,0.017753,0.188447,-0.618702,0.157767,-0.763561,-0.392034
-0.805151,0.017759,0.188737,-0.618442,0.157688,-0.763644,-0.391893
-0.805582,0.017761,0.189436,-0.617835,0.157508,-0.763867,-0.391505
-0.805684,0.017788,0.189619,-0.617682,0.157468,-0.763901,-0.391401
-0.805713,0.017961,0.189694,-0.617604,0.15754,-0.763763,-0.391256
-0.805643,0.018075,0.189656,-0.617678,0.157596,-0.763625,-0.391224
-0.805604,0.018206,0.189701,-0.617647,0.157587,-0.7636,-0.391267
-0.805684,0.018277,0.189891,-0.617412,0.157437,-0.763814,-0.391418
-0.805901,0.018368,0.190337,-0.616835,0.157055,-0.764405,-0.391814
-0.805946,0.018396,0.190494,-0.616642,0.156949,-0.76461,-0.391937
-0.805772,0.018427,0.190666,-0.61655,0.157098,-0.764754,-0.39194
-0.805599,0.018415,0.190663,-0.616656,0.157321,-0.764689,-0.391838
-0.805128,0.018418,0.190628,-0.616883,0.157802,-0.764511,-0.391539
-0.804993,0.018464,0.190649,-0.616829,0.157801,-0.764524,-0.391466
-0.804952,0.018703,0.190844,-0.61609,0.157104,-0.764945,-0.391309
-0.804947,0.018893,0.191003,-0.615528,0.15646,-0.765253,-0.391271
-0.804725,0.019234,0.191071,-0.614988,0.155845,-0.765439,-0.391442
-0.804242,0.019605,0.190907,-0.614905,0.155752,-0.765271,-0.391902
-0.803118,0.020367,0.190416,-0.615054,0.155922,-0.764673,-0.393032
-0.802728,0.020639,0.190264,-0.615073,0.155964,-0.764444,-0.393388
-0.802293,0.021042,0.19027,-0.614685,0.155668,-0.764177,-0.393471
-0.802284,0.021116,0.190393,-0.614393,0.155423,-0.764156,-0.393232
-0.802407,0.021224,0.190799,-0.613605,0.1548,-0.764129,-0.392512
-0.802436,0.021276,0.190942,-0.613353,0.15464,-0.764077,-0.392348
-0.802451,0.021437,0.191239,-0.612903,0.154612,-0.763797,-0.392422
-0.802454,0.021523,0.191418,-0.612716,0.154676,-0.76358,-0.392553
-0.802568,0.021615,0.191687,-0.612367,0.154556,-0.763402,-0.392487
-0.802845,0.021658,0.191968,-0.611892,0.15411,-0.763434,-0.392057
-0.803495,0.021697,0.192502,-0.610927,0.153042,-0.763652,-0.390976
-0.803665,0.021712,0.192651,-0.61066,0.152743,-0.763714,-0.390628
-0.803425,0.021766,0.192606,-0.610805,0.152983,-0.763554,-0.39047
-0.803084,0.021788,0.192426,-0.611173,0.153444,-0.763366,-0.390631
-0.802188,0.021862,0.191961,-0.612123,0.15463,-0.762993,-0.39123
-0.801994,0.021904,0.191897,-0.612275,0.154838,-0.763015,-0.391443
-0.80204,0.022067,0.192132,-0.611882,0.154504,-0.763731,-0.39197
-0.802225,0.022174,0.192406,-0.611427,0.154027,-0.764344,-0.392296
-0.802417,0.022303,0.192678,-0.610951,0.153519,-0.76493,-0.392628
-0.802405,0.022386,0.192697,-0.610871,0.153416,-0.765008,-0.39278
-0.802312,0.022507,0.192601,-0.610909,0.153409,-0.764827,-0.392905
-0.802367,0.022537,0.192639,-0.610809,0.153306,-0.764804,-0.392907
-0.803045,0.022509,0.193237,-0.60982,0.152381,-0.765279,-0.392738
-0.803517,0.022452,0.193653,-0.609164,0.151776,-0.765643,-0.392589
-0.804783,0.022336,0.19479,-0.607379,0.150138,-0.766586,-0.39219
-0.805195,0.022345,0.195177,-0.606761,0.149576,-0.766855,-0.392082
-0.806297,0.022542,0.196115,-0.605015,0.14819,-0.767434,-0.391994
-0.806742,0.022723,0.19658,-0.604235,0.147489,-0.767568,-0.391973
-0.807071,0.022945,0.197036,-0.603509,0.146909,-0.767637,-0.391976
-0.807044,0.023077,0.197197,-0.603315,0.146864,-0.767567,-0.391993
-0.806622,0.02328,0.197226,-0.603444,0.147298,-0.76727,-0.392071
-0.806401,0.023348,0.197223,-0.603532,0.14753,-0.767169,-0.392124
-0.805893,0.023446,0.197366,-0.603561,0.148016,-0.767197,-0.392364
-0.805683,0.02345,0.197473,-0.60353,0.148222,-0.767317,-0.392516
-0.805053,0.023484,0.197642,-0.603541,0.14878,-0.76752,-0.39285
-0.80474,0.023543,0.197601,-0.603631,0.149014,-0.767442,-0.392905
-0.803661,0.02388,0.196963,-0.604211,0.149863,-0.766658,-0.392793
-0.802889,0.024122,0.196475,-0.604739,0.15036,-0.765967,-0.392628
-0.802238,0.024417,0.196155,-0.604984,0.150607,-0.765378,-0.392408
-0.802271,0.024612,0.196378,-0.604536,0.15022,-0.765403,-0.392251
-0.802875,0.024917,0.197222,-0.603121,0.14895,-0.765908,-0.391967
-0.803074,0.025004,0.197535,-0.602602,0.148511,-0.766104,-0.391874
-0.802965,0.025046,0.197836,-0.602063,0.148257,-0.766192,-0.391727
-0.802763,0.02499,0.197825,-0.602069,0.148412,-0.766109,-0.391677
-0.802052,0.024832,0.197702,-0.602191,0.148947,-0.765929,-0.391718
-0.801732,0.024815,0.19768,-0.602154,0.149079,-0.765962,-0.391851
-0.800816,0.024915,0.197603,-0.601889,0.149235,-0.766359,-0.392655
-0.800194,0.02501,0.197603,-0.601639,0.149238,-0.766723,-0.393289
-0.799307,0.025173,0.197724,-0.601141,0.149179,-0.767222,-0.393928
-0.798626,0.0253,0.197953,-0.6006,0.149066,-0.76766,-0.394181
-0.797438,0.025551,0.198528,-0.599433,0.148757,-0.768467,-0.394362
-0.796914,0.0257,0.198782,-0.598915,0.148629,-0.768676,-0.394337
-0.795449,0.02627,0.199395,-0.597579,0.14838,-0.768579,-0.394013
-0.794823,0.026569,0.199652,-0.597009,0.148295,-0.768331,-0.393784
-0.793181,0.027403,0.200394,-0.595358,0.147992,-0.76745,-0.392971
-0.792499,0.027743,0.200751,-0.594561,0.147792,-0.767073,-0.392548
-0.790996,0.028515,0.201975,-0.591879,0.146901,-0.766058,-0.391129
-0.790033,0.029012,0.202799,-0.590103,0.146258,-0.765329,-0.390128
-0.788493,0.029846,0.203855,-0.587775,0.145451,-0.764422,-0.388914
-0.78715,0.030664,0.204628,-0.586053,0.144854,-0.763849,-0.388167
-0.784673,0.032256,0.205955,-0.583087,0.143813,-0.762988,-0.387073
-0.783519,0.032911,0.206422,-0.581973,0.143495,-0.762635,-0.386669
-0.77995,0.034446,0.207228,-0.579675,0.14331,-0.761655,-0.385754
-0.778253,0.035034,0.207432,-0.578925,0.143472,-0.761244,-0.38545
-0.773932,0.036538,0.207896,-0.576988,0.143806,-0.760143,-0.384672
-0.77236,0.037183,0.208135,-0.576041,0.143696,-0.759661,-0.384289
-0.769001,0.039007,0.208876,-0.573078,0.142479,-0.758169,-0.383022
-0.767178,0.040135,0.209409,-0.571049,0.141456,-0.757257,-0.382199
-0.764479,0.041509,0.210086,-0.568584,0.140512,-0.75624,-0.381235
-0.762149,0.042405,0.210605,-0.566993,0.140318,-0.755738,-0.380716
-0.757948,0.043731,0.21148,-0.564592,0.140519,-0.755188,-0.380056
-0.756156,0.044202,0.211724,-0.563777,0.140728,-0.754974,-0.379776
-0.75124,0.045206,0.211699,-0.562392,0.141587,-0.754198,-0.378754
-0.749048,0.04553,0.211432,-0.562132,0.14213,-0.753805,-0.378215
-0.743547,0.046285,0.210674,-0.561607,0.143561,-0.752906,-0.377018
-0.741532,0.046611,0.210518,-0.561237,0.144006,-0.752672,-0.376752
-0.736793,0.047553,0.210557,-0.560098,0.144782,-0.752358,-0.37688
-0.734247,0.048132,0.210725,-0.559114,0.145111,-0.752421,-0.377204
-0.730916,0.048776,0.210854,-0.557945,0.145585,-0.752473,-0.377337
-0.728352,0.04911,0.21076,-0.557348,0.146089,-0.752447,-0.377009
-0.724094,0.049497,0.210424,-0.556634,0.147049,-0.752381,-0.376063
-0.722509,0.049631,0.21032,-0.556291,0.147355,-0.752329,-0.375675
-0.719113,0.049975,0.210365,-0.554935,0.14766,-0.752097,-0.374979
-0.717943,0.050097,0.210474,-0.554247,0.147646,-0.751974,-0.374769
-0.715227,0.050436,0.210753,-0.552447,0.147416,-0.751563,-0.37421
-0.714149,0.050614,0.210807,-0.551771,0.147283,-0.751346,-0.373916
-0.711264,0.051099,0.210765,-0.550565,0.14686,-0.750528,-0.37286
-0.70967,0.051481,0.21064,-0.549727,0.14655,-0.750032,-0.372158
-0.707651,0.052112,0.210515,-0.548481,0.145969,-0.749313,-0.371399
-0.706232,0.052739,0.210451,-0.547399,0.145336,-0.748697,-0.371061
-0.70399,0.053983,0.210351,-0.545455,0.144037,-0.747558,-0.370727
-0.703119,0.054459,0.21035,-0.544661,0.143533,-0.747135,-0.370601
-0.700936,0.0554,0.2105,-0.542736,0.142569,-0.746292,-0.37015
-0.700052,0.055708,0.2106,-0.541992,0.142279,-0.746012,-0.369942
-0.697931,0.056401,0.210986,-0.540075,0.141594,-0.745452,-0.369412
-0.697156,0.05667,0.211213,-0.539241,0.141273,-0.745292,-0.36921
-0.695241,0.057228,0.211981,-0.537309,0.140348,-0.744947,-0.368641
-0.694275,0.057574,0.212519,-0.535917,0.139781,-0.744915,-0.368321
-0.693073,0.058121,0.21341,-0.533873,0.138934,-0.744944,-0.368066
-0.692292,0.058633,0.214283,-0.532107,0.138164,-0.745084,-0.368164
-0.691158,0.059606,0.216021,-0.528859,0.136714,-0.745458,-0.368614
-0.690671,0.060006,0.216711,-0.527566,0.136156,-0.745528,-0.368674
-0.689195,0.060973,0.218185,-0.524563,0.134912,-0.745221,-0.367956
-0.688545,0.061355,0.218707,-0.523403,0.134419,-0.744952,-0.367367
-0.686916,0.062289,0.220147,-0.520422,0.133322,-0.744085,-0.365791
-0.686303,0.062647,0.220872,-0.519143,0.132989,-0.743708,-0.365323
-0.684654,0.063494,0.223015,-0.516062,0.132791,-0.742439,-0.364751
-0.683826,0.063982,0.22455,-0.51394,0.132726,-0.741661,-0.364558
-0.682807,0.064684,0.226644,-0.510907,0.132321,-0.740628,-0.363987
-0.682234,0.065239,0.228315,-0.508331,0.131543,-0.739959,-0.363163
-0.682163,0.066026,0.23204,-0.502792,0.128981,-0.739332,-0.361563
-0.681756,0.066472,0.233117,-0.501004,0.128297,-0.73875,-0.360795
-0.680489,0.067684,0.235634,-0.496604,0.126699,-0.736956,-0.359089
-0.67976,0.068241,0.23643,-0.495053,0.126236,-0.735986,-0.35841
-0.67778,0.069733,0.238253,-0.491224,0.125027,-0.733366,-0.356642
-0.676909,0.070375,0.238885,-0.489743,0.124509,-0.732283,-0.355857
-0.676675,0.071619,0.242692,-0.483352,0.120503,-0.731028,-0.354219
-0.676471,0.072479,0.244762,-0.479492,0.118126,-0.730207,-0.353124
-0.674538,0.073859,0.245787,-0.476521,0.11681,-0.727887,-0.351315
-0.674885,0.074326,0.248592,-0.471905,0.114029,-0.727336,-0.350566
-0.672051,0.07567,0.249576,-0.46864,0.11328,-0.723931,-0.348544
-0.670991,0.076223,0.250017,-0.467255,0.112833,-0.722705,-0.347758
-0.669043,0.077769,0.251705,-0.462999,0.11041,-0.720586,-0.345845
-0.668706,0.078417,0.252773,-0.460747,0.108773,-0.720198,-0.345137
-0.670159,0.079553,0.258099,-0.452134,0.101963,-0.72112,-0.344045
-0.669766,0.080092,0.259225,-0.449945,0.10044,-0.720927,-0.343467
-0.6689,0.080745,0.263195,-0.444401,0.096145,-0.721016,-0.342521
-0.667331,0.081361,0.264064,-0.44233,0.095259,-0.72056,-0.341765
-0.666791,0.082064,0.267063,-0.43752,0.092156,-0.720847,-0.341201
-0.665819,0.082908,0.268683,-0.434603,0.090333,-0.720504,-0.340678
-0.665872,0.08428,0.273373,-0.427511,0.085217,-0.720859,-0.340309
-0.665368,0.084925,0.2746,-0.425373,0.0838,-0.720586,-0.340006
-0.663989,0.086411,0.277409,-0.4203,0.080481,-0.71963,-0.339109
-0.663392,0.086981,0.278449,-0.418352,0.079225,-0.719148,-0.338736
-0.66405,0.088025,0.283634,-0.410897,0.073408,-0.719048,-0.338102
-0.663799,0.088523,0.284985,-0.408673,0.07176,-0.718556,-0.33753
-0.663083,0.089084,0.289944,-0.403974,0.066002,-0.716813,-0.335639
-0.66507,0.08942,0.294837,-0.398017,0.060499,-0.71707,-0.334703
-0.665242,0.090362,0.298234,-0.393143,0.056351,-0.715932,-0.333128
-0.666977,0.090981,0.30325,-0.387347,0.050841,-0.716169,-0.33284
-0.667212,0.092564,0.308167,-0.380946,0.045151,-0.715011,-0.3321
-0.669155,0.092921,0.312889,-0.376152,0.040148,-0.715522,-0.332218
-0.669382,0.094288,0.317746,-0.370189,0.034617,-0.713665,-0.330632
-0.671138,0.094534,0.322264,-0.365889,0.029869,-0.71369,-0.33024
-0.671453,0.09572,0.327325,-0.360158,0.024256,-0.7113,-0.328018
-0.673305,0.095973,0.332412,-0.355755,0.018996,-0.71128,-0.327646
-0.672537,0.095318,0.344864,-0.352446,0.006763,-0.708316,-0.326501
-0.672993,0.096105,0.349364,-0.348487,0.002124,-0.707019,-0.325372
-0.675057,0.096859,0.358322,-0.341771,-0.007183,-0.705978,-0.324492
-0.676473,0.097412,0.365101,-0.337073,-0.014438,-0.705166,-0.324095
-0.676047,0.098831,0.370579,-0.332568,-0.021115,-0.70244,-0.322817
-0.67746,0.098943,0.376416,-0.32927,-0.027423,-0.701989,-0.322772
-0.67821,0.099431,0.3834,-0.324756,-0.035943,-0.698825,-0.320893
-0.68008,0.098962,0.390311,-0.321682,-0.043424,-0.698083,-0.320523
-0.68171,0.098591,0.399251,-0.31745,-0.05411,-0.69453,-0.318333
-0.683674,0.097897,0.408088,-0.314755,-0.063418,-0.693694,-0.318347
-0.677241,0.092213,0.428578,-0.325087,-0.083966,-0.686285,-0.318663
-0.678361,0.092047,0.4367,-0.323076,-0.092975,-0.68411,-0.318284
-0.68018,0.090738,0.452831,-0.320728,-0.109836,-0.681728,-0.318909
-0.680222,0.090247,0.460458,-0.319869,-0.118053,-0.679734,-0.319114
-0.679533,0.089395,0.472044,-0.319104,-0.130471,-0.676581,-0.319817
-0.679085,0.089032,0.476459,-0.31899,-0.135211,-0.675307,-0.320073
-0.677984,0.086634,0.493494,-0.319982,-0.152769,-0.672105,-0.321295
-0.67725,0.086186,0.497586,-0.320293,-0.157312,-0.670672,-0.321283
-0.67515,0.085069,0.507304,-0.321323,-0.168005,-0.667088,-0.321122
-0.674206,0.084605,0.511131,-0.321837,-0.172039,-0.665685,-0.321063
-0.658832,0.076403,0.519464,-0.343217,-0.178761,-0.657037,-0.321639
-0.65805,0.074456,0.530899,-0.344175,-0.189511,-0.655615,-0.32252
-0.656349,0.073684,0.538433,-0.344769,-0.196915,-0.653184,-0.322405
-0.654989,0.073179,0.543995,-0.345366,-0.202764,-0.651169,-0.322263
-0.652569,0.070984,0.558149,-0.347801,-0.217349,-0.647756,-0.322844
-0.651503,0.070571,0.561907,-0.348486,-0.221405,-0.646349,-0.322776
-0.648708,0.069473,0.570842,-0.350283,-0.230776,-0.643093,-0.322683
-0.647427,0.067571,0.579004,-0.352405,-0.238642,-0.641966,-0.323528
-0.644362,0.066203,0.587792,-0.35461,-0.247537,-0.638994,-0.323615
-0.643104,0.065672,0.591112,-0.355491,-0.250895,-0.637806,-0.32362
-0.631622,0.058549,0.599136,-0.371547,-0.257973,-0.631396,-0.324435
-0.630051,0.056487,0.608367,-0.373564,-0.266853,-0.629971,-0.32523
-0.627725,0.055599,0.614324,-0.374786,-0.272913,-0.62787,-0.32523
-0.625835,0.055076,0.618179,-0.375607,-0.277018,-0.626336,-0.325232
-0.622511,0.054371,0.623837,-0.376861,-0.283267,-0.623844,-0.325247
-0.621107,0.052609,0.630449,-0.378749,-0.289706,-0.623003,-0.326141
-0.617835,0.051779,0.636178,-0.380205,-0.295597,-0.620549,-0.326413
-0.616554,0.051471,0.638362,-0.380772,-0.297751,-0.619581,-0.326572
-0.613348,0.050636,0.64394,-0.382279,-0.303167,-0.61714,-0.326979
-0.611919,0.048765,0.650448,-0.384402,-0.309264,-0.616254,-0.327924
-0.603613,0.04432,0.654967,-0.394344,-0.313189,-0.611579,-0.328457
-0.601751,0.043517,0.659376,-0.395418,-0.317472,-0.610109,-0.328606
-0.599324,0.040929,0.669229,-0.398234,-0.327032,-0.608116,-0.329458
-0.597605,0.040248,0.672703,-0.399203,-0.330944,-0.606159,-0.329092
-0.594855,0.039262,0.67771,-0.400664,-0.337091,-0.602544,-0.328064
-0.593731,0.038854,0.679715,-0.401257,-0.339444,-0.601181,-0.327714
-0.590665,0.036057,0.689553,-0.404414,-0.348892,-0.598656,-0.328363
-0.589398,0.035447,0.692098,-0.405184,-0.351116,-0.597816,-0.328501
-0.586133,0.033927,0.698455,-0.407138,-0.356507,-0.595844,-0.328963
-0.584798,0.033364,0.700899,-0.407913,-0.358678,-0.594968,-0.329086
-0.578224,0.02908,0.707265,-0.415695,-0.3642,-0.591259,-0.329854
-0.576209,0.028374,0.710818,-0.416706,-0.367572,-0.589797,-0.329916
-0.573602,0.025849,0.719698,-0.419598,-0.376089,-0.58795,-0.33087
-0.571722,0.025145,0.723303,-0.420772,-0.379976,-0.586259,-0.330942
-0.568676,0.024046,0.729176,-0.422784,-0.386696,-0.583251,-0.331014
-0.567437,0.023589,0.731473,-0.423582,-0.389304,-0.582093,-0.330988
-0.564166,0.020711,0.740995,-0.427005,-0.398812,-0.579758,-0.33145
-0.562797,0.020091,0.743266,-0.427793,-0.401069,-0.57885,-0.331141
-0.559341,0.018638,0.74862,-0.429663,-0.406339,-0.576744,-0.330503
-0.557978,0.01818,0.750546,-0.430349,-0.408302,-0.575946,-0.330484
-0.552405,0.014817,0.755634,-0.436457,-0.413319,-0.573289,-0.332015
-0.550448,0.014535,0.757891,-0.437189,-0.415793,-0.572356,-0.332802
-0.547984,0.012395,0.765279,-0.439835,-0.423243,-0.571213,-0.334463
-0.54617,0.01169,0.768574,-0.44103,-0.426952,-0.569977,-0.334643
-0.543244,0.010342,0.774502,-0.443255,-0.433749,-0.567721,-0.334545
-0.542137,0.008216,0.780701,-0.445632,-0.439954,-0.567079,-0.335417
-0.538933,0.006995,0.786297,-0.447771,-0.446215,-0.565149,-0.335886
-0.537569,0.006576,0.78837,-0.448563,-0.448517,-0.564467,-0.336192
-0.534184,0.005535,0.793567,-0.450562,-0.454233,-0.562711,-0.337057
-0.533018,0.003403,0.799698,-0.452985,-0.460215,-0.562163,-0.338309
-0.52865,-5.4e-05,0.806667,-0.45887,-0.467515,-0.559169,-0.339827
-0.527076,-0.000891,0.810506,-0.460306,-0.471645,-0.557667,-0.340402
-0.524925,-0.001985,0.815486,-0.46215,-0.476727,-0.555727,-0.340954
-0.523157,-0.002714,0.818813,-0.463329,-0.479713,-0.554468,-0.341051
-0.520325,-0.005662,0.828277,-0.466777,-0.487784,-0.55279,-0.341876
-0.519227,-0.006291,0.830901,-0.467733,-0.490077,-0.551865,-0.341933
-0.517322,-0.010046,0.84333,-0.472602,-0.502206,-0.549074,-0.343787
-0.516712,-0.01116,0.84768,-0.474367,-0.506827,-0.547603,-0.344511
-0.515714,-0.015895,0.863111,-0.480664,-0.522814,-0.543942,-0.347199
-0.515266,-0.017324,0.868058,-0.482699,-0.528028,-0.542363,-0.347703
-0.513409,-0.023279,0.882221,-0.490864,-0.542532,-0.537814,-0.348605
-0.513417,-0.027412,0.894056,-0.495445,-0.554328,-0.535667,-0.349457
-0.512896,-0.030713,0.904703,-0.499596,-0.56519,-0.532626,-0.349818
-0.512812,-0.034704,0.91626,-0.504053,-0.576414,-0.531041,-0.351635
-0.512358,-0.04011,0.932683,-0.510366,-0.592285,-0.52854,-0.354605
-0.512078,-0.04195,0.938507,-0.51258,-0.597906,-0.52752,-0.35562
-0.51111,-0.045936,0.951551,-0.517445,-0.610483,-0.524796,-0.357357
-0.510849,-0.048269,0.958293,-0.52003,-0.616827,-0.523879,-0.358352
-0.509793,-0.052607,0.971846,-0.525153,-0.629734,-0.521197,-0.35995
-0.509834,-0.055432,0.979936,-0.528174,-0.637444,-0.520324,-0.361276
-0.508619,-0.060607,0.993892,-0.534845,-0.651271,-0.516817,-0.3633
-0.508857,-0.06418,1.005143,-0.538801,-0.662374,-0.515137,-0.365072
-0.508962,-0.068209,1.018349,-0.543421,-0.675645,-0.512799,-0.366951
-0.508836,-0.070699,1.026908,-0.546391,-0.684438,-0.51101,-0.367968
-0.509335,-0.075948,1.044022,-0.552196,-0.701854,-0.508479,-0.370294
-0.510098,-0.078871,1.053079,-0.555165,-0.710883,-0.507801,-0.371766
-0.511438,-0.084615,1.071818,-0.561267,-0.730053,-0.505853,-0.374579
-0.511401,-0.085811,1.076439,-0.562788,-0.735197,-0.504809,-0.375032
-0.513701,-0.092033,1.097182,-0.569124,-0.756346,-0.503464,-0.378348
-0.515102,-0.094926,1.106964,-0.571945,-0.76601,-0.503086,-0.379978
-0.408798,0.056145,0.660934,-0.463447,-0.341804,-0.513323,-0.28134
-0.403943,0.058686,0.652385,-0.463782,-0.333513,-0.512259,-0.278844
-0.396378,0.062715,0.637626,-0.464822,-0.319313,-0.510044,-0.274826
-0.391845,0.064678,0.631619,-0.465031,-0.313719,-0.509415,-0.272535
-0.383272,0.068451,0.618859,-0.465912,-0.301843,-0.507696,-0.268057
-0.380533,0.069559,0.615999,-0.465877,-0.299369,-0.507483,-0.266746
-0.372987,0.073002,0.605559,-0.466606,-0.290361,-0.505904,-0.263565
-0.369553,0.074688,0.599787,-0.467344,-0.28539,-0.504754,-0.262215
-0.364369,0.077127,0.595746,-0.466678,-0.28313,-0.504536,-0.260754
-0.362145,0.078119,0.59388,-0.46647,-0.281844,-0.504455,-0.259931
-0.40709,0.123099,0.560947,-0.374613,-0.258695,-0.526745,-0.247203
-0.403397,0.126036,0.551837,-0.373343,-0.250465,-0.526334,-0.244406
-0.398229,0.129842,0.539267,-0.371914,-0.238849,-0.525675,-0.240657
-0.393636,0.133559,0.525136,-0.3709,-0.225354,-0.524554,-0.237147
-0.386403,0.137503,0.509758,-0.370288,-0.210329,-0.523489,-0.232635
-0.382653,0.139927,0.499121,-0.370463,-0.199907,-0.52235,-0.230227
-0.374828,0.143747,0.483619,-0.37097,-0.184859,-0.520836,-0.226295
-0.372234,0.144969,0.479559,-0.370816,-0.181037,-0.520585,-0.225161
-0.364785,0.147838,0.468418,-0.371778,-0.170313,-0.519396,-0.222381
-0.361738,0.148958,0.463842,-0.372272,-0.1658,-0.518874,-0.221276
-0.388342,0.170065,0.439083,-0.320359,-0.147928,-0.531638,-0.215282
-0.38477,0.171617,0.43289,-0.319964,-0.141727,-0.531464,-0.213969
-0.378519,0.174729,0.417272,-0.320452,-0.12603,-0.530274,-0.210938
-0.373307,0.176754,0.405837,-0.321591,-0.114273,-0.529263,-0.208351
-0.362405,0.180352,0.382355,-0.326065,-0.089773,-0.526399,-0.203064
-0.357284,0.1818,0.37203,-0.328925,-0.078912,-0.524775,-0.200807
-0.346658,0.184337,0.354594,-0.334581,-0.060381,-0.521885,-0.19638
-0.342365,0.185259,0.348209,-0.337119,-0.05357,-0.52065,-0.19467
-0.332037,0.187293,0.333987,-0.343429,-0.038268,-0.517592,-0.190744
-0.328764,0.187835,0.330231,-0.345099,-0.034135,-0.516808,-0.189548
-0.347338,0.20175,0.295582,-0.308098,-0.004841,-0.526897,-0.183777
-0.341733,0.202419,0.288475,-0.311805,0.003082,-0.525157,-0.182226
-0.335646,0.203027,0.281867,-0.315208,0.010563,-0.523552,-0.180628
-0.331505,0.203415,0.277698,-0.317282,0.015301,-0.52252,-0.179651
-0.324332,0.203954,0.270877,-0.32126,0.023113,-0.520503,-0.178236
-0.320291,0.204397,0.266204,-0.32433,0.028354,-0.518921,-0.17739
-0.313943,0.204944,0.260696,-0.327464,0.034514,-0.51731,-0.175766
-0.311428,0.205181,0.258513,-0.328738,0.036899,-0.516655,-0.175015
-0.304145,0.206004,0.251609,-0.333163,0.044477,-0.514373,-0.172941
-0.301365,0.206312,0.249237,-0.334726,0.047141,-0.513584,-0.17224
-0.308034,0.213941,0.223612,-0.316895,0.070133,-0.518558,-0.168801
-0.303865,0.214401,0.220552,-0.319089,0.073789,-0.517583,-0.168064
-0.298354,0.215036,0.216396,-0.321983,0.078578,-0.516199,-0.16704
-0.293071,0.21571,0.211804,-0.325722,0.083686,-0.514246,-0.166062
-0.285341,0.216696,0.205559,-0.330632,0.090374,-0.511525,-0.164609
-0.281074,0.217252,0.201671,-0.334154,0.094675,-0.509598,-0.163736
-0.273814,0.217911,0.196194,-0.338541,0.100626,-0.507064,-0.161691
-0.269962,0.218253,0.192921,-0.341589,0.104327,-0.50534,-0.160549
-0.261529,0.218961,0.186259,-0.347604,0.111725,-0.501837,-0.157603
-0.259091,0.219157,0.18473,-0.348675,0.11332,-0.501201,-0.156637
-0.256466,0.223817,0.166329,-0.344804,0.130731,-0.501152,-0.15268
-0.250142,0.224845,0.161519,-0.34982,0.136108,-0.498399,-0.1507
-0.242322,0.226176,0.155828,-0.355642,0.142371,-0.495092,-0.148328
-0.238586,0.226748,0.153885,-0.356963,0.144367,-0.494325,-0.147434
-0.232653,0.227686,0.151039,-0.358595,0.147243,-0.493338,-0.146456
-0.230456,0.228041,0.150013,-0.35904,0.148137,-0.493022,-0.146039
-0.225706,0.22884,0.14773,-0.359477,0.149313,-0.492418,-0.144446
-0.22413,0.229129,0.146955,-0.359332,0.149318,-0.492272,-0.143644
-0.218285,0.230258,0.143174,-0.361572,0.151759,-0.490384,-0.141428
-0.21625,0.230577,0.142121,-0.361944,0.152395,-0.490017,-0.140647
-0.211056,0.233332,0.13152,-0.362234,0.162665,-0.488599,-0.137997
-0.207658,0.233665,0.13015,-0.363002,0.164219,-0.488166,-0.13713
-0.203041,0.234275,0.128316,-0.36388,0.166109,-0.487713,-0.135902
-0.19958,0.234916,0.126985,-0.36426,0.167182,-0.487569,-0.134854
-0.191966,0.236638,0.123187,-0.367066,0.170867,-0.486085,-0.132917
-0.189189,0.237275,0.121913,-0.367782,0.171958,-0.485718,-0.132142
-0.181928,0.238932,0.118338,-0.370128,0.175142,-0.484337,-0.130423
-0.177934,0.239929,0.115856,-0.372627,0.177725,-0.482753,-0.129673
-0.169845,0.241792,0.111523,-0.376131,0.181896,-0.480513,-0.128055
-0.166449,0.242474,0.109731,-0.37773,0.183813,-0.479519,-0.127281
-0.158161,0.244615,0.102702,-0.38123,0.191467,-0.476937,-0.124686
-0.151707,0.24571,0.099085,-0.385531,0.196101,-0.47424,-0.123
-0.144094,0.246868,0.095359,-0.389747,0.201131,-0.471742,-0.121009
-0.138224,0.247781,0.092656,-0.393053,0.205201,-0.46993,-0.11965
-0.127501,0.249593,0.087639,-0.399825,0.213236,-0.4662,-0.117385
-0.123924,0.250133,0.086236,-0.40147,0.215514,-0.465383,-0.116592
-0.114077,0.252068,0.081569,-0.406966,0.221809,-0.461989,-0.114339
-0.110463,0.252825,0.079837,-0.408704,0.223818,-0.460812,-0.113429
-0.101646,0.254804,0.075655,-0.412611,0.228369,-0.458087,-0.111286
-0.098193,0.255619,0.074119,-0.413963,0.230051,-0.457183,-0.110559
-0.089571,0.257548,0.071449,-0.417021,0.233078,-0.455453,-0.109247
-0.084791,0.258803,0.069701,-0.418107,0.23488,-0.454883,-0.1086
-0.077392,0.260822,0.0665,-0.421096,0.23853,-0.452936,-0.107526
-0.072712,0.261876,0.064902,-0.421984,0.240179,-0.452437,-0.106826
-0.062253,0.264646,0.059968,-0.427448,0.246194,-0.448584,-0.105232
-0.058407,0.265625,0.058235,-0.429197,0.248207,-0.447324,-0.104539
-0.048874,0.268135,0.053695,-0.4338,0.253148,-0.443829,-0.10228
-0.0453,0.269073,0.051981,-0.435365,0.254793,-0.442559,-0.101209
-0.034941,0.272068,0.0464,-0.441863,0.261027,-0.437368,-0.098175
-0.031363,0.272968,0.044715,-0.443785,0.263047,-0.435891,-0.097113
-0.021148,0.274823,0.04207,-0.451103,0.267955,-0.43098,-0.09464
-0.016315,0.275815,0.040129,-0.453758,0.271144,-0.429182,-0.093249
-0.010198,0.277055,0.037656,-0.457139,0.275091,-0.426752,-0.091577
-0.005491,0.278136,0.035466,-0.460235,0.278346,-0.424263,-0.090408
0.000337,0.279033,0.033197,-0.462717,0.281501,-0.422112,-0.088928
0.002586,0.279416,0.0323,-0.463608,0.282631,-0.421287,-0.088427
0.008424,0.280782,0.029759,-0.465917,0.28533,-0.419013,-0.087449
0.010745,0.281455,0.028664,-0.46677,0.286254,-0.418073,-0.087198
0.016513,0.283128,0.026015,-0.468835,0.288558,-0.415835,-0.086603
0.018886,0.283725,0.02503,-0.469782,0.289696,-0.414957,-0.086257
0.026899,0.284857,0.024231,-0.475515,0.292763,-0.41102,-0.085155
0.030697,0.285538,0.023019,-0.477346,0.295228,-0.409771,-0.084366
0.035746,0.286592,0.02113,-0.479819,0.298266,-0.407784,-0.083175
0.039505,0.287566,0.019365,-0.4817,0.300219,-0.405892,-0.082129
0.04569,0.289354,0.016098,-0.484804,0.303087,-0.402349,-0.080175
0.048173,0.290116,0.014744,-0.486073,0.304219,-0.400861,-0.079389
0.054463,0.292135,0.011393,-0.489378,0.307238,-0.397134,-0.077568
0.057022,0.293019,0.010018,-0.490789,0.308514,-0.395575,-0.076868
0.063219,0.295109,0.006724,-0.493943,0.311381,-0.391913,-0.075174
0.065544,0.295803,0.005524,-0.494902,0.312279,-0.390649,-0.074515
0.072334,0.296758,0.004588,-0.498689,0.312575,-0.386741,-0.072739
0.07541,0.297373,0.003093,-0.499279,0.313216,-0.385414,-0.071678
0.079453,0.298218,0.001112,-0.499971,0.314006,-0.383633,-0.070836
0.082381,0.298913,-0.000357,-0.500333,0.314468,-0.382323,-0.071005
0.087096,0.300068,-0.002749,-0.500664,0.315015,-0.380217,-0.072167
0.089077,0.300537,-0.003751,-0.500966,0.315398,-0.37924,-0.072495
0.094594,0.301657,-0.006413,-0.502674,0.317341,-0.376201,-0.072038
0.096982,0.302059,-0.007494,-0.503649,0.318459,-0.374814,-0.071511
0.103241,0.303308,-0.01051,-0.506715,0.321628,-0.370701,-0.069626
0.105823,0.304012,-0.011898,-0.508186,0.322858,-0.368717,-0.068705
0.112669,0.305668,-0.01426,-0.512924,0.324051,-0.362905,-0.065897
0.117147,0.307767,-0.017494,-0.51677,0.326712,-0.357814,-0.063768
0.122717,0.310317,-0.021388,-0.520797,0.329553,-0.352182,-0.06112
0.127223,0.312467,-0.02439,-0.524036,0.331979,-0.347796,-0.059278
0.135159,0.31648,-0.029596,-0.529829,0.336428,-0.340041,-0.056293
0.138347,0.318101,-0.031619,-0.532061,0.338193,-0.337023,-0.055195
0.146009,0.321789,-0.036165,-0.536788,0.342111,-0.330444,-0.052892
0.149009,0.323159,-0.037823,-0.538418,0.343546,-0.328123,-0.05214
0.156552,0.326637,-0.041864,-0.542297,0.347044,-0.322581,-0.050378
0.15964,0.328145,-0.043523,-0.5439,0.348472,-0.320316,-0.049625
0.168344,0.331684,-0.045745,-0.549078,0.349996,-0.314284,-0.048069
0.173203,0.334393,-0.048394,-0.551598,0.352183,-0.310762,-0.046968
0.179688,0.337652,-0.051667,-0.554897,0.355266,-0.306276,-0.044877
0.184535,0.339555,-0.053763,-0.557278,0.357791,-0.303229,-0.042434
0.193016,0.342635,-0.057243,-0.56207,0.363019,-0.297282,-0.037368
0.19627,0.343794,-0.05853,-0.563656,0.364813,-0.295266,-0.035515
0.204326,0.347563,-0.062234,-0.56751,0.368767,-0.289841,-0.032565
0.207477,0.349303,-0.063827,-0.568886,0.370041,-0.287703,-0.031959
0.21538,0.353691,-0.067766,-0.572382,0.373349,-0.282327,-0.030489
0.218609,0.355292,-0.069208,-0.573953,0.375004,-0.280112,-0.02949
0.228116,0.358718,-0.070885,-0.580515,0.379251,-0.272614,-0.025823
0.233189,0.360719,-0.072655,-0.583417,0.382764,-0.269017,-0.023144
0.240153,0.363873,-0.075294,-0.588234,0.388327,-0.262764,-0.019638
0.245079,0.365974,-0.077011,-0.591389,0.392139,-0.258698,-0.017177
0.253152,0.369435,-0.079721,-0.59674,0.398707,-0.251756,-0.013113
0.256351,0.370825,-0.080773,-0.598781,0.401251,-0.24907,-0.011523
0.264395,0.374443,-0.083447,-0.603509,0.407195,-0.242688,-0.007666
0.267639,0.375952,-0.084538,-0.605316,0.409478,-0.240189,-0.006153
0.275652,0.37972,-0.087209,-0.609492,0.414919,-0.234346,-0.002516
0.278696,0.380922,-0.088041,-0.610599,0.416596,-0.232958,-0.001136
0.287484,0.383844,-0.088202,-0.615584,0.419358,-0.227392,0.002026
0.291969,0.385743,-0.08943,-0.617101,0.421699,-0.225452,0.003886
0.297961,0.388314,-0.090955,-0.619385,0.425234,-0.222636,0.006024
0.302504,0.390358,-0.092,-0.621509,0.428468,-0.220109,0.007212
0.310083,0.39384,-0.093562,-0.625386,0.434425,-0.215619,0.008661
0.313078,0.395163,-0.094142,-0.626876,0.436774,-0.213886,0.009246
0.320477,0.39797,-0.095415,-0.630208,0.442353,-0.209981,0.011183
0.323442,0.398883,-0.095806,-0.631492,0.44465,-0.208509,0.012092
0.330574,0.40125,-0.096981,-0.634161,0.449482,-0.205277,0.014362
0.33321,0.402431,-0.097707,-0.63485,0.450654,-0.204261,0.015173
0.340274,0.405512,-0.098201,-0.637098,0.450046,-0.201591,0.016599
0.343622,0.407959,-0.100037,-0.637016,0.449585,-0.200955,0.01748
0.347699,0.411432,-0.102925,-0.63651,0.447969,-0.200006,0.019061
0.350256,0.414239,-0.105594,-0.635671,0.445583,-0.19914,0.020784
0.353845,0.419226,-0.110759,-0.633587,0.439891,-0.197603,0.024272
0.355387,0.421212,-0.112792,-0.63289,0.437845,-0.196839,0.025669
0.360272,0.425626,-0.117032,-0.631869,0.434727,-0.195203,0.028771
0.362532,0.42745,-0.118621,-0.631956,0.434302,-0.193941,0.02991
0.368522,0.431926,-0.12232,-0.632586,0.434111,-0.190584,0.032525
0.370951,0.433782,-0.123764,-0.633026,0.434306,-0.189024,0.03344
0.376995,0.438316,-0.127298,-0.633801,0.435137,-0.186133,0.035217
0.380805,0.441088,-0.129178,-0.634725,0.436075,-0.183909,0.036087
0.385961,0.444437,-0.131425,-0.635925,0.437554,-0.181197,0.037574
0.389829,0.446568,-0.13291,-0.636742,0.438749,-0.179343,0.039243
0.396382,0.449666,-0.135036,-0.638121,0.441123,-0.17647,0.042513
0.399132,0.450847,-0.135749,-0.63871,0.442288,-0.175505,0.043654
0.406631,0.453931,-0.13714,-0.640434,0.446083,-0.173722,0.045252
0.409888,0.455186,-0.13753,-0.641223,0.447961,-0.173266,0.045474
0.418101,0.458613,-0.138476,-0.643797,0.453484,-0.171041,0.045635
0.421299,0.459695,-0.138724,-0.644524,0.455388,-0.170788,0.045832
0.42904,0.461871,-0.13911,-0.64583,0.459453,-0.17117,0.046638
0.433581,0.463029,-0.13928,-0.646535,0.46192,-0.171544,0.047164
0.439666,0.464278,-0.139269,-0.647443,0.465386,-0.172356,0.047874
0.444262,0.465253,-0.139129,-0.648681,0.468834,-0.171917,0.048379
0.452093,0.465873,-0.138263,-0.650036,0.474248,-0.173415,0.049383
0.455142,0.466244,-0.138015,-0.65059,0.476307,-0.173874,0.049651
0.462352,0.468111,-0.138135,-0.652018,0.480715,-0.174117,0.049519
0.465113,0.469154,-0.138401,-0.652614,0.482279,-0.173934,0.049134
0.471706,0.472078,-0.139395,-0.654041,0.485715,-0.173082,0.048255
0.474212,0.473257,-0.139872,-0.654549,0.486887,-0.172661,0.048237
0.480224,0.476057,-0.140712,-0.656005,0.488096,-0.170897,0.049374
0.483409,0.477924,-0.141826,-0.656472,0.48893,-0.169912,0.050436
0.48806,0.480478,-0.143016,-0.657503,0.490939,-0.168546,0.05146
0.492161,0.482441,-0.143474,-0.658793,0.49367,-0.167598,0.051597
0.499595,0.485814,-0.143805,-0.661516,0.499501,-0.165977,0.051266
0.502483,0.487198,-0.143975,-0.662622,0.501792,-0.165184,0.051206
0.508755,0.490801,-0.144998,-0.66502,0.506243,-0.162384,0.05182
0.510954,0.492322,-0.145612,-0.665891,0.507644,-0.160924,0.052277
0.516301,0.496034,-0.147086,-0.668042,0.511107,-0.157262,0.053714
0.518577,0.497386,-0.147476,-0.668944,0.512747,-0.156073,0.05435
0.525114,0.500003,-0.147211,-0.671485,0.517227,-0.154537,0.056225
0.528973,0.501581,-0.147161,-0.672947,0.520481,-0.153741,0.057467
0.533894,0.503787,-0.147255,-0.674841,0.52455,-0.152394,0.059067
0.5371,0.505984,-0.147741,-0.67653,0.527511,-0.149739,0.060088
0.542344,0.509267,-0.148587,-0.678687,0.531495,-0.146743,0.061915
0.544449,0.510515,-0.14886,-0.679559,0.533162,-0.145583,0.062593
0.550103,0.513193,-0.149004,-0.681924,0.538145,-0.143148,0.064048
0.552516,0.514114,-0.14887,-0.682952,0.54045,-0.142304,0.064541
0.558374,0.516307,-0.148497,-0.68542,0.546049,-0.140352,0.065668
0.560469,0.517223,-0.148472,-0.686267,0.547918,-0.139594,0.066113
0.565303,0.519511,-0.14813,-0.688381,0.550526,-0.137526,0.067224
0.567643,0.521053,-0.148538,-0.689197,0.552118,-0.136427,0.067874
0.570888,0.522749,-0.148734,-0.690361,0.554655,-0.135311,0.068655
0.573558,0.523593,-0.148408,-0.691407,0.557224,-0.134856,0.069162
0.578186,0.524455,-0.147358,-0.693232,0.56204,-0.134736,0.069899
0.580034,0.524755,-0.146947,-0.693908,0.563884,-0.134778,0.070154
0.584562,0.525676,-0.146322,-0.695245,0.567707,-0.134936,0.070741
0.586375,0.526056,-0.146163,-0.695669,0.569023,-0.135083,0.07097
0.590744,0.527015,-0.14591,-0.696583,0.571966,-0.135439,0.071338
0.592365,0.527411,-0.145854,-0.696925,0.573042,-0.135491,0.071337
0.596445,0.528391,-0.14493,-0.698538,0.574926,-0.134222,0.070583
0.598494,0.529022,-0.145007,-0.698944,0.576182,-0.134056,0.070044
0.600993,0.529922,-0.145188,-0.699476,0.577705,-0.133592,0.06951
0.602624,0.530697,-0.145422,-0.699875,0.578687,-0.132971,0.069337
0.604975,0.53209,-0.145947,-0.700515,0.580069,-0.131569,0.069266
0.605899,0.532595,-0.146131,-0.70077,0.580635,-0.131005,0.069317
0.608378,0.533523,-0.146346,-0.70145,0.582352,-0.12975,0.069732
0.609388,0.533777,-0.146355,-0.701739,0.583126,-0.129261,0.070043
0.611985,0.534344,-0.146328,-0.702449,0.585108,-0.128131,0.070791
0.613073,0.534612,-0.146344,-0.702713,0.58587,-0.12775,0.070945
0.616201,0.535255,-0.145862,-0.703736,0.58724,-0.126603,0.070829
0.617979,0.53576,-0.145958,-0.704075,0.588316,-0.126217,0.070626
0.620437,0.536426,-0.146075,-0.704495,0.589732,-0.125891,0.07037
0.622337,0.536963,-0.146185,-0.704772,0.590733,-0.125805,0.070219
0.625626,0.537876,-0.146375,-0.705181,0.59235,-0.125926,0.069957
0.626999,0.538154,-0.146389,-0.705348,0.593065,-0.126062,0.069878
0.630693,0.538309,-0.146038,-0.705821,0.595295,-0.126761,0.06984
0.6323,0.538144,-0.145735,-0.706026,0.596365,-0.127237,0.069891
0.636263,0.537764,-0.145014,-0.70654,0.598992,-0.128335,0.070004
0.637688,0.53784,-0.144891,-0.706747,0.599876,-0.128482,0.069977
0.641242,0.53863,-0.144379,-0.707776,0.601082,-0.127631,0.06947
0.642956,0.539453,-0.144696,-0.70809,0.601941,-0.127007,0.069144
0.644921,0.540418,-0.145103,-0.708482,0.602959,-0.125959,0.069043
0.646097,0.540966,-0.145368,-0.708747,0.603616,-0.124996,0.069373
0.647584,0.541744,-0.145825,-0.709149,0.6045,-0.123034,0.070384
0.648081,0.541986,-0.145975,-0.709305,0.604839,-0.122222,0.070838
0.649155,0.542298,-0.146159,-0.709726,0.605817,-0.120192,0.071984
0.64947,0.542285,-0.146158,-0.70991,0.606253,-0.119294,0.072531
0.650216,0.54228,-0.14614,-0.710319,0.607245,-0.117391,0.073642
0.650591,0.542416,-0.146186,-0.710438,0.607539,-0.116969,0.073806
0.652096,0.543141,-0.145983,-0.710943,0.607564,-0.116761,0.073185
0.65292,0.543796,-0.146222,-0.710981,0.607687,-0.117238,0.072495
0.653831,0.544521,-0.146473,-0.711031,0.607842,-0.117789,0.071759
0.654286,0.544851,-0.146565,-0.711086,0.607986,-0.117992,0.071499
0.654794,0.545211,-0.146628,-0.711171,0.608199,-0.118269,0.071272
0.654962,0.545347,-0.146651,-0.711202,0.608269,-0.11838,0.071208
0.655402,0.545794,-0.146764,-0.71127,0.608388,-0.118692,0.071042
0.655565,0.545997,-0.146823,-0.711295,0.608415,-0.118814,0.070998
0.655926,0.546498,-0.146966,-0.711341,0.608444,-0.119187,0.070873
0.656054,0.546677,-0.147011,-0.711351,0.608444,-0.119392,0.070786
0.656327,0.547097,-0.147157,-0.71129,0.608429,-0.120189,0.070376
0.656474,0.547312,-0.147191,-0.711267,0.608373,-0.120712,0.070096
0.656584,0.547555,-0.147206,-0.711265,0.608333,-0.121268,0.069886
0.656565,0.547706,-0.147193,-0.711305,0.608349,-0.12149,0.069938
0.656402,0.547897,-0.14713,-0.711414,0.608423,-0.121665,0.070252
0.656335,0.547946,-0.147094,-0.711456,0.608458,-0.121736,0.070387
0.656266,0.547964,-0.146961,-0.71152,0.608559,-0.122081,0.070632
0.656265,0.547922,-0.146884,-0.711538,0.608616,-0.122268,0.070733
0.656255,0.54781,-0.146712,-0.71156,0.608715,-0.122728,0.070872
0.656227,0.547802,-0.14668,-0.711557,0.608709,-0.122875,0.070833
0.656047,0.547931,-0.146835,-0.711432,0.608616,-0.123191,0.070356
0.655939,0.548027,-0.146905,-0.711383,0.608456,-0.123306,0.069951
0.655758,0.548126,-0.146971,-0.711332,0.608264,-0.123437,0.069563
0.65557,0.54815,-0.14698,-0.711311,0.608149,-0.123507,0.069491
0.655191,0.548151,-0.146964,-0.711292,0.607975,-0.12358,0.069574
0.65506,0.548159,-0.146955,-0.711289,0.607919,-0.123623,0.069607
0.654891,0.548259,-0.146952,-0.711292,0.607831,-0.12382,0.069527
0.654874,0.548328,-0.146956,-0.7113,0.607817,-0.123923,0.069456
0.654874,0.548493,-0.146955,-0.711316,0.6078,-0.124238,0.069251
0.654864,0.548529,-0.146943,-0.711314,0.607786,-0.124389,0.069176
0.654731,0.54859,-0.147064,-0.711162,0.607873,-0.124954,0.068979
0.654704,0.54856,-0.14701,-0.711132,0.607835,-0.125284,0.068863
0.654648,0.548493,-0.146931,-0.711099,0.607795,-0.125655,0.068786
0.654565,0.548406,-0.146863,-0.711083,0.607777,-0.125829,0.068848
0.654389,0.548212,-0.146737,-0.711065,0.60776,-0.126018,0.069076
0.654341,0.548149,-0.146692,-0.711058,0.607757,-0.126105,0.069132
0.654371,0.548113,-0.146627,-0.711032,0.607753,-0.126473,0.068953
0.654435,0.548139,-0.146616,-0.711017,0.607752,-0.126671,0.068764
0.654625,0.548227,-0.146597,-0.710989,0.607765,-0.127158,0.068306
0.654679,0.548246,-0.146581,-0.710986,0.60778,-0.127304,0.068228
0.654756,0.548314,-0.146594,-0.710986,0.607999,-0.127563,0.068388
0.654805,0.548324,-0.146543,-0.711029,0.608093,-0.127635,0.068591
0.654775,0.548257,-0.146509,-0.711006,0.608064,-0.127736,0.068815
0.654624,0.548101,-0.146526,-0.710881,0.607834,-0.127845,0.068932
0.654224,0.547717,-0.146601,-0.710555,0.607221,-0.128034,0.069093
0.654082,0.547574,-0.146636,-0.710432,0.606992,-0.128084,0.069104
0.653935,0.547373,-0.146717,-0.710255,0.606685,-0.128043,0.068849
0.65394,0.547341,-0.146753,-0.710223,0.606639,-0.127957,0.068626
0.653993,0.547273,-0.146831,-0.71016,0.606568,-0.127764,0.068076
0.653998,0.547217,-0.146845,-0.71012,0.606519,-0.12776,0.067959
0.65399,0.546972,-0.14684,-0.709961,0.60638,-0.128012,0.068048
0.653981,0.546796,-0.146803,-0.709864,0.606269,-0.128231,0.068203
0.6539,0.546603,-0.146781,-0.709728,0.606068,-0.128502,0.068301
0.653764,0.546528,-0.146807,-0.709625,0.60586,-0.128658,0.068213
0.653443,0.546466,-0.146889,-0.709444,0.605438,-0.128898,0.067924
0.653302,0.546423,-0.146919,-0.709365,0.605262,-0.128994,0.067804
0.652937,0.54617,-0.146949,-0.709139,0.604814,-0.129235,0.0676
0.652766,0.546017,-0.146953,-0.709033,0.604616,-0.129322,0.067541
0.652399,0.545621,-0.146932,-0.708783,0.604182,-0.129589,0.067394
0.652321,0.545493,-0.146908,-0.708707,0.60407,-0.129738,0.06732
0.652357,0.54524,-0.146791,-0.708585,0.604018,-0.130316,0.067089
0.652462,0.545123,-0.146693,-0.708549,0.60406,-0.130693,0.066933
0.65257,0.545008,-0.1466,-0.708497,0.604077,-0.131128,0.066732
0.652585,0.544976,-0.146582,-0.708446,0.604016,-0.131373,0.066587
0.652575,0.544992,-0.146603,-0.70836,0.603866,-0.131698,0.066349
0.652582,0.544987,-0.14661,-0.708328,0.603817,-0.131803,0.066266
0.652683,0.544848,-0.146574,-0.708255,0.603788,-0.132015,0.066121
0.652747,0.544746,-0.146542,-0.708228,0.603803,-0.132078,0.066089
0.652951,0.544509,-0.146471,-0.708173,0.603878,-0.132176,0.066011
0.653049,0.544465,-0.146463,-0.708162,0.603913,-0.132191,0.065958
0.653392,0.544544,-0.146496,-0.708179,0.603968,-0.132186,0.065681
0.653606,0.544655,-0.146557,-0.708198,0.604037,-0.132125,0.065502
0.653855,0.544698,-0.146588,-0.708226,0.604161,-0.132016,0.065435
0.65398,0.544584,-0.146537,-0.708258,0.604299,-0.131884,0.065662
0.65413,0.544246,-0.146379,-0.708322,0.604581,-0.131605,0.066317
0.654208,0.544118,-0.146323,-0.708337,0.604679,-0.131531,0.066492
0.654596,0.543956,-0.146275,-0.708308,0.604844,-0.131625,0.066221
0.65484,0.543942,-0.14628,-0.708277,0.604897,-0.131777,0.065861
0.65533,0.543899,-0.146327,-0.708163,0.604921,-0.132111,0.064906
0.655365,0.543842,-0.146354,-0.708109,0.604861,-0.132118,0.06468
0.654932,0.543551,-0.14639,-0.707987,0.604362,-0.131614,0.06464
0.654457,0.543349,-0.146476,-0.707866,0.604014,-0.131199,0.064764
0.653925,0.543074,-0.146532,-0.707725,0.603643,-0.130839,0.064823
0.653674,0.542865,-0.146506,-0.707648,0.60349,-0.130785,0.064729
0.653362,0.542501,-0.146383,-0.707548,0.603351,-0.130919,0.064453
0.653271,0.542367,-0.146318,-0.707513,0.603318,-0.131053,0.064293
0.65317,0.542098,-0.146122,-0.707436,0.603298,-0.131684,0.063675
0.653196,0.542014,-0.146015,-0.707415,0.603336,-0.132083,0.063317
0.653229,0.541819,-0.14578,-0.707339,0.603366,-0.133068,0.062485
0.653163,0.541737,-0.145735,-0.707282,0.603288,-0.133326,0.062296
0.652798,0.541468,-0.145702,-0.707073,0.602751,-0.13364,0.062349
0.652462,0.54133,-0.145781,-0.706903,0.602356,-0.133649,0.062532
0.651987,0.541185,-0.145921,-0.706682,0.601812,-0.133558,0.062637
0.65162,0.541131,-0.14606,-0.706529,0.601403,-0.1334,0.062496
0.650954,0.5411,-0.146353,-0.706275,0.600676,-0.132967,0.062078
0.650688,0.541077,-0.146466,-0.706174,0.600391,-0.132786,0.061919
0.650022,0.540918,-0.146686,-0.705921,0.599716,-0.132401,0.061688
0.649738,0.540822,-0.146759,-0.705818,0.599446,-0.132251,0.061632
0.649127,0.540561,-0.146911,-0.705573,0.598846,-0.131929,0.061576
0.648975,0.540467,-0.14696,-0.705488,0.598661,-0.131843,0.061592
0.648894,0.540247,-0.147127,-0.705228,0.598454,-0.131917,0.061782
0.648987,0.540114,-0.147149,-0.705134,0.59836,-0.131965,0.061947
0.649025,0.540006,-0.147207,-0.705045,0.598236,-0.131871,0.062149
0.648937,0.54003,-0.147298,-0.705032,0.598146,-0.131553,0.062272
0.648694,0.540181,-0.147491,-0.705071,0.598015,-0.130791,0.062465
0.648573,0.540209,-0.147557,-0.705067,0.597936,-0.130542,0.062528
0.64823,0.540016,-0.147632,-0.704912,0.59758,-0.130388,0.062644
0.648071,0.53985,-0.147632,-0.7048,0.597381,-0.130481,0.062683
0.647635,0.539397,-0.147614,-0.704497,0.596848,-0.1308,0.0627
0.647453,0.539259,-0.147618,-0.704398,0.596657,-0.130872,0.062652
0.646987,0.539065,-0.147685,-0.70422,0.596292,-0.130861,0.062292
0.646694,0.538983,-0.147718,-0.70414,0.596073,-0.130811,0.062007
0.646249,0.538846,-0.14776,-0.704,0.595709,-0.130836,0.06175
0.645841,0.538714,-0.147789,-0.703852,0.595341,-0.130967,0.061743
0.645074,0.538466,-0.147835,-0.703562,0.594623,-0.131308,0.061904
0.644779,0.53835,-0.147848,-0.703438,0.594336,-0.131461,0.061945
0.644181,0.537999,-0.147851,-0.703138,0.59372,-0.131852,0.061773
0.643988,0.537835,-0.147836,-0.703019,0.593508,-0.13203,0.061614
0.643515,0.537391,-0.147816,-0.702696,0.592945,-0.132439,0.0612
0.643298,0.537207,-0.147834,-0.702546,0.592669,-0.132554,0.061095
0.642583,0.536708,-0.148041,-0.702024,0.591829,-0.132791,0.061039
0.642155,0.536393,-0.148148,-0.701727,0.591238,-0.132819,0.061057
0.641694,0.536025,-0.148297,-0.70137,0.59054,-0.132798,0.061047
0.641468,0.535823,-0.148416,-0.70116,0.590134,-0.132695,0.060981
0.641236,0.535566,-0.148634,-0.700865,0.589578,-0.132409,0.06083
0.64118,0.535461,-0.148713,-0.700747,0.589374,-0.132323,0.060767
0.641098,0.535106,-0.148868,-0.700399,0.588832,-0.132361,0.06065
0.641092,0.534934,-0.148918,-0.700237,0.588601,-0.132465,0.060619
0.641176,0.534527,-0.149014,-0.699875,0.588134,-0.132741,0.060501
0.641258,0.534409,-0.14904,-0.69978,0.58804,-0.132794,0.060409
0.641627,0.534275,-0.149104,-0.69969,0.588171,-0.132777,0.059965
0.641927,0.534244,-0.1491,-0.699718,0.588352,-0.132678,0.05965
0.642305,0.534153,-0.149095,-0.699713,0.588523,-0.132617,0.059391
0.642537,0.533992,-0.149092,-0.699635,0.58853,-0.132674,0.059437
0.642901,0.533652,-0.149083,-0.69945,0.588452,-0.132866,0.059754
0.643059,0.533546,-0.149087,-0.699385,0.588431,-0.13294,0.059844
0.643541,0.533507,-0.149138,-0.699314,0.588501,-0.133048,0.059655
0.643766,0.533572,-0.149173,-0.699315,0.588567,-0.133078,0.059435
0.644333,0.53376,-0.149272,-0.699333,0.588747,-0.1331,0.0589
0.644538,0.533789,-0.149305,-0.699329,0.588804,-0.13308,0.058812
0.645004,0.533695,-0.149325,-0.699313,0.588852,-0.132913,0.059043
0.645247,0.533606,-0.149361,-0.699279,0.588892,-0.132775,0.059309
0.645586,0.533511,-0.149411,-0.699238,0.588956,-0.132619,0.059529
0.645883,0.533473,-0.149448,-0.699215,0.589033,-0.132542,0.059505
0.646405,0.533432,-0.14951,-0.699184,0.589178,-0.132443,0.059295
0.646587,0.533426,-0.149539,-0.699168,0.589218,-0.132409,0.059195
0.646861,0.53344,-0.149647,-0.699103,0.589187,-0.132311,0.058966
0.6469,0.533457,-0.149705,-0.699065,0.589122,-0.132263,0.058856
0.646995,0.533526,-0.149838,-0.698985,0.588975,-0.132193,0.058645
0.647085,0.533565,-0.149869,-0.698974,0.588972,-0.132208,0.058631
0.647496,0.533648,-0.1498,-0.699045,0.589076,-0.132382,0.058868
0.647779,0.533731,-0.149773,-0.699091,0.589234,-0.132553,0.059094
0.648183,0.533912,-0.149758,-0.699178,0.589474,-0.13273,0.059296
0.648507,0.534142,-0.149783,-0.699275,0.589682,-0.132774,0.059301
0.649095,0.534637,-0.149854,-0.699483,0.590086,-0.132775,0.059174
0.649329,0.534824,-0.149877,-0.699561,0.590244,-0.132792,0.059127
0.649887,0.535146,-0.149884,-0.699702,0.590592,-0.132975,0.059153
0.650112,0.535232,-0.149871,-0.699744,0.590722,-0.133095,0.05921
0.650619,0.535414,-0.14983,-0.699829,0.591009,-0.13342,0.059327
0.650776,0.535491,-0.149821,-0.699859,0.591099,-0.133532,0.059319
0.651014,0.535705,-0.149814,-0.69994,0.591235,-0.133692,0.059111
0.651096,0.535831,-0.149824,-0.699972,0.591287,-0.133794,0.058927
0.651221,0.535986,-0.149821,-0.700006,0.591356,-0.134014,0.058701
0.651352,0.536095,-0.149795,-0.700026,0.591422,-0.134297,0.058552
0.651586,0.536261,-0.149728,-0.700047,0.59153,-0.134893,0.058315
0.651676,0.536317,-0.149705,-0.700049,0.591563,-0.135115,0.058247
0.651869,0.536419,-0.149681,-0.700043,0.591607,-0.135501,0.058216
0.651938,0.536446,-0.149679,-0.700036,0.591614,-0.135613,0.058262
0.652094,0.536487,-0.149699,-0.699999,0.591592,-0.135804,0.058385
0.652152,0.536492,-0.149721,-0.699972,0.591562,-0.135843,0.058391
0.652256,0.536471,-0.149867,-0.699836,0.591479,-0.135864,0.058336
0.652324,0.536438,-0.149944,-0.699763,0.591374,-0.135786,0.058248
0.652412,0.536397,-0.150075,-0.699633,0.591176,-0.135698,0.058028
0.652454,0.536378,-0.150212,-0.699491,0.590937,-0.135666,0.057725
0.652508,0.536351,-0.150488,-0.699201,0.590436,-0.135629,0.057053
0.652569,0.536333,-0.150586,-0.699097,0.590275,-0.135612,0.056811
0.652923,0.536253,-0.150733,-0.698938,0.590143,-0.135552,0.05645
0.653131,0.536207,-0.150761,-0.698905,0.590174,-0.135526,0.056369
0.653759,0.536084,-0.150801,-0.698859,0.59036,-0.135437,0.056298
0.654038,0.536037,-0.150819,-0.698846,0.59045,-0.135386,0.056322
0.6548,0.535912,-0.150915,-0.698784,0.590754,-0.135259,0.056632
0.655325,0.535837,-0.150938,-0.698786,0.590958,-0.135128,0.056888
0.656071,0.535772,-0.150975,-0.6988,0.591257,-0.134962,0.057096
0.656689,0.535769,-0.151018,-0.698816,0.591503,-0.13485,0.057066
0.657801,0.535815,-0.151101,-0.698859,0.591958,-0.134672,0.056833
0.658226,0.535833,-0.151125,-0.698881,0.592145,-0.134608,0.056742
0.659139,0.535846,-0.151137,-0.698961,0.59261,-0.134466,0.056654
0.659461,0.53585,-0.151125,-0.699006,0.592806,-0.134412,0.056649
0.660194,0.535821,-0.151076,-0.699106,0.593263,-0.134321,0.056684
0.660465,0.535782,-0.151053,-0.699126,0.593412,-0.134316,0.056711
0.661157,0.535556,-0.150811,-0.699236,0.593585,-0.134321,0.056866
0.661485,0.535403,-0.150758,-0.699206,0.593712,-0.134433,0.056985
0.661872,0.535215,-0.150721,-0.699154,0.593832,-0.134513,0.057032
0.662117,0.535092,-0.150737,-0.699104,0.593875,-0.13445,0.056932
0.66245,0.534899,-0.150812,-0.698997,0.593868,-0.134238,0.056609
0.662568,0.534839,-0.150839,-0.698955,0.593858,-0.134192,0.056469
0.662837,0.534785,-0.15088,-0.698864,0.593826,-0.134344,0.056153
0.662923,0.534807,-0.150898,-0.698826,0.593791,-0.134486,0.056014
0.663149,0.534847,-0.15088,-0.698762,0.593778,-0.13496,0.055735
0.663264,0.534817,-0.150823,-0.698762,0.593848,-0.135175,0.05569
0.663768,0.534506,-0.150295,-0.698963,0.594228,-0.13584,0.055855
0.66404,0.534304,-0.150015,-0.699057,0.594615,-0.136302,0.056033
0.664296,0.534118,-0.14976,-0.699125,0.594946,-0.136794,0.056134
0.664365,0.53411,-0.149731,-0.699103,0.594953,-0.137004,0.056018
0.664337,0.53422,-0.149846,-0.698991,0.594714,-0.137183,0.055635
0.664299,0.53424,-0.149891,-0.698938,0.594602,-0.137239,0.055487
0.664175,0.534075,-0.149863,-0.698826,0.594437,-0.137441,0.055293
0.664098,0.533941,-0.149811,-0.698785,0.594396,-0.137534,0.055264
0.663891,0.533557,-0.149689,-0.698659,0.594261,-0.137729,0.05521
0.66382,0.53342,-0.149673,-0.698592,0.59417,-0.137772,0.055168
0.663769,0.533064,-0.149566,-0.698462,0.59369,-0.137769,0.055016
0.663692,0.532894,-0.149638,-0.698307,0.593439,-0.137725,0.054907
0.663595,0.532658,-0.149743,-0.698089,0.593092,-0.137661,0.054725
0.663546,0.532462,-0.149811,-0.697916,0.592837,-0.137655,0.054523
0.663484,0.532118,-0.149935,-0.697607,0.592389,-0.137652,0.054118
0.663428,0.531992,-0.150002,-0.697485,0.59219,-0.13759,0.053999
0.663089,0.531755,-0.150269,-0.697199,0.591584,-0.137064,0.053987
0.662875,0.531691,-0.150421,-0.697087,0.591289,-0.136695,0.054084
0.662343,0.531528,-0.150772,-0.696827,0.590592,-0.135823,0.054378
0.662199,0.531437,-0.150851,-0.696737,0.59039,-0.135642,0.054452
0.662095,0.531039,-0.150768,-0.696566,0.590075,-0.135775,0.054543
0.662084,0.530799,-0.150685,-0.696471,0.59001,-0.136019,0.054556
0.662068,0.530603,-0.150622,-0.696374,0.589924,-0.136273,0.054515
0.662038,0.530619,-0.150654,-0.696334,0.589839,-0.136324,0.054403
0.661996,0.530826,-0.150768,-0.696314,0.589712,-0.136331,0.054116
0.661978,0.530905,-0.150808,-0.696307,0.589663,-0.136344,0.054028
0.661918,0.530967,-0.150841,-0.696268,0.58955,-0.136482,0.054042
0.66189,0.530966,-0.150835,-0.696252,0.589514,-0.136564,0.054133
0.661814,0.530887,-0.150799,-0.696184,0.5894,-0.136823,0.054358
0.661782,0.530812,-0.150782,-0.696133,0.589331,-0.136946,0.054378
0.661728,0.530449,-0.150675,-0.695927,0.589073,-0.137444,0.05424
0.66168,0.530183,-0.150621,-0.695771,0.588903,-0.137739,0.054077
0.661595,0.529857,-0.150605,-0.69556,0.588639,-0.137962,0.053807
0.661485,0.529668,-0.150675,-0.695399,0.588381,-0.137896,0.053521
0.661259,0.529389,-0.150878,-0.695117,0.58788,-0.137535,0.052937
0.6612,0.52927,-0.150943,-0.695016,0.587715,-0.137407,0.05276
0.661231,0.528886,-0.150941,-0.694826,0.587531,-0.137397,0.052704
0.661301,0.528695,-0.150884,-0.694771,0.587534,-0.137492,0.052822
0.661558,0.528256,-0.150735,-0.694666,0.587616,-0.137716,0.053169
0.661675,0.528137,-0.150714,-0.694634,0.587644,-0.13772,0.053237
0.662125,0.528021,-0.150682,-0.69466,0.587641,-0.137465,0.053155
0.662382,0.528042,-0.150767,-0.694662,0.587709,-0.137202,0.053047
0.662652,0.527969,-0.150853,-0.694624,0.587743,-0.136904,0.052987
0.662739,0.527763,-0.150881,-0.694537,0.587678,-0.13674,0.053073
0.662773,0.527277,-0.150896,-0.694334,0.587482,-0.136516,0.053335
0.662816,0.527097,-0.150891,-0.694263,0.587431,-0.136472,0.053426
0.663178,0.52684,-0.150831,-0.694185,0.587528,-0.136596,0.053474
0.663415,0.526797,-0.150785,-0.694187,0.587647,-0.136748,0.053429
0.664015,0.526714,-0.150673,-0.694204,0.58796,-0.137113,0.05334
0.664188,0.526657,-0.150651,-0.694196,0.588032,-0.137162,0.053374
0.664513,0.526396,-0.150493,-0.694254,0.587905,-0.136854,0.053712
0.664585,0.526249,-0.150534,-0.694203,0.587863,-0.136616,0.053993
0.664678,0.526042,-0.150562,-0.694127,0.587813,-0.136407,0.05427
0.66477,0.525873,-0.150548,-0.69406,0.587787,-0.136414,0.054348
0.664915,0.525569,-0.150492,-0.693934,0.58774,-0.13657,0.054351
0.664959,0.525451,-0.150464,-0.693892,0.58773,-0.136626,0.054339
0.66502,0.525202,-0.15039,-0.693845,0.587771,-0.136625,0.054333
0.665031,0.525121,-0.150354,-0.69385,0.587818,-0.136588,0.054324
0.664998,0.524899,-0.150266,-0.693858,0.587907,-0.13646,0.054315
0.664951,0.524781,-0.150237,-0.693837,0.587898,-0.136411,0.054332
0.664827,0.524314,-0.149941,-0.693861,0.587556,-0.136213,0.054442
0.664635,0.524039,-0.149911,-0.693759,0.587406,-0.136143,0.054538
0.664387,0.523705,-0.149893,-0.693625,0.587194,-0.136014,0.054629
0.664225,0.523509,-0.149913,-0.693533,0.587034,-0.135862,0.05465
0.663961,0.523227,-0.149984,-0.693376,0.586743,-0.13555,0.054636
0.663847,0.523109,-0.150005,-0.693315,0.586629,-0.135441,0.054627
0.663526,0.522751,-0.149989,-0.693168,0.586381,-0.135285,0.05461
0.663386,0.522587,-0.149962,-0.693111,0.586295,-0.135256,0.054601
0.663008,0.522175,-0.149874,-0.692972,0.586078,-0.135245,0.054586
0.662843,0.522025,-0.149841,-0.692916,0.585979,-0.135263,0.05459
0.662508,0.52163,-0.14954,-0.692909,0.585549,-0.135352,0.054646
0.662219,0.521447,-0.149485,-0.692826,0.585378,-0.135473,0.054694
0.6618,0.521205,-0.149435,-0.6927,0.585105,-0.135601,0.054722
0.661442,0.521021,-0.149429,-0.692581,0.584838,-0.135642,0.054699
0.660789,0.52072,-0.149455,-0.692357,0.584321,-0.135666,0.054612
0.660538,0.520599,-0.14946,-0.692271,0.584125,-0.135682,0.054573
0.65998,0.52029,-0.149421,-0.692094,0.583741,-0.135789,0.054493
0.659768,0.520164,-0.149389,-0.692033,0.583613,-0.135853,0.054463
0.65932,0.51985,-0.149298,-0.691899,0.583355,-0.136022,0.054386
0.659192,0.519726,-0.149264,-0.691849,0.583277,-0.136078,0.054354
0.659145,0.519351,-0.149048,-0.691795,0.58309,-0.136265,0.054263
0.659144,0.519162,-0.148989,-0.691739,0.583075,-0.136342,0.054206
0.659078,0.518956,-0.148954,-0.691666,0.583006,-0.136337,0.054146
0.658934,0.518876,-0.148992,-0.691613,0.58288,-0.136193,0.05411
0.658611,0.51882,-0.149125,-0.691528,0.582601,-0.135787,0.054067
0.65848,0.518771,-0.149165,-0.691489,0.582492,-0.135639,0.054071
0.658204,0.518441,-0.149139,-0.691375,0.582304,-0.135469,0.054201
0.658105,0.518237,-0.149084,-0.691324,0.582258,-0.13546,0.05431
0.657862,0.517699,-0.148945,-0.691178,0.582124,-0.135471,0.05454
0.65776,0.517518,-0.148921,-0.691107,0.582033,-0.135459,0.054552
0.657568,0.517126,-0.148825,-0.690966,0.58155,-0.135346,0.054279
0.657404,0.516948,-0.148886,-0.690814,0.581289,-0.135288,0.054031
0.657181,0.516709,-0.148945,-0.690635,0.580981,-0.135206,0.053794
0.656999,0.516511,-0.148953,-0.69053,0.580804,-0.135136,0.053734
0.656685,0.51618,-0.14894,-0.690386,0.580558,-0.13501,0.053745
0.656575,0.516062,-0.148937,-0.690334,0.580467,-0.134966,0.053785
0.656378,0.515843,-0.148962,-0.690203,0.580233,-0.134894,0.053994
0.656325,0.515779,-0.148982,-0.690151,0.580136,-0.134879,0.054134
0.656232,0.51566,-0.149033,-0.690043,0.579931,-0.13485,0.05449
0.656203,0.515622,-0.149044,-0.690015,0.579879,-0.134833,0.054587
0.656262,0.515543,-0.148929,-0.690076,0.579805,-0.134773,0.054714
0.656274,0.515535,-0.148915,-0.690097,0.579848,-0.134734,0.05474
0.656199,0.51548,-0.148916,-0.690077,0.579805,-0.134677,0.054723
0.656037,0.515389,-0.148946,-0.690003,0.579647,-0.134625,0.054648
0.655642,0.515182,-0.149023,-0.689815,0.579247,-0.134526,0.054434
0.655467,0.515082,-0.14905,-0.689733,0.579074,-0.134496,0.054363
0.655023,0.514775,-0.149073,-0.689531,0.578672,-0.134471,0.05435
0.654827,0.514619,-0.149068,-0.689444,0.578505,-0.134475,0.054406
0.654352,0.514253,-0.149049,-0.689237,0.578109,-0.13452,0.054519
0.654193,0.514155,-0.149048,-0.68917,0.577974,-0.134554,0.054496
0.653931,0.514065,-0.149007,-0.689093,0.57767,-0.134699,0.054183
0.653787,0.514078,-0.149022,-0.689048,0.577547,-0.134803,0.053923
0.653582,0.514035,-0.14903,-0.688968,0.577366,-0.134943,0.053666
0.653391,0.513897,-0.149011,-0.688876,0.577197,-0.13506,0.053608
0.653052,0.513581,-0.148958,-0.688695,0.576893,-0.135271,0.053633
0.652936,0.513482,-0.148952,-0.688628,0.576776,-0.135331,0.053636
0.65275,0.513445,-0.149031,-0.688513,0.576516,-0.135339,0.053497
0.65271,0.513501,-0.149097,-0.688483,0.576419,-0.135288,0.053393
0.652661,0.513689,-0.149277,-0.688424,0.576204,-0.135142,0.053152
0.652654,0.513746,-0.149333,-0.688402,0.576134,-0.135115,0.05311
0.652656,0.513825,-0.149465,-0.688303,0.576031,-0.135221,0.0532
0.652692,0.513865,-0.149501,-0.688277,0.575975,-0.135271,0.053307
0.652763,0.513952,-0.149559,-0.688253,0.575915,-0.13532,0.053407
0.652826,0.514059,-0.14962,-0.688246,0.575875,-0.135336,0.053418
0.652961,0.514283,-0.149733,-0.688249,0.575829,-0.135347,0.053386
0.653037,0.514373,-0.149779,-0.688253,0.575824,-0.135341,0.053367
0.653306,0.514564,-0.14989,-0.688268,0.575856,-0.135279,0.053322
0.653441,0.514632,-0.149936,-0.688275,0.575883,-0.135232,0.053301
0.653841,0.5148,-0.15004,-0.688305,0.575997,-0.135115,0.053243
0.654026,0.514872,-0.150074,-0.688325,0.576066,-0.135085,0.053221
0.654484,0.51507,-0.150222,-0.688332,0.576337,-0.135074,0.053156
0.654828,0.515184,-0.150251,-0.688381,0.576501,-0.135069,0.053117
0.655382,0.515377,-0.150273,-0.688484,0.576807,-0.135089,0.053099
0.655907,0.515583,-0.150272,-0.688608,0.577137,-0.135146,0.053119
0.656926,0.515993,-0.150244,-0.688871,0.577819,-0.135289,0.053199
0.657338,0.516141,-0.150231,-0.688975,0.578096,-0.13533,0.053244
0.658289,0.516367,-0.150205,-0.689179,0.578706,-0.135311,0.053401
0.658656,0.516406,-0.150193,-0.689245,0.578933,-0.135263,0.053492
0.659544,0.5165,-0.150171,-0.689406,0.579485,-0.13511,0.05369
0.659883,0.516574,-0.150168,-0.689481,0.579706,-0.135055,0.053722
0.660659,0.516906,-0.15017,-0.689749,0.580232,-0.134754,0.053612
0.6611,0.517136,-0.150197,-0.689893,0.580555,-0.134635,0.0535
0.661747,0.517399,-0.150184,-0.690069,0.581005,-0.134667,0.053415
0.662324,0.517514,-0.150102,-0.690174,0.581377,-0.134959,0.053433
0.663373,0.517637,-0.14989,-0.690325,0.582031,-0.135742,0.053543
0.66377,0.517714,-0.149823,-0.690391,0.582279,-0.13601,0.053601
0.664571,0.518125,-0.149817,-0.690611,0.5828,-0.136191,0.053775
0.664828,0.518373,-0.149873,-0.690719,0.582973,-0.136104,0.053869
0.665435,0.518983,-0.150015,-0.690987,0.583396,-0.135837,0.054078
0.665703,0.519152,-0.15003,-0.691079,0.583585,-0.135819,0.054119
0.666481,0.51936,-0.149891,-0.691311,0.584144,-0.136003,0.054059
0.666958,0.519398,-0.149785,-0.691409,0.584501,-0.136235,0.053981
0.667525,0.519435,-0.149677,-0.691517,0.584906,-0.136461,0.05391
0.667862,0.519456,-0.149643,-0.691572,0.585122,-0.136506,0.053914
0.668327,0.519455,-0.149624,-0.691626,0.585382,-0.13647,0.053963
0.668509,0.519465,-0.149624,-0.691646,0.585477,-0.136452,0.053976
0.669037,0.519586,-0.149627,-0.691728,0.585765,-0.136479,0.053939
0.669275,0.519674,-0.149633,-0.691772,0.585898,-0.13651,0.053899
0.669819,0.519866,-0.149661,-0.691857,0.586173,-0.136571,0.053802
0.669977,0.519891,-0.149677,-0.691862,0.586227,-0.136569,0.053785
0.670194,0.519768,-0.149666,-0.691845,0.58611,-0.136345,0.053829
0.670231,0.519643,-0.149716,-0.691761,0.586006,-0.136226,0.05388
0.670335,0.51948,-0.149749,-0.691646,0.585896,-0.136231,0.05388
0.670515,0.519353,-0.149722,-0.691557,0.585867,-0.136483,0.05379
0.670891,0.519125,-0.149626,-0.691393,0.58585,-0.137155,0.053546
0.671011,0.519067,-0.149604,-0.691341,0.585839,-0.137363,0.053451
0.671105,0.519133,-0.149687,-0.6913,0.585771,-0.137328,0.053285
0.67108,0.519245,-0.149772,-0.69132,0.585736,-0.137114,0.053229
0.670926,0.519516,-0.149979,-0.691367,0.585615,-0.13658,0.05315
0.670844,0.51955,-0.150014,-0.691356,0.585547,-0.136524,0.053159
0.670596,0.519353,-0.14991,-0.691255,0.585291,-0.136873,0.053395
0.670391,0.519169,-0.149819,-0.691153,0.585128,-0.137242,0.053581
0.670093,0.518984,-0.149721,-0.691015,0.584883,-0.137761,0.05367
0.669833,0.518935,-0.149698,-0.69091,0.584649,-0.138113,0.053541
0.66935,0.518926,-0.149689,-0.690723,0.584204,-0.138749,0.05311
0.669178,0.518935,-0.149668,-0.690661,0.584057,-0.139053,0.052912
0.668909,0.518959,-0.149498,-0.690573,0.583897,-0.140067,0.05242
0.66886,0.518978,-0.149387,-0.690562,0.583907,-0.140583,0.05219
0.668742,0.519027,-0.149096,-0.690551,0.583961,-0.14186,0.051689
0.668654,0.51904,-0.149006,-0.69054,0.583947,-0.142268,0.051579
0.668254,0.519017,-0.148926,-0.690396,0.583795,-0.143184,0.051673
0.667984,0.519019,-0.148865,-0.690368,0.58367,-0.143487,0.051817
0.66772,0.519028,-0.148786,-0.69033,0.583537,-0.143912,0.051909
0.667634,0.519049,-0.148715,-0.690304,0.583489,-0.144312,0.051841
0.667616,0.519095,-0.148602,-0.69026,0.583458,-0.145007,0.051604
0.667643,0.519107,-0.148572,-0.690236,0.583444,-0.145242,0.051486
0.667759,0.519101,-0.148581,-0.690133,0.583346,-0.145588,0.051125
0.667825,0.519086,-0.148618,-0.690072,0.583276,-0.145643,0.050928
0.668101,0.519038,-0.148719,-0.689939,0.583167,-0.145693,0.050524
0.668277,0.519021,-0.148736,-0.689916,0.583197,-0.145715,0.050478
0.668912,0.518934,-0.1488,-0.689847,0.58353,-0.145899,0.050865
0.6694,0.518896,-0.148764,-0.689903,0.583801,-0.145891,0.051209
0.670041,0.518925,-0.148709,-0.689996,0.584182,-0.145975,0.051434
0.670529,0.519074,-0.148665,-0.690096,0.584502,-0.146168,0.051258
0.671362,0.519452,-0.148578,-0.690305,0.585094,-0.146629,0.050633
0.671636,0.519564,-0.148544,-0.690368,0.585285,-0.146797,0.050417
0.671988,0.519515,-0.148483,-0.69037,0.585457,-0.147015,0.050342
0.672004,0.519379,-0.148467,-0.690313,0.585409,-0.147038,0.050467
0.671979,0.519017,-0.148418,-0.690169,0.585273,-0.147081,0.050771
0.672024,0.51895,-0.148385,-0.690157,0.585302,-0.147136,0.050765
0.672374,0.51906,-0.148189,-0.690351,0.585629,-0.14735,0.050265
0.672602,0.519204,-0.148096,-0.690482,0.585931,-0.14754,0.049846
0.67265,0.51962,-0.14806,-0.690902,0.586558,-0.146653,0.049315
0.672676,0.519491,-0.147967,-0.690885,0.58661,-0.146843,0.049281
0.672594,0.519105,-0.147807,-0.690764,0.586542,-0.147177,0.049466
0.672595,0.519003,-0.147756,-0.69074,0.586547,-0.147274,0.049536
0.672873,0.519185,-0.14771,-0.69089,0.586853,-0.147307,0.049469
0.673076,0.519413,-0.147724,-0.691022,0.587072,-0.14724,0.049361
0.673639,0.520013,-0.147759,-0.691378,0.58767,-0.147039,0.049156
0.673836,0.520151,-0.147748,-0.691484,0.587872,-0.146998,0.049184
0.674226,0.520124,-0.147598,-0.691649,0.588244,-0.147002,0.049707
0.674437,0.520019,-0.1475,-0.691706,0.588451,-0.147046,0.050137
0.674783,0.519999,-0.14741,-0.691805,0.58875,-0.147094,0.050493
0.675137,0.520178,-0.147406,-0.691917,0.58901,-0.147118,0.050448
0.675824,0.520646,-0.147456,-0.692132,0.589473,-0.147152,0.05007
0.676081,0.520805,-0.14747,-0.692213,0.589654,-0.147151,0.049936
0.676573,0.520932,-0.147416,-0.692389,0.59009,-0.147061,0.049936
0.676732,0.520904,-0.147367,-0.692458,0.590273,-0.146986,0.050035
0.677038,0.520744,-0.147239,-0.692577,0.590641,-0.146818,0.050312
0.67712,0.520674,-0.147208,-0.692585,0.590709,-0.146799,0.050369
0.677302,0.52042,-0.14704,-0.692552,0.590547,-0.146949,0.050355
0.677306,0.520266,-0.147039,-0.692431,0.590405,-0.147111,0.050299
0.677372,0.519748,-0.146999,-0.691969,0.589831,-0.148274,0.050362
0.677202,0.519682,-0.147096,-0.691897,0.589642,-0.147983,0.05029
0.676767,0.519624,-0.147335,-0.691793,0.589256,-0.147194,0.050138
0.676553,0.51957,-0.147414,-0.691732,0.589073,-0.146942,0.050063
0.675906,0.519211,-0.14747,-0.691462,0.588505,-0.146873,0.049823
0.675584,0.518985,-0.147445,-0.691309,0.588225,-0.147026,0.049703
0.674787,0.518408,-0.147357,-0.690916,0.587525,-0.147533,0.0494
0.674531,0.518237,-0.147339,-0.690787,0.587289,-0.14769,0.049299
0.673988,0.51826,-0.147347,-0.690845,0.587096,-0.147048,0.048933
0.673802,0.518168,-0.147353,-0.690728,0.586875,-0.147236,0.04882
0.67351,0.518059,-0.147405,-0.690579,0.586552,-0.147304,0.048763
0.673358,0.517642,-0.147423,-0.690159,0.585909,-0.148218,0.048999
0.672754,0.517544,-0.14767,-0.689994,0.585354,-0.147538,0.049292
0.672557,0.517512,-0.14775,-0.689938,0.585171,-0.147322,0.049379
0.672326,0.517434,-0.147797,-0.689833,0.584931,-0.147321,0.049302
0.672316,0.517402,-0.147765,-0.6898,0.584905,-0.147497,0.049165
0.672418,0.517363,-0.147655,-0.689759,0.584947,-0.148016,0.048834
0.67249,0.517382,-0.14763,-0.689764,0.584989,-0.148145,0.048793
0.672631,0.51785,-0.147713,-0.69013,0.585549,-0.147209,0.04882
0.672876,0.517984,-0.147712,-0.690217,0.585729,-0.147211,0.049017
0.673155,0.518209,-0.147756,-0.690332,0.58592,-0.147123,0.049305
0.673283,0.518447,-0.147855,-0.690416,0.585988,-0.146917,0.04956
0.67343,0.518927,-0.148094,-0.690564,0.586034,-0.146407,0.050052
0.673499,0.519083,-0.148166,-0.690612,0.586059,-0.146268,0.050203
0.673783,0.519218,-0.148153,-0.69067,0.58622,-0.146427,0.050278
0.673937,0.519182,-0.148079,-0.690671,0.58632,-0.146679,0.050196
0.674308,0.519048,-0.147885,-0.690657,0.586552,-0.147314,0.049957
0.674414,0.519034,-0.147857,-0.690657,0.586606,-0.147422,0.049925
0.67457,0.519174,-0.147979,-0.690675,0.586659,-0.147213,0.050024
0.674787,0.518943,-0.148002,-0.690385,0.5863,-0.148069,0.050294
0.674767,0.518984,-0.148114,-0.690379,0.586222,-0.147729,0.050482
0.67466,0.518878,-0.148149,-0.690332,0.586114,-0.147546,0.05069
0.674354,0.518556,-0.148169,-0.690204,0.585859,-0.147271,0.051112
0.674232,0.518425,-0.148172,-0.690149,0.585757,-0.147189,0.051213
0.674039,0.518203,-0.148181,-0.690032,0.585568,-0.147107,0.051037
0.673991,0.518139,-0.14818,-0.68999,0.585513,-0.14712,0.050807
0.673881,0.51799,-0.148182,-0.689874,0.585361,-0.147203,0.050178
0.673822,0.517922,-0.148189,-0.689816,0.585275,-0.147234,0.050016
0.673618,0.517674,-0.148213,-0.689607,0.584906,-0.147375,0.049871
0.673479,0.517536,-0.148245,-0.689474,0.584675,-0.147441,0.049866
0.673356,0.517433,-0.148289,-0.689357,0.58446,-0.147476,0.049894
0.673331,0.517449,-0.14833,-0.689335,0.584396,-0.147423,0.049928
0.673372,0.517591,-0.148405,-0.689379,0.58441,-0.147253,0.050041
0.67341,0.517665,-0.148419,-0.689417,0.584455,-0.147205,0.050106
0.67358,0.51785,-0.148364,-0.689574,0.584719,-0.147251,0.050352
0.673694,0.517939,-0.148305,-0.689673,0.584905,-0.147322,0.050494
0.673934,0.518155,-0.148158,-0.689903,0.585329,-0.147544,0.050821
0.673957,0.518224,-0.148129,-0.689949,0.585399,-0.147625,0.050891
0.673818,0.518351,-0.148161,-0.689921,0.585246,-0.147806,0.050881
0.673642,0.518405,-0.148214,-0.689849,0.585044,-0.14792,0.050804
0.673337,0.51845,-0.148252,-0.689772,0.584795,-0.148066,0.050686
0.673033,0.518467,-0.148244,-0.689751,0.584655,-0.148134,0.050608
0.672407,0.518456,-0.148192,-0.689735,0.584431,-0.148222,0.050452
0.672167,0.518431,-0.148155,-0.689723,0.584349,-0.148309,0.050364
0.671716,0.518292,-0.147987,-0.689651,0.584191,-0.14884,0.050036
0.671577,0.518202,-0.147886,-0.689611,0.584147,-0.149176,0.049866
0.671103,0.518303,-0.147727,-0.689808,0.584372,-0.148884,0.049231
0.670976,0.518224,-0.147662,-0.689757,0.584304,-0.149131,0.049021
0.670634,0.518092,-0.14768,-0.689549,0.584165,-0.149609,0.048364
0.670463,0.518009,-0.14767,-0.689453,0.584002,-0.149776,0.04795
0.67019,0.517906,-0.147713,-0.689315,0.583718,-0.149835,0.04758
0.669896,0.517837,-0.147816,-0.689192,0.583403,-0.149683,0.04753
0.669328,0.517737,-0.148079,-0.688967,0.582766,-0.149175,0.047703
0.669149,0.517695,-0.148171,-0.688889,0.582553,-0.148988,0.04778
0.669163,0.517222,-0.14816,-0.68846,0.581989,-0.149951,0.047953
0.669033,0.517491,-0.14823,-0.688758,0.582339,-0.148828,0.047784
0.669246,0.517345,-0.148176,-0.688731,0.582437,-0.148904,0.047708
0.669348,0.517317,-0.148189,-0.688709,0.582444,-0.1489,0.04769
0.669643,0.517379,-0.148434,-0.688547,0.582404,-0.148859,0.047676
0.669887,0.517437,-0.148563,-0.688476,0.582322,-0.14878,0.047679
0.670183,0.517485,-0.148709,-0.688418,0.582272,-0.148586,0.047707
0.670365,0.517474,-0.148782,-0.68842,0.582314,-0.148318,0.047775
0.670635,0.517417,-0.148872,-0.688476,0.582465,-0.147727,0.047935
0.670734,0.5174,-0.148901,-0.688499,0.582528,-0.147521,0.047969
0.670979,0.51742,-0.148962,-0.688526,0.582636,-0.147268,0.047848
0.671082,0.517448,-0.148982,-0.68853,0.582671,-0.147247,0.047723
0.671273,0.517527,-0.149012,-0.688539,0.582739,-0.147271,0.047395
0.671294,0.517549,-0.149014,-0.688546,0.582756,-0.147276,0.047318
0.67133,0.51726,-0.148916,-0.688282,0.582499,-0.148365,0.047456
0.671186,0.517267,-0.14888,-0.688314,0.582503,-0.148369,0.047506
0.670968,0.517269,-0.148856,-0.688312,0.58243,-0.148427,0.04751
0.670799,0.517263,-0.148868,-0.688252,0.582277,-0.148545,0.04744
0.670472,0.51724,-0.148918,-0.688085,0.581902,-0.148826,0.047249
0.670327,0.517235,-0.14894,-0.688023,0.581752,-0.148921,0.047148
0.669936,0.517263,-0.14898,-0.687946,0.581488,-0.148982,0.046789
0.669767,0.517293,-0.148994,-0.687943,0.581419,-0.148941,0.046586
0.669309,0.517343,-0.149026,-0.687922,0.581215,-0.148853,0.046134
0.66911,0.517328,-0.149037,-0.687881,0.581085,-0.148878,0.046044
0.668326,0.517475,-0.149239,-0.68788,0.580958,-0.14814,0.046068
0.667961,0.517324,-0.149245,-0.687713,0.580597,-0.148368,0.046252
0.667528,0.517199,-0.149259,-0.687528,0.58018,-0.148658,0.046324
0.667268,0.517225,-0.149283,-0.687448,0.579958,-0.148832,0.046131
0.667073,0.517045,-0.149243,-0.687049,0.579336,-0.150245,0.045707
0.66694,0.517082,-0.149254,-0.687011,0.579228,-0.150364,0.045491
0.666599,0.516927,-0.149213,-0.686829,0.5789,-0.150781,0.04518
0.666458,0.516776,-0.149169,-0.686723,0.578747,-0.151006,0.045111
0.666173,0.516405,-0.149067,-0.686482,0.578419,-0.151489,0.045014
0.666113,0.516334,-0.149055,-0.68643,0.578341,-0.151573,0.044993
0.665889,0.516775,-0.149346,-0.686663,0.578729,-0.150359,0.044843
0.665964,0.516897,-0.149419,-0.686712,0.57877,-0.150151,0.04487
0.666129,0.517034,-0.149492,-0.686794,0.578885,-0.149879,0.044963
0.666319,0.517096,-0.149508,-0.686871,0.579043,-0.149709,0.045083
