wangss533/urdfTest/left_arm_joints.csv
left_arm_joint1,left_arm_joint2,left_arm_joint3,left_arm_joint4,left_arm_joint5,left_arm_joint6,left_arm_joint7
0.291562,0.352685,-0.156756,-0.597861,0.376097,-0.032486,0.087467
0.291922,0.352242,-0.15654,-0.597529,0.375889,-0.033593,0.087756
0.29231,0.351715,-0.156285,-0.597126,0.375621,-0.034939,0.088002
0.292497,0.351399,-0.156146,-0.596865,0.375411,-0.035805,0.088022
0.292684,0.350966,-0.155968,-0.596486,0.375066,-0.037067,0.087856
0.292745,0.350793,-0.155883,-0.596352,0.374961,-0.037544,0.087774
0.29293,0.350296,-0.155548,-0.596076,0.374888,-0.038729,0.087629
0.293009,0.350085,-0.155373,-0.595997,0.374939,-0.039181,0.08757
0.293582,0.349365,-0.154794,-0.595622,0.374915,-0.041543,0.087458
0.293611,0.349131,-0.154642,-0.595506,0.374891,-0.041972,0.087437
0.293574,0.348446,-0.154309,-0.595061,0.374557,-0.043197,0.087559
0.29352,0.348021,-0.154137,-0.594759,0.374285,-0.043923,0.087657
0.293506,0.347563,-0.15396,-0.594446,0.374024,-0.044632,0.08762
0.293593,0.347373,-0.153891,-0.594342,0.373987,-0.044842,0.087365
0.293829,0.347217,-0.153859,-0.594299,0.374071,-0.044821,0.086696
0.293899,0.347134,-0.153842,-0.594269,0.374085,-0.044817,0.086443
0.293883,0.346697,-0.153716,-0.594028,0.373915,-0.045112,0.086088
0.293816,0.346453,-0.153641,-0.593884,0.373788,-0.04531,0.086028
0.293591,0.345794,-0.153449,-0.593483,0.373407,-0.04584,0.085904
0.293507,0.345547,-0.153389,-0.593328,0.373251,-0.046023,0.085813
0.293311,0.344935,-0.153271,-0.592934,0.372841,-0.046413,0.085458
0.293187,0.344581,-0.153219,-0.592696,0.372578,-0.046622,0.085206
0.293011,0.34419,-0.153188,-0.59241,0.372226,-0.046865,0.084878
0.292887,0.343992,-0.153205,-0.592232,0.371968,-0.047019,0.084613
0.292675,0.343782,-0.153291,-0.591979,0.371536,-0.047226,0.084157
0.292561,0.343706,-0.153327,-0.591884,0.37136,-0.047289,0.084031
0.29212,0.34346,-0.153387,-0.591637,0.37089,-0.047363,0.084026
0.291879,0.343346,-0.153405,-0.591537,0.370687,-0.047351,0.084138
0.29127,0.343096,-0.153442,-0.591309,0.370204,-0.047347,0.084497
0.291072,0.343031,-0.153452,-0.591235,0.370042,-0.047403,0.084605
0.290748,0.342989,-0.153475,-0.591104,0.369734,-0.047711,0.08479
0.290596,0.343006,-0.15348,-0.591048,0.369589,-0.047966,0.084879
0.290334,0.343014,-0.153458,-0.59098,0.369407,-0.048342,0.084973
0.290082,0.343002,-0.153402,-0.590946,0.369308,-0.048652,0.085007
0.289598,0.342972,-0.153265,-0.590908,0.369183,-0.049233,0.085019
0.289355,0.342941,-0.153218,-0.59087,0.369085,-0.049466,0.085041
0.288518,0.342744,-0.153176,-0.590622,0.368526,-0.050019,0.085242
0.288081,0.342611,-0.153182,-0.59046,0.368177,-0.050242,0.08538
0.286994,0.342317,-0.153219,-0.590072,0.367311,-0.050756,0.085705
0.286651,0.342275,-0.153232,-0.589983,0.367072,-0.050927,0.085773
0.286122,0.342478,-0.153288,-0.59001,0.366857,-0.051202,0.085631
0.285897,0.342679,-0.153322,-0.590093,0.366836,-0.051325,0.085494
0.285504,0.342803,-0.153326,-0.590112,0.366701,-0.051564,0.085564
0.285046,0.342684,-0.15327,-0.58998,0.366415,-0.051869,0.086002
0.28415,0.342282,-0.153114,-0.589627,0.365788,-0.052492,0.087119
0.283831,0.34214,-0.153056,-0.589506,0.365575,-0.052706,0.087479
0.283339,0.342052,-0.152984,-0.58943,0.365372,-0.05298,0.08761
0.283241,0.342102,-0.152975,-0.589475,0.365403,-0.053008,0.087407
0.283082,0.34224,-0.152973,-0.589605,0.365525,-0.052987,0.086782
0.283004,0.34224,-0.152971,-0.589614,0.365519,-0.052975,0.086646
0.282755,0.342055,-0.152974,-0.589492,0.365312,-0.052919,0.086643
0.282611,0.34189,-0.152979,-0.589379,0.365143,-0.052862,0.086737
0.282465,0.341702,-0.152977,-0.589259,0.364973,-0.052789,0.086858
0.282402,0.341605,-0.152963,-0.589208,0.364914,-0.052756,0.086919
0.28236,0.341476,-0.152926,-0.589157,0.364884,-0.052706,0.087029
0.282356,0.341436,-0.152913,-0.589149,0.364889,-0.052665,0.087078
0.282361,0.341369,-0.152899,-0.589159,0.364935,-0.052447,0.087238
0.282371,0.341356,-0.1529,-0.589177,0.364969,-0.052317,0.087323
0.282426,0.341345,-0.152905,-0.589243,0.36509,-0.051961,0.087497
0.282461,0.341344,-0.152904,-0.589274,0.36515,-0.05183,0.087519
0.282568,0.341348,-0.152918,-0.589353,0.3653,-0.051487,0.087416
0.282656,0.34136,-0.152921,-0.589411,0.365415,-0.051294,0.087295
0.282824,0.341392,-0.152881,-0.589517,0.365648,-0.051132,0.087144
0.283028,0.341432,-0.152796,-0.589631,0.365924,-0.051118,0.087047
0.283453,0.341521,-0.15259,-0.589867,0.366507,-0.051229,0.086885
0.283595,0.341562,-0.152506,-0.58996,0.36673,-0.051291,0.086833
0.283727,0.34167,-0.152352,-0.590146,0.36711,-0.051424,0.0868
0.283702,0.341716,-0.15231,-0.590201,0.367196,-0.051478,0.086835
0.283613,0.341845,-0.152176,-0.590368,0.367458,-0.051653,0.086861
0.283618,0.341904,-0.152087,-0.59047,0.36765,-0.051751,0.086788
0.283787,0.342113,-0.151764,-0.590864,0.368432,-0.052041,0.086276
0.283923,0.342244,-0.151524,-0.59114,0.369,-0.052259,0.085877
0.284045,0.342343,-0.151168,-0.591459,0.369705,-0.052645,0.085467
0.284082,0.342319,-0.150861,-0.59163,0.37016,-0.053049,0.085352
0.284081,0.342167,-0.150287,-0.59185,0.370861,-0.053882,0.085333
0.284037,0.342107,-0.150064,-0.591932,0.371115,-0.054218,0.085304
0.283732,0.342066,-0.149627,-0.592157,0.371625,-0.054868,0.085007
0.283529,0.342087,-0.149503,-0.592249,0.371768,-0.055044,0.084828
0.282979,0.342109,-0.149128,-0.592483,0.372166,-0.05563,0.084286
0.282798,0.342064,-0.148888,-0.592581,0.372408,-0.056044,0.08404
0.282492,0.341792,-0.147972,-0.592891,0.373369,-0.057586,0.08333
0.282348,0.341552,-0.147308,-0.593068,0.374017,-0.058784,0.082852
0.282111,0.341184,-0.14646,-0.593178,0.37466,-0.060615,0.082203
0.281892,0.340845,-0.145862,-0.593105,0.374895,-0.062276,0.081691
0.281422,0.340214,-0.144907,-0.592818,0.375027,-0.06529,0.080799
0.281131,0.340025,-0.144611,-0.592728,0.375045,-0.06621,0.080471
0.280472,0.339622,-0.144022,-0.592414,0.374681,-0.06871,0.079849
0.279955,0.339662,-0.144003,-0.592427,0.374551,-0.068807,0.079651
0.278409,0.339948,-0.144089,-0.592697,0.374423,-0.06803,0.079201
0.278016,0.339896,-0.143944,-0.592698,0.374359,-0.068516,0.079035
0.276451,0.340107,-0.143673,-0.593428,0.3751,-0.067049,0.078702
0.275638,0.340134,-0.143378,-0.593834,0.375618,-0.06661,0.078501
0.27493,0.33995,-0.142787,-0.594068,0.376083,-0.067697,0.077978
0.274268,0.339939,-0.142366,-0.594325,0.376534,-0.068219,0.077201
0.27324,0.339896,-0.14149,-0.594768,0.377244,-0.0695,0.075484
0.272844,0.339815,-0.141136,-0.594838,0.377451,-0.070351,0.074814
0.271534,0.339487,-0.140331,-0.594882,0.377662,-0.072247,0.073534
0.270906,0.339291,-0.140025,-0.594828,0.377615,-0.073019,0.073137
0.269253,0.338851,-0.139282,-0.594738,0.377511,-0.074805,0.072142
0.268614,0.338768,-0.138994,-0.594799,0.377594,-0.075374,0.071659
0.26713,0.338857,-0.138266,-0.595315,0.378303,-0.076332,0.070018
0.266238,0.339019,-0.137852,-0.595733,0.378848,-0.076716,0.068967
0.264924,0.339236,-0.137391,-0.596196,0.379335,-0.077203,0.067919
0.263737,0.339374,-0.137195,-0.596358,0.379274,-0.077576,0.067637
0.261557,0.339626,-0.137027,-0.59649,0.378793,-0.078134,0.067689
0.260758,0.339728,-0.1369,-0.596603,0.378746,-0.078361,0.067642
0.259269,0.339995,-0.136188,-0.597317,0.379652,-0.078932,0.066769
0.258834,0.340118,-0.135785,-0.597749,0.380346,-0.079124,0.06619
0.25793,0.340351,-0.134578,-0.598928,0.382412,-0.079805,0.064606
0.257584,0.340376,-0.134036,-0.599358,0.383228,-0.080259,0.064045
0.256723,0.340308,-0.132585,-0.600361,0.385229,-0.081654,0.062972
0.256268,0.340165,-0.131595,-0.600937,0.386494,-0.082765,0.062359
0.255789,0.339774,-0.130033,-0.601624,0.388286,-0.084917,0.061281
0.255581,0.339279,-0.128603,-0.602087,0.389793,-0.087148,0.060228
0.255411,0.338136,-0.125853,-0.602745,0.392471,-0.091799,0.058136
0.255317,0.337615,-0.124711,-0.602926,0.393458,-0.093919,0.057147
0.254761,0.336205,-0.121977,-0.602967,0.395471,-0.099858,0.054069
0.254501,0.335474,-0.120802,-0.602748,0.396029,-0.102849,0.052549
0.25361,0.333833,-0.117931,-0.602352,0.397297,-0.109722,0.04873
0.253189,0.333381,-0.116899,-0.602345,0.397842,-0.11203,0.047449
0.252,0.332913,-0.114749,-0.602812,0.399432,-0.11638,0.044829
0.251151,0.332955,-0.113672,-0.603329,0.400481,-0.118283,0.043554
0.249763,0.333261,-0.112392,-0.604246,0.401956,-0.120173,0.042281
0.248488,0.333725,-0.111578,-0.605177,0.403166,-0.120918,0.041793
0.246015,0.334913,-0.110478,-0.6071,0.405314,-0.121137,0.041653
0.244947,0.335397,-0.110038,-0.607849,0.406117,-0.121287,0.041612
0.242086,0.336347,-0.108775,-0.609323,0.407671,-0.122727,0.041132
0.240812,0.336676,-0.108249,-0.609798,0.408116,-0.123563,0.040889
0.237681,0.337391,-0.106793,-0.610909,0.409242,-0.126086,0.040062
0.236583,0.337628,-0.106114,-0.611382,0.409845,-0.12723,0.03959
0.234511,0.338094,-0.10407,-0.612712,0.412005,-0.130579,0.037878
0.2334,0.338303,-0.102728,-0.613533,0.413466,-0.132742,0.036665
0.231509,0.338497,-0.101016,-0.614501,0.415081,-0.135498,0.03518
0.229619,0.338654,-0.099905,-0.615119,0.415878,-0.137277,0.034335
0.225942,0.338821,-0.09816,-0.615979,0.416746,-0.140096,0.033118
0.224363,0.3387,-0.097361,-0.616195,0.41698,-0.141479,0.032541
0.220247,0.337824,-0.094903,-0.616663,0.417793,-0.145209,0.030515
0.2187,0.336786,-0.093439,-0.616243,0.417577,-0.148497,0.029577
0.214027,0.334778,-0.090305,-0.61601,0.417938,-0.153618,0.026806
0.211927,0.333765,-0.089017,-0.615565,0.417619,-0.156194,0.025592
0.205676,0.330993,-0.086154,-0.613694,0.416089,-0.162795,0.022134
0.201641,0.328755,-0.084069,-0.611883,0.414165,-0.168089,0.019875
0.196093,0.326247,-0.081476,-0.610046,0.412086,-0.173705,0.016827
0.191974,0.324404,-0.079439,-0.608653,0.41053,-0.178168,0.014579
0.184911,0.321825,-0.076255,-0.606907,0.408425,-0.184226,0.010765
0.181983,0.320723,-0.074934,-0.60603,0.407381,-0.186973,0.00929
0.174315,0.318143,-0.071782,-0.6038,0.404511,-0.193562,0.005878
0.171128,0.317213,-0.070596,-0.602923,0.403277,-0.196049,0.004625
0.162823,0.314545,-0.067365,-0.60019,0.399698,-0.203177,0.001482
0.159406,0.313372,-0.065936,-0.599112,0.398285,-0.205997,0.000113
0.150386,0.309691,-0.061779,-0.595622,0.394188,-0.214397,-0.00356
0.144655,0.307105,-0.058978,-0.593018,0.391397,-0.22021,-0.005892
0.136912,0.303801,-0.055243,-0.589806,0.388072,-0.227386,-0.009199
0.130976,0.301167,-0.052214,-0.587196,0.385553,-0.233151,-0.011845
0.120682,0.296218,-0.046485,-0.582133,0.380763,-0.243922,-0.01654
0.116394,0.294111,-0.044053,-0.579826,0.378588,-0.248528,-0.01849
0.105154,0.288802,-0.037956,-0.573434,0.37245,-0.260208,-0.023454
0.100436,0.286689,-0.035523,-0.570683,0.369762,-0.264851,-0.025476
0.088586,0.281468,-0.029331,-0.563817,0.363273,-0.276183,-0.030776
0.084003,0.279319,-0.026619,-0.561196,0.360847,-0.280684,-0.033055
0.072756,0.274132,-0.01995,-0.5548,0.355977,-0.291754,-0.039172
0.066292,0.271043,-0.015725,-0.551361,0.353447,-0.298012,-0.043057
0.05782,0.266808,-0.009893,-0.546786,0.350364,-0.306319,-0.048328
0.051881,0.263643,-0.005452,-0.543804,0.348808,-0.312138,-0.052375
0.041878,0.25775,0.002757,-0.538044,0.345969,-0.322924,-0.059358
0.038286,0.255927,0.005432,-0.536774,0.345539,-0.32576,-0.061996
0.027045,0.250459,0.012882,-0.529999,0.340695,-0.335721,-0.068212
0.022238,0.248313,0.01577,-0.526951,0.338224,-0.339664,-0.070514
0.00917,0.242797,0.023277,-0.517891,0.330455,-0.350297,-0.076249
0.003969,0.240878,0.026029,-0.514568,0.327448,-0.353966,-0.078589
-0.010339,0.23602,0.033283,-0.504522,0.318218,-0.364157,-0.084865
-0.019432,0.233149,0.03783,-0.497943,0.311887,-0.370384,-0.088724
-0.031438,0.229579,0.043677,-0.489605,0.303689,-0.377925,-0.093628
-0.040118,0.227197,0.047662,-0.48411,0.298039,-0.382629,-0.096975
-0.054918,0.223284,0.054371,-0.474658,0.288196,-0.390327,-0.102286
-0.060221,0.222047,0.056582,-0.471878,0.285075,-0.392457,-0.1043
-0.073497,0.218707,0.062698,-0.464341,0.277202,-0.398465,-0.109603
-0.079004,0.217195,0.065543,-0.460818,0.273736,-0.401347,-0.11185
-0.092117,0.213734,0.072174,-0.452985,0.266045,-0.407647,-0.117227
-0.097476,0.212305,0.074966,-0.449713,0.262837,-0.410246,-0.119246
-0.111856,0.208408,0.082776,-0.440075,0.253515,-0.417802,-0.123688
-0.12072,0.205998,0.087772,-0.433956,0.247686,-0.422531,-0.126243
-0.133389,0.202371,0.09556,-0.424467,0.239175,-0.429846,-0.130371
-0.142357,0.199734,0.101341,-0.418147,0.233814,-0.434728,-0.134137
-0.157042,0.19529,0.111137,-0.408097,0.225585,-0.442453,-0.140735
-0.163706,0.193319,0.115947,-0.402906,0.221529,-0.446315,-0.144146
-0.181084,0.188549,0.127908,-0.389662,0.210338,-0.455507,-0.151192
-0.187979,0.186762,0.132537,-0.384666,0.205953,-0.458795,-0.153892
-0.207495,0.182003,0.146297,-0.369178,0.192316,-0.468568,-0.160892
-0.214893,0.180305,0.151475,-0.363655,0.187325,-0.471925,-0.163576
-0.236583,0.17565,0.167871,-0.345565,0.170894,-0.482562,-0.170595
-0.251053,0.172868,0.179596,-0.332911,0.158982,-0.48962,-0.174999
-0.269117,0.169794,0.194464,-0.317921,0.144175,-0.497549,-0.180847
-0.284614,0.167628,0.208402,-0.304146,0.130021,-0.504489,-0.185797
-0.314195,0.164309,0.23907,-0.276842,0.098682,-0.517254,-0.195078
-0.32521,0.163129,0.252193,-0.267343,0.085546,-0.521358,-0.19882
-0.356148,0.159093,0.302969,-0.241102,0.035088,-0.532031,-0.209941
-0.366013,0.156299,0.33066,-0.235167,0.008334,-0.534632,-0.21506
-0.344411,0.032614,0.740526,-0.40602,-0.37429,-0.46942,-0.283388
-0.34642,0.037567,0.72697,-0.398796,-0.360365,-0.47552,-0.282902
-0.35295,0.051888,0.688044,-0.377788,-0.320969,-0.490965,-0.28128
-0.35732,0.059461,0.666317,-0.365944,-0.299029,-0.500334,-0.280868
-0.364247,0.069866,0.63565,-0.349478,-0.268782,-0.512149,-0.279692
-0.369807,0.076445,0.61506,-0.338479,-0.248914,-0.520296,-0.278823
-0.380563,0.087905,0.577954,-0.319095,-0.214006,-0.532949,-0.276445
-0.385124,0.092083,0.563782,-0.31163,-0.200786,-0.537905,-0.275599
-0.395851,0.100663,0.531134,-0.295597,-0.170175,-0.54995,-0.274167
-0.400571,0.10438,0.516475,-0.288674,-0.1565,-0.554653,-0.273333
-0.411428,0.111873,0.482948,-0.27417,-0.125162,-0.566019,-0.271997
-0.41596,0.11544,0.466195,-0.267732,-0.109493,-0.570626,-0.271207
-0.424761,0.121819,0.429375,-0.256617,-0.074634,-0.58163,-0.270654
-0.428504,0.125418,0.40374,-0.251998,-0.050156,-0.587652,-0.270161
-0.430297,0.128163,0.373352,-0.251486,-0.020858,-0.594267,-0.269965
-0.428742,0.129516,0.349078,-0.255327,0.002717,-0.597932,-0.269544
-0.423572,0.129698,0.318584,-0.267266,0.032609,-0.602228,-0.269755
-0.421167,0.129493,0.308549,-0.273084,0.042468,-0.603192,-0.269902
-0.41701,0.12872,0.290111,-0.286739,0.060399,-0.604322,-0.270493
-0.417131,0.128283,0.286372,-0.290414,0.063827,-0.604961,-0.271034
-0.417149,0.127432,0.27646,-0.300461,0.072714,-0.60515,-0.271767
-0.418294,0.127041,0.274315,-0.303191,0.074244,-0.605483,-0.272058
-0.421406,0.126329,0.268861,-0.31004,0.077606,-0.605425,-0.271926
-0.425013,0.125832,0.267988,-0.312132,0.076915,-0.605798,-0.27184
-0.429654,0.125103,0.266585,-0.315139,0.076327,-0.605958,-0.271687
-0.43279,0.124473,0.265045,-0.317857,0.076523,-0.605668,-0.271527
-0.436193,0.123526,0.259857,-0.324761,0.079659,-0.603703,-0.270766
-0.438111,0.123063,0.258725,-0.326705,0.079978,-0.603346,-0.270679
-0.442228,0.121939,0.25559,-0.331848,0.081283,-0.602887,-0.27085
-0.443566,0.121496,0.254152,-0.334084,0.08208,-0.602794,-0.271034
-0.445024,0.120628,0.248234,-0.341963,0.086527,-0.601633,-0.271276
-0.446489,0.120197,0.247024,-0.344017,0.087038,-0.601699,-0.271567
-0.450659,0.119203,0.244398,-0.348662,0.087549,-0.601991,-0.272405
-0.453278,0.118607,0.242967,-0.351308,0.087672,-0.60229,-0.27298
-0.456541,0.1177,0.241008,-0.355061,0.088246,-0.602852,-0.273752
-0.457081,0.117127,0.237404,-0.360328,0.091411,-0.602305,-0.273988
-0.460613,0.115594,0.235118,-0.365546,0.093296,-0.603552,-0.275045
-0.461938,0.114971,0.234113,-0.367716,0.094086,-0.604088,-0.275403
-0.465084,0.113459,0.231208,-0.373288,0.095762,-0.605458,-0.275884
-0.466292,0.112847,0.229927,-0.375566,0.096334,-0.606034,-0.275896
-0.467745,0.111613,0.224894,-0.383266,0.099592,-0.606528,-0.275731
-0.46888,0.111074,0.223644,-0.385542,0.100191,-0.607183,-0.276043
-0.471504,0.109976,0.220434,-0.391299,0.101857,-0.608799,-0.277554
-0.472901,0.109392,0.218411,-0.394919,0.103083,-0.609747,-0.278729
-0.472987,0.108806,0.213833,-0.402236,0.107169,-0.609851,-0.279953
-0.474023,0.107995,0.211754,-0.406489,0.109354,-0.610762,-0.281124
-0.475361,0.106521,0.208119,-0.414214,0.11385,-0.612163,-0.283111
-0.475975,0.105924,0.206737,-0.417266,0.115567,-0.612837,-0.283873
-0.476889,0.10478,0.202288,-0.426022,0.120372,-0.614148,-0.285294
-0.478188,0.104191,0.201447,-0.42836,0.121161,-0.615431,-0.285974
-0.481562,0.102687,0.1994,-0.434161,0.122992,-0.618811,-0.287572
-0.482774,0.102064,0.198448,-0.436671,0.123898,-0.62008,-0.288159
-0.485182,0.100421,0.195521,-0.443764,0.126954,-0.622882,-0.2894
-0.486564,0.099414,0.193681,-0.448156,0.128869,-0.62452,-0.29007
-0.488925,0.098114,0.191601,-0.453446,0.130766,-0.626967,-0.291065
-0.489934,0.097542,0.188971,-0.458652,0.132924,-0.627987,-0.291547
-0.494972,0.095986,0.187853,-0.462923,0.132652,-0.632167,-0.293111
-0.49695,0.095386,0.187402,-0.46469,0.132666,-0.633775,-0.293829
-0.50102,0.094006,0.185774,-0.470166,0.134139,-0.637134,-0.296022
-0.502379,0.093508,0.184961,-0.4727,0.135187,-0.638256,-0.297068
-0.505705,0.092284,0.182991,-0.479099,0.138034,-0.640955,-0.2997
-0.507185,0.091762,0.182368,-0.481443,0.138993,-0.642134,-0.300625
-0.511192,0.090362,0.181208,-0.486809,0.141006,-0.645446,-0.302578
-0.513742,0.089495,0.180697,-0.489807,0.142069,-0.647514,-0.303612
-0.517367,0.088351,0.180194,-0.493524,0.143254,-0.650155,-0.30491
-0.520287,0.087496,0.179947,-0.496088,0.143928,-0.652028,-0.305797
-0.525434,0.08608,0.17976,-0.500003,0.144752,-0.655027,-0.307123
-0.527527,0.085545,0.17974,-0.501482,0.145051,-0.656135,-0.307675
-0.532577,0.084384,0.179687,-0.505198,0.146036,-0.658541,-0.309299
-0.534495,0.083995,0.179638,-0.506737,0.146558,-0.659365,-0.310029
-0.539419,0.083065,0.179673,-0.510266,0.147646,-0.661232,-0.31183
-0.541568,0.082663,0.179828,-0.511395,0.147812,-0.661949,-0.312472
-0.547394,0.081654,0.180591,-0.513399,0.147446,-0.663689,-0.313971
-0.551037,0.081032,0.18118,-0.514308,0.146958,-0.664654,-0.314756
-0.555903,0.080077,0.181954,-0.515558,0.146346,-0.665807,-0.315482
-0.559512,0.0792,0.182467,-0.516659,0.146026,-0.666525,-0.315582
-0.565469,0.07757,0.183244,-0.518618,0.145584,-0.667518,-0.315208
-0.567814,0.076943,0.18354,-0.519386,0.145406,-0.667907,-0.31514
-0.573553,0.075609,0.184304,-0.521141,0.144944,-0.669023,-0.315831
-0.575796,0.07514,0.18462,-0.52181,0.144793,-0.669512,-0.316381
-0.581116,0.07412,0.185158,-0.52361,0.144429,-0.670647,-0.317889
-0.583085,0.073774,0.185183,-0.524438,0.14425,-0.671005,-0.318383
-0.587478,0.073124,0.184625,-0.526889,0.143734,-0.67157,-0.319278
-0.589852,0.072838,0.184012,-0.528533,0.143415,-0.671785,-0.319731
-0.592937,0.072472,0.183131,-0.530742,0.142977,-0.672103,-0.320385
-0.595329,0.072216,0.182525,-0.532265,0.142504,-0.672392,-0.320946
-0.598035,0.072208,0.180221,-0.536444,0.142871,-0.671867,-0.321613
-0.599456,0.072003,0.179716,-0.537576,0.142678,-0.672128,-0.322041
-0.602248,0.071243,0.17804,-0.541253,0.143211,-0.672864,-0.323153
-0.603103,0.070859,0.177219,-0.543016,0.143765,-0.673166,-0.323605
-0.604847,0.069794,0.174977,-0.547786,0.145582,-0.674108,-0.324811
-0.605462,0.069353,0.174063,-0.549728,0.146362,-0.674623,-0.325344
-0.606688,0.068151,0.171689,-0.554788,0.148596,-0.676342,-0.326813
-0.607274,0.067394,0.170217,-0.557918,0.150062,-0.67755,-0.327765
-0.60812,0.066452,0.168307,-0.561942,0.151848,-0.679199,-0.329109
-0.608895,0.065846,0.166968,-0.564761,0.152964,-0.680482,-0.330205
-0.610266,0.064929,0.164814,-0.569263,0.154615,-0.68272,-0.332162
-0.610761,0.064557,0.163912,-0.571073,0.155273,-0.683543,-0.332925
-0.611498,0.063518,0.161291,-0.575987,0.157274,-0.685114,-0.334686
-0.611554,0.063072,0.160075,-0.578155,0.158267,-0.685559,-0.335368
-0.610604,0.062469,0.155897,-0.585055,0.161613,-0.685407,-0.336479
-0.611207,0.062031,0.155049,-0.586512,0.161844,-0.686004,-0.336962
-0.613844,0.061065,0.153564,-0.588754,0.160747,-0.68785,-0.337703
-0.615861,0.060514,0.152951,-0.589556,0.159499,-0.689059,-0.337967
-0.61861,0.059703,0.152304,-0.590614,0.158065,-0.690612,-0.338346
-0.620634,0.059002,0.151931,-0.591517,0.157358,-0.691714,-0.338693
-0.624132,0.057738,0.15156,-0.592946,0.156405,-0.693497,-0.339263
-0.625535,0.057222,0.151454,-0.593535,0.156121,-0.694153,-0.339488
-0.62895,0.055937,0.15119,-0.595207,0.155763,-0.69553,-0.340036
-0.63029,0.055408,0.151097,-0.595956,0.155777,-0.695981,-0.340243
-0.633649,0.054131,0.150959,-0.597773,0.155891,-0.697022,-0.340769
-0.635014,0.053669,0.150957,-0.598398,0.155865,-0.697458,-0.340999
-0.638548,0.052612,0.151189,-0.599557,0.155537,-0.69869,-0.341606
-0.640664,0.052053,0.151381,-0.600166,0.155306,-0.699418,-0.341996
-0.643313,0.05145,0.151476,-0.601201,0.155162,-0.700192,-0.342582
-0.645097,0.051146,0.151325,-0.602313,0.155288,-0.700537,-0.343075
-0.647787,0.050865,0.150819,-0.604534,0.155772,-0.700827,-0.343983
-0.648798,0.050788,0.150597,-0.605418,0.155974,-0.700924,-0.344377
-0.65114,0.050628,0.150075,-0.607433,0.156397,-0.701253,-0.345487
-0.65195,0.05061,0.149825,-0.608253,0.156605,-0.701377,-0.345997
-0.653976,0.050556,0.14929,-0.610066,0.156942,-0.70177,-0.347222
-0.654907,0.050485,0.149188,-0.610584,0.156895,-0.702003,-0.347619
-0.657553,0.050219,0.149231,-0.611328,0.156281,-0.702829,-0.348422
-0.659245,0.050003,0.14938,-0.61152,0.15569,-0.703424,-0.348778
-0.661532,0.049597,0.149644,-0.611603,0.154757,-0.70424,-0.349032
-0.66325,0.049134,0.149874,-0.611538,0.153935,-0.704854,-0.34892
-0.666142,0.048178,0.150341,-0.611183,0.152339,-0.705924,-0.34836
-0.667292,0.047829,0.150548,-0.61101,0.151697,-0.706357,-0.348205
-0.670138,0.047277,0.151118,-0.610552,0.150178,-0.707463,-0.348476
-0.671277,0.047158,0.151378,-0.610319,0.149556,-0.707935,-0.348791
-0.673996,0.046938,0.151983,-0.609899,0.148242,-0.709008,-0.349725
-0.67499,0.04683,0.152167,-0.609898,0.147916,-0.709332,-0.350048
-0.677138,0.046581,0.152393,-0.610451,0.147708,-0.709742,-0.350702
-0.678295,0.046418,0.152457,-0.610998,0.147857,-0.709863,-0.351069
-0.679873,0.046051,0.152626,-0.611717,0.148165,-0.71015,-0.351581
-0.68111,0.045595,0.152869,-0.612195,0.148486,-0.710548,-0.352003
-0.683195,0.044617,0.153381,-0.613008,0.149226,-0.711374,-0.352733
-0.684065,0.044215,0.153593,-0.613325,0.149503,-0.711712,-0.353019
-0.686459,0.043303,0.154108,-0.614018,0.14989,-0.712474,-0.353673
-0.687518,0.042945,0.154325,-0.614245,0.149933,-0.712763,-0.353911
-0.690108,0.042101,0.154825,-0.614886,0.1501,-0.71348,-0.354525
-0.691012,0.041805,0.154975,-0.615246,0.150302,-0.713768,-0.354802
-0.692783,0.041208,0.155135,-0.616549,0.151287,-0.714439,-0.355534
-0.693705,0.040903,0.155177,-0.617446,0.152026,-0.714849,-0.356018
-0.695096,0.040471,0.155356,-0.618476,0.152896,-0.715517,-0.356796
-0.696434,0.040122,0.155705,-0.618939,0.153307,-0.716175,-0.35757
-0.698909,0.039522,0.15648,-0.619451,0.15382,-0.717447,-0.359079
-0.699812,0.039252,0.15672,-0.619767,0.154121,-0.717948,-0.359634
-0.701391,0.038406,0.156775,-0.621398,0.155551,-0.718984,-0.360522
-0.701786,0.037994,0.156603,-0.622359,0.156375,-0.71932,-0.360682
-0.702714,0.036977,0.156136,-0.624778,0.15844,-0.720232,-0.361176
-0.703224,0.036643,0.156074,-0.625515,0.159073,-0.720709,-0.3616
-0.704971,0.036032,0.156329,-0.626642,0.160085,-0.722343,-0.363506
-0.706143,0.035748,0.156598,-0.627086,0.160498,-0.723439,-0.364896
-0.707587,0.035387,0.156873,-0.627717,0.16103,-0.724707,-0.366485
-0.708501,0.035122,0.156967,-0.628279,0.161448,-0.725425,-0.367304
-0.709865,0.034724,0.157026,-0.629236,0.16209,-0.726382,-0.368331
-0.710389,0.034567,0.157019,-0.629645,0.16235,-0.726714,-0.368709
-0.711649,0.034175,0.156891,-0.630844,0.163127,-0.727442,-0.369773
-0.712097,0.034029,0.156781,-0.631409,0.163503,-0.727666,-0.370221
-0.713343,0.033617,0.156531,-0.632735,0.164294,-0.72822,-0.371255
-0.713986,0.033408,0.156501,-0.633127,0.164443,-0.728496,-0.371596
-0.71598,0.032696,0.156571,-0.63375,0.164311,-0.729379,-0.372136
-0.717363,0.03222,0.156702,-0.633949,0.16402,-0.729964,-0.372376
-0.719359,0.031679,0.15704,-0.634028,0.163557,-0.73071,-0.372844
-0.72094,0.031424,0.157436,-0.633954,0.163208,-0.73126,-0.373459
-0.723778,0.031143,0.158318,-0.633577,0.162518,-0.732158,-0.374716
-0.725004,0.031007,0.158732,-0.633349,0.162183,-0.732442,-0.375132
-0.728321,0.030426,0.159872,-0.632645,0.161202,-0.732795,-0.375597
-0.729735,0.030115,0.160369,-0.632323,0.160778,-0.732811,-0.375611
-0.735036,0.028724,0.163202,-0.629163,0.158033,-0.734026,-0.375819
-0.736732,0.028436,0.163912,-0.628489,0.157265,-0.733996,-0.375634
-0.741612,0.027816,0.166162,-0.625984,0.154518,-0.733908,-0.374882
-0.74474,0.027487,0.16767,-0.62422,0.152604,-0.73382,-0.374277
-0.748619,0.027095,0.169497,-0.622192,0.150358,-0.73366,-0.373425
-0.751197,0.02686,0.170633,-0.621081,0.149036,-0.733445,-0.372679
-0.755133,0.026548,0.172286,-0.619642,0.147204,-0.732991,-0.371303
-0.756557,0.026411,0.172873,-0.619184,0.146624,-0.732877,-0.370879
-0.759576,0.025961,0.174104,-0.618401,0.145715,-0.732942,-0.370517
-0.760537,0.025755,0.174471,-0.618282,0.145602,-0.733063,-0.370595
-0.762787,0.025178,0.175353,-0.618038,0.145467,-0.733617,-0.371134
-0.763791,0.024918,0.175794,-0.617803,0.145306,-0.733958,-0.371433
-0.766652,0.024177,0.177212,-0.61668,0.144482,-0.735244,-0.372551
-0.768452,0.023684,0.178153,-0.615871,0.143911,-0.736198,-0.37338
-0.770776,0.022999,0.179342,-0.614981,0.143345,-0.737431,-0.374369
-0.772429,0.022458,0.180149,-0.614537,0.143151,-0.738286,-0.374981
-0.773621,0.022046,0.179986,-0.616058,0.14448,-0.738404,-0.37542
-0.774719,0.021641,0.180521,-0.615832,0.144443,-0.738992,-0.375716
-0.777367,0.020649,0.181751,-0.615429,0.144424,-0.740299,-0.376094
-0.778291,0.020282,0.182108,-0.615482,0.144563,-0.740666,-0.376055
-0.781281,0.019144,0.183667,-0.614653,0.144205,-0.742253,-0.376161
-0.780997,0.019244,0.1829,-0.616303,0.145354,-0.741696,-0.37587
-0.783174,0.018587,0.183696,-0.616312,0.145401,-0.743084,-0.37625
-0.784091,0.018388,0.183812,-0.616787,0.145712,-0.743689,-0.3765
-0.786568,0.017772,0.185202,-0.615668,0.144948,-0.745591,-0.377501
-0.78765,0.017696,0.185522,-0.615857,0.14514,-0.746353,-0.378387
-0.789491,0.017704,0.186125,-0.616059,0.145425,-0.747697,-0.380332
-0.790205,0.017711,0.186338,-0.616163,0.145525,-0.748209,-0.381021
-0.791893,0.017607,0.18677,-0.616555,0.145662,-0.749387,-0.382012
-0.792637,0.017518,0.186988,-0.6166,0.145613,-0.74993,-0.382233
-0.796151,0.016688,0.189071,-0.614494,0.143855,-0.752573,-0.382946
-0.797422,0.016411,0.189727,-0.613877,0.143257,-0.753409,-0.383064
-0.800612,0.015818,0.191161,-0.612509,0.141649,-0.755053,-0.382795
-0.804462,0.014767,0.193884,-0.609107,0.138805,-0.757555,-0.383052
-0.807248,0.014033,0.195348,-0.607626,0.137288,-0.759131,-0.382924
-0.808551,0.013563,0.195817,-0.607437,0.137001,-0.759943,-0.382898
-0.810042,0.012783,0.196087,-0.607869,0.137268,-0.761038,-0.382963
-0.810543,0.012494,0.196133,-0.608118,0.137456,-0.761444,-0.383054
-0.811788,0.011885,0.196286,-0.608629,0.137834,-0.762486,-0.383525
-0.812221,0.011675,0.196314,-0.608866,0.138028,-0.762903,-0.383814
-0.813224,0.01123,0.196355,-0.609447,0.138501,-0.763863,-0.38463
-0.813634,0.011084,0.19639,-0.609623,0.138626,-0.76419,-0.38494
-0.814801,0.010823,0.1966,-0.609819,0.138682,-0.764874,-0.385748
-0.815463,0.010721,0.196721,-0.609896,0.138661,-0.765201,-0.386224
-0.816047,0.010613,0.196713,-0.610162,0.13876,-0.765534,-0.386708
-0.816141,0.01056,0.196483,-0.610593,0.138989,-0.765642,-0.386837
-0.815841,0.010533,0.195823,-0.611587,0.13956,-0.765626,-0.3868
-0.815666,0.010517,0.195562,-0.61198,0.139831,-0.76566,-0.386852
-0.815399,0.01041,0.195214,-0.61262,0.14047,-0.766159,-0.387558
-0.815338,0.010355,0.195174,-0.612753,0.140703,-0.766502,-0.388037
-0.814913,0.010176,0.194957,-0.613281,0.141576,-0.767339,-0.389296
-0.814492,0.010088,0.194686,-0.613763,0.14218,-0.767526,-0.389681
-0.811101,0.010218,0.191936,-0.617941,0.145997,-0.766371,-0.389816
-0.810537,0.009646,0.191833,-0.618345,0.146923,-0.767012,-0.390354
-0.808483,0.009621,0.190458,-0.620546,0.14921,-0.766535,-0.390648
-0.807551,0.009705,0.190047,-0.62124,0.150184,-0.766492,-0.391124
-0.80553,0.010376,0.188948,-0.622841,0.152055,-0.765763,-0.391783
-0.805493,0.01045,0.189224,-0.622487,0.152066,-0.765938,-0.392179
-0.80491,0.011007,0.189214,-0.622632,0.152587,-0.765178,-0.392427
-0.804679,0.011359,0.189095,-0.622784,0.152823,-0.764552,-0.392314
-0.804702,0.012042,0.189382,-0.622536,0.152808,-0.763306,-0.391995
-0.804668,0.012272,0.189451,-0.622531,0.152878,-0.762911,-0.391833
-0.80505,0.012564,0.190037,-0.622031,0.152774,-0.762648,-0.391427
-0.804973,0.01279,0.190073,-0.622216,0.153034,-0.762353,-0.39102
-0.805531,0.012744,0.190771,-0.621557,0.152715,-0.762668,-0.390786
-0.805462,0.012776,0.190795,-0.621668,0.152904,-0.762664,-0.390543
-0.805293,0.012714,0.190713,-0.621896,0.153278,-0.762857,-0.390216
-0.805284,0.012669,0.190735,-0.621921,0.153352,-0.762984,-0.390176
-0.805354,0.012671,0.190804,-0.62194,0.153461,-0.763189,-0.390368
-0.805464,0.012676,0.190877,-0.621868,0.153435,-0.763291,-0.390573
-0.805721,0.012765,0.191029,-0.621699,0.153343,-0.76352,-0.391204
-0.805791,0.012842,0.191073,-0.621641,0.1533,-0.763605,-0.39145
-0.805913,0.013186,0.191146,-0.621488,0.153109,-0.763824,-0.392118
-0.805955,0.013444,0.191175,-0.621396,0.152978,-0.76395,-0.392534
-0.805803,0.013793,0.191078,-0.621504,0.15302,-0.763971,-0.392942
-0.805442,0.014058,0.190834,-0.621867,0.153306,-0.76381,-0.393083
-0.804645,0.014485,0.190324,-0.622653,0.15399,-0.763422,-0.393153
-0.804362,0.014622,0.19017,-0.622917,0.154257,-0.763292,-0.393159
-0.803966,0.014798,0.190113,-0.623206,0.154783,-0.76319,-0.393212
-0.803898,0.014805,0.190198,-0.623216,0.154979,-0.76322,-0.393238
-0.803772,0.014804,0.190448,-0.623162,0.155384,-0.763284,-0.393218
-0.80369,0.014842,0.190495,-0.623157,0.155484,-0.763249,-0.393148
-0.803348,0.015055,0.190408,-0.623225,0.155529,-0.762955,-0.392686
-0.803124,0.01522,0.190312,-0.623262,0.155473,-0.762714,-0.392338
-0.80291,0.015438,0.190266,-0.623235,0.155401,-0.762426,-0.392048
-0.802833,0.015604,0.190317,-0.623143,0.155375,-0.762241,-0.392084
-0.802811,0.015891,0.190501,-0.622889,0.155326,-0.761957,-0.392396
-0.802847,0.015987,0.190621,-0.622749,0.155297,-0.761884,-0.392495
-0.803115,0.016113,0.191115,-0.622238,0.155163,-0.761913,-0.392409
-0.803311,0.016119,0.19141,-0.621948,0.15508,-0.762014,-0.392272
-0.8038,0.01612,0.192128,-0.621255,0.154883,-0.762286,-0.391893
-0.803917,0.016146,0.192315,-0.621079,0.154839,-0.762334,-0.391793
-0.803919,0.016306,0.192409,-0.621047,0.154892,-0.762173,-0.391648
-0.803836,0.016426,0.192357,-0.621139,0.154962,-0.762024,-0.391611
-0.803794,0.016563,0.192389,-0.621109,0.154965,-0.761996,-0.391651
-0.803898,0.016635,0.192582,-0.62084,0.154813,-0.762231,-0.391806
-0.804182,0.016725,0.193051,-0.620161,0.15441,-0.762881,-0.392215
-0.80425,0.016754,0.193214,-0.619933,0.154299,-0.763106,-0.392341
-0.80406,0.016803,0.193345,-0.619856,0.154487,-0.763237,-0.392333
-0.803857,0.016805,0.193306,-0.620002,0.154746,-0.763146,-0.39222
-0.803325,0.016836,0.1932,-0.620308,0.155294,-0.762917,-0.391899
-0.803186,0.016886,0.193213,-0.62026,0.155301,-0.762926,-0.391823
-0.803192,0.017081,0.193508,-0.619468,0.154508,-0.763388,-0.391694
-0.803273,0.017242,0.19375,-0.61879,0.153786,-0.76377,-0.391683
-0.80312,0.017557,0.193889,-0.618157,0.153104,-0.764015,-0.391877
-0.802575,0.017945,0.193677,-0.618158,0.153058,-0.763797,-0.392321
-0.801291,0.018752,0.193057,-0.618527,0.153353,-0.763066,-0.393405
-0.800862,0.019033,0.192877,-0.6186,0.153422,-0.762804,-0.39375
-0.800417,0.019428,0.192896,-0.618231,0.153114,-0.762529,-0.393836
-0.800432,0.01949,0.193051,-0.617909,0.152838,-0.762528,-0.393606
-0.80065,0.019554,0.193572,-0.616996,0.152106,-0.762583,-0.392921
-0.80071,0.019592,0.193751,-0.616703,0.151912,-0.762557,-0.392768
-0.800689,0.019743,0.194059,-0.616312,0.151873,-0.762247,-0.392841
-0.800679,0.019831,0.194231,-0.616144,0.151943,-0.762019,-0.392969
-0.800825,0.019909,0.194539,-0.615754,0.151787,-0.761868,-0.392914
-0.801236,0.019903,0.194956,-0.6151,0.15121,-0.762012,-0.392528
-0.801775,0.019952,0.195447,-0.6143,0.150186,-0.762137,-0.391425
-0.801883,0.019985,0.195546,-0.614117,0.149936,-0.762148,-0.39106
-0.80178,0.019996,0.195623,-0.614075,0.150059,-0.762102,-0.390943
-0.801189,0.020105,0.195199,-0.614779,0.150753,-0.761706,-0.391025
-0.800435,0.020162,0.194799,-0.615523,0.151875,-0.76145,-0.391652
-0.800188,0.020229,0.194671,-0.615743,0.152145,-0.761428,-0.391846
-0.800294,0.020386,0.194937,-0.615263,0.151783,-0.762196,-0.392387
-0.800595,0.020473,0.195284,-0.614643,0.151236,-0.762908,-0.392741
-0.800982,0.020554,0.195707,-0.613895,0.150583,-0.763657,-0.393127
-0.801002,0.020629,0.195751,-0.61377,0.150457,-0.763763,-0.393287
-0.800846,0.020766,0.195607,-0.613896,0.150496,-0.763528,-0.393396
-0.800962,0.020772,0.195709,-0.613714,0.150331,-0.763558,-0.393417
-0.801464,0.020784,0.196187,-0.612974,0.149525,-0.763885,-0.393204
-0.801387,0.020911,0.196089,-0.61306,0.149416,-0.763795,-0.392887
-0.803317,0.020536,0.197924,-0.610394,0.147106,-0.765292,-0.392709
-0.803656,0.020568,0.198247,-0.609877,0.146607,-0.765502,-0.39258
-0.80456,0.020759,0.19914,-0.608428,0.145265,-0.76592,-0.392463
-0.805113,0.020901,0.199718,-0.607503,0.144456,-0.766146,-0.392478
-0.80556,0.021082,0.20029,-0.60662,0.143767,-0.766314,-0.392518
-0.805538,0.021216,0.200452,-0.606417,0.143721,-0.766248,-0.392536
-0.805012,0.021463,0.200363,-0.606684,0.144268,-0.765865,-0.392576
-0.804743,0.021552,0.200304,-0.606834,0.144554,-0.765723,-0.392612
-0.804164,0.021693,0.20034,-0.606951,0.145144,-0.765692,-0.392821
-0.803939,0.021714,0.200411,-0.606935,0.145384,-0.765801,-0.392963
-0.803304,0.021776,0.200523,-0.606942,0.145997,-0.765998,-0.393284
-0.803004,0.021836,0.200486,-0.607012,0.146227,-0.765931,-0.393341
-0.801963,0.022097,0.200012,-0.607569,0.146919,-0.765174,-0.393267
-0.801299,0.022292,0.199647,-0.607956,0.147296,-0.76457,-0.393139
-0.800823,0.022535,0.19948,-0.607961,0.147394,-0.764127,-0.39297
-0.800685,0.022769,0.199582,-0.607752,0.147127,-0.764011,-0.392769
-0.801074,0.023146,0.200223,-0.606627,0.146055,-0.764341,-0.39242
-0.80121,0.023254,0.200476,-0.606192,0.145673,-0.764488,-0.392308
-0.801067,0.023304,0.200752,-0.605701,0.145445,-0.764549,-0.392152
-0.800873,0.023243,0.200754,-0.605697,0.145586,-0.764472,-0.392106
-0.800226,0.023059,0.200702,-0.605736,0.146053,-0.764342,-0.392167
-0.799936,0.023033,0.200708,-0.605658,0.146158,-0.7644,-0.392309
-0.79912,0.023095,0.200739,-0.60526,0.146209,-0.76488,-0.393147
-0.798558,0.02318,0.200779,-0.604926,0.146175,-0.765293,-0.393794
-0.797732,0.023337,0.200932,-0.604338,0.146085,-0.765844,-0.394448
-0.797075,0.023469,0.201161,-0.60376,0.145974,-0.766304,-0.394702
-0.795896,0.023743,0.201699,-0.602569,0.145702,-0.76712,-0.394875
-0.795371,0.023899,0.20194,-0.602049,0.145587,-0.76733,-0.394848
-0.79391,0.024472,0.202557,-0.600706,0.145335,-0.767239,-0.394524
-0.793285,0.024767,0.202826,-0.600138,0.145241,-0.766992,-0.394298
-0.791613,0.025591,0.203587,-0.598537,0.144922,-0.766088,-0.393483
-0.790895,0.025931,0.203937,-0.597791,0.144729,-0.765684,-0.393055
-0.789091,0.026737,0.205013,-0.595544,0.143985,-0.764426,-0.391573
-0.787949,0.027258,0.20574,-0.594026,0.143438,-0.763554,-0.390533
-0.786215,0.028118,0.206689,-0.591974,0.142738,-0.762493,-0.389276
-0.784766,0.028955,0.207397,-0.5904,0.142208,-0.76184,-0.388505
-0.782139,0.030582,0.208616,-0.587642,0.141278,-0.760864,-0.387372
-0.780951,0.031244,0.209061,-0.586575,0.140983,-0.760486,-0.38696
-0.777483,0.032744,0.209985,-0.584141,0.140689,-0.759594,-0.386078
-0.77592,0.033293,0.210321,-0.583209,0.140725,-0.759292,-0.385814
-0.772606,0.034505,0.211738,-0.579912,0.140133,-0.759005,-0.385329
-0.771115,0.035121,0.212073,-0.578859,0.139931,-0.758588,-0.384973
-0.76774,0.036913,0.2129,-0.575934,0.138636,-0.757089,-0.38372
-0.765804,0.038042,0.213408,-0.57407,0.137642,-0.756091,-0.382879
-0.763061,0.039402,0.21412,-0.571677,0.136668,-0.755044,-0.381916
-0.760527,0.040356,0.214458,-0.570361,0.136655,-0.754384,-0.381339
-0.756471,0.041683,0.215406,-0.567747,0.136787,-0.753951,-0.380704
-0.754366,0.04225,0.21534,-0.567349,0.137301,-0.753491,-0.380331
-0.748856,0.043428,0.214751,-0.56676,0.138717,-0.752246,-0.379135
-0.74647,0.043805,0.214309,-0.566762,0.139433,-0.7517,-0.378542
-0.74065,0.044646,0.21327,-0.566669,0.141144,-0.750547,-0.377255
-0.73855,0.044999,0.213034,-0.566412,0.141669,-0.750246,-0.376964
-0.733861,0.046016,0.212935,-0.565162,0.142579,-0.749976,-0.377067
-0.732959,0.046118,0.214703,-0.561971,0.141328,-0.751341,-0.377867
-0.729611,0.046785,0.214784,-0.560816,0.141851,-0.751381,-0.377987
-0.727008,0.047141,0.214637,-0.560267,0.142407,-0.751325,-0.377644
-0.722664,0.047564,0.2142,-0.559662,0.143466,-0.751193,-0.376668
-0.721045,0.047709,0.214064,-0.559364,0.143804,-0.751114,-0.376269
-0.717583,0.048063,0.214076,-0.5581,0.144144,-0.750832,-0.375558
-0.71639,0.048183,0.214185,-0.557446,0.144131,-0.750692,-0.375346
-0.713616,0.048512,0.21448,-0.555737,0.143889,-0.750237,-0.374782
-0.712512,0.048686,0.21454,-0.555101,0.143751,-0.750002,-0.374487
-0.709712,0.049206,0.214462,-0.553753,0.143362,-0.749254,-0.373431
-0.708067,0.04958,0.214344,-0.552992,0.143047,-0.74872,-0.372725
-0.705988,0.050196,0.214239,-0.551841,0.14245,-0.747957,-0.371964
-0.704532,0.05081,0.214205,-0.550819,0.141792,-0.747315,-0.371628
-0.702237,0.052024,0.21417,-0.548965,0.140436,-0.74614,-0.371301
-0.701345,0.05249,0.214192,-0.548206,0.139913,-0.745702,-0.371177
-0.699102,0.053415,0.214373,-0.546376,0.138925,-0.744817,-0.370726
-0.698192,0.05372,0.214476,-0.545671,0.138633,-0.744519,-0.370516
-0.696002,0.054411,0.214857,-0.543854,0.137958,-0.74391,-0.369978
-0.695199,0.054681,0.215078,-0.54306,0.137645,-0.743731,-0.369771
-0.693374,0.055291,0.21577,-0.540972,0.136792,-0.743462,-0.369195
-0.692366,0.055645,0.216285,-0.539637,0.136252,-0.7434,-0.368866
-0.691113,0.056206,0.217136,-0.537662,0.135446,-0.743394,-0.368598
-0.690307,0.056732,0.217979,-0.535927,0.134709,-0.743519,-0.368688
-0.689141,0.05773,0.219659,-0.532713,0.13332,-0.743877,-0.369123
-0.688629,0.058143,0.220318,-0.53145,0.132794,-0.743931,-0.369175
-0.687004,0.059148,0.221661,-0.528646,0.131686,-0.743518,-0.368418
-0.686258,0.05955,0.222106,-0.527618,0.131272,-0.743178,-0.367806
-0.685779,0.060161,0.224795,-0.523118,0.128939,-0.743185,-0.366562
-0.685076,0.060539,0.225449,-0.521962,0.12868,-0.742741,-0.366071
-0.683465,0.061409,0.227578,-0.518819,0.128495,-0.741504,-0.365496
-0.682557,0.061918,0.229046,-0.516807,0.128499,-0.740667,-0.365281
-0.681368,0.062658,0.231,-0.514006,0.128237,-0.739509,-0.364666
-0.680546,0.063266,0.232457,-0.511766,0.127677,-0.738658,-0.363779
-0.679319,0.064338,0.234991,-0.50776,0.12631,-0.737188,-0.361863
-0.678796,0.064797,0.235986,-0.506131,0.125712,-0.736526,-0.361071
-0.677227,0.066037,0.2383,-0.502149,0.124328,-0.734522,-0.359304
-0.676533,0.066567,0.239185,-0.500561,0.123782,-0.733583,-0.358643
-0.674813,0.067947,0.241424,-0.496411,0.122168,-0.731165,-0.356971
-0.674179,0.068515,0.242367,-0.494628,0.121345,-0.730258,-0.35626
-0.674942,0.069557,0.247209,-0.486909,0.116307,-0.729743,-0.354883
-0.674404,0.070452,0.249044,-0.483509,0.114176,-0.728693,-0.353721
-0.67333,0.071603,0.251148,-0.479429,0.111789,-0.726994,-0.352163
-0.671944,0.072408,0.252175,-0.477111,0.110804,-0.725218,-0.350974
-0.66905,0.07369,0.253317,-0.473962,0.109912,-0.72178,-0.348974
-0.668031,0.074206,0.253887,-0.472536,0.109343,-0.720588,-0.348212
-0.666665,0.075593,0.256351,-0.467533,0.106152,-0.718897,-0.346475
-0.666511,0.076189,0.257682,-0.46505,0.104258,-0.718644,-0.345824
-0.66793,0.07731,0.263106,-0.456497,0.097371,-0.719564,-0.344747
-0.667713,0.077807,0.264479,-0.454083,0.095605,-0.719499,-0.344221
-0.666377,0.078776,0.267287,-0.449027,0.092449,-0.719285,-0.34305
-0.665334,0.079293,0.268799,-0.446274,0.090922,-0.719191,-0.342433
-0.664179,0.080104,0.271097,-0.442259,0.088528,-0.719082,-0.341717
-0.663287,0.080968,0.272722,-0.439217,0.0867,-0.718804,-0.341199
-0.662065,0.082482,0.276124,-0.433808,0.0829,-0.718348,-0.34055
-0.662609,0.082909,0.278747,-0.43034,0.080093,-0.71877,-0.340535
-0.660762,0.084432,0.281128,-0.425887,0.077221,-0.71753,-0.339544
-0.661708,0.084728,0.284168,-0.421974,0.073967,-0.718045,-0.339578
-0.660382,0.086047,0.287031,-0.417076,0.070498,-0.716709,-0.33847
-0.660212,0.086512,0.288547,-0.414758,0.068691,-0.716279,-0.33793
-0.661012,0.087419,0.293602,-0.40778,0.062729,-0.715514,-0.33613
-0.662593,0.08777,0.298124,-0.402364,0.057614,-0.715537,-0.33512
-0.662329,0.088714,0.30114,-0.398073,0.053865,-0.714151,-0.33347
-0.663969,0.089301,0.306152,-0.392413,0.048374,-0.714359,-0.333184
-0.665857,0.090589,0.313658,-0.38399,0.040124,-0.714196,-0.33291
-0.666005,0.091181,0.315822,-0.381425,0.037678,-0.713681,-0.332573
-0.667801,0.09225,0.323341,-0.373582,0.029524,-0.712743,-0.331449
-0.667862,0.092708,0.32532,-0.371364,0.027309,-0.711829,-0.330623
-0.667963,0.093844,0.330303,-0.365932,0.021796,-0.709349,-0.32839
-0.669815,0.094062,0.335471,-0.361541,0.016467,-0.709356,-0.328039
-0.672165,0.09503,0.345488,-0.353118,0.006217,-0.708115,-0.32659
-0.672757,0.095752,0.350411,-0.34903,0.00117,-0.706891,-0.325527
-0.674849,0.096434,0.359697,-0.342332,-0.008444,-0.705866,-0.324696
-0.674831,0.097222,0.363579,-0.33926,-0.012851,-0.704336,-0.323858
-0.675881,0.09825,0.372671,-0.333194,-0.023047,-0.702352,-0.323128
-0.67583,0.098671,0.375109,-0.331476,-0.026032,-0.701189,-0.322578
-0.677951,0.098682,0.386074,-0.325627,-0.038404,-0.698697,-0.321291
-0.678443,0.098582,0.389284,-0.323951,-0.042289,-0.697306,-0.320384
-0.68127,0.097627,0.40256,-0.31871,-0.057138,-0.694327,-0.31883
-0.681972,0.097443,0.407071,-0.317128,-0.062282,-0.692916,-0.318225
-0.68513,0.096221,0.426221,-0.312693,-0.082666,-0.689821,-0.3181
-0.686212,0.095597,0.436582,-0.311135,-0.093762,-0.687576,-0.318025
-0.686869,0.094545,0.450038,-0.309994,-0.108026,-0.684589,-0.318228
-0.686678,0.09371,0.45895,-0.30971,-0.117415,-0.682464,-0.318611
-0.685499,0.092369,0.472023,-0.309945,-0.131161,-0.679069,-0.319529
-0.685016,0.090591,0.482448,-0.311058,-0.141456,-0.677826,-0.320711
-0.682915,0.089246,0.493456,-0.312342,-0.15333,-0.67411,-0.321005
-0.681981,0.08874,0.497463,-0.312935,-0.157772,-0.672584,-0.320981
-0.679429,0.087502,0.506941,-0.314585,-0.168194,-0.668796,-0.320788
-0.678133,0.085701,0.515477,-0.316617,-0.176529,-0.667325,-0.321504
-0.675063,0.084203,0.525086,-0.318849,-0.185873,-0.663802,-0.321433
-0.673114,0.083304,0.53071,-0.320272,-0.191132,-0.661736,-0.321372
-0.670086,0.080798,0.542572,-0.323831,-0.202371,-0.658829,-0.322027
-0.667958,0.079863,0.548406,-0.325663,-0.208384,-0.65649,-0.32196
-0.664292,0.078332,0.558091,-0.328938,-0.218715,-0.652429,-0.321812
-0.662391,0.076338,0.566043,-0.331894,-0.226529,-0.650794,-0.322514
-0.658549,0.07453,0.575593,-0.335457,-0.236343,-0.647127,-0.322586
-0.656995,0.073773,0.57936,-0.336902,-0.240134,-0.645757,-0.322657
-0.65264,0.070459,0.592458,-0.34219,-0.252831,-0.642404,-0.323598
-0.651055,0.069673,0.59602,-0.343648,-0.256371,-0.641094,-0.32367
-0.647098,0.067643,0.604829,-0.347315,-0.26503,-0.637841,-0.323804
-0.64471,0.066415,0.609967,-0.349496,-0.270055,-0.635934,-0.323884
-0.641057,0.063513,0.619965,-0.353907,-0.279662,-0.633442,-0.324736
-0.638575,0.062539,0.624138,-0.355764,-0.283991,-0.63168,-0.324844
-0.634349,0.061005,0.630671,-0.358715,-0.290936,-0.628857,-0.325099
-0.632672,0.060407,0.633207,-0.35987,-0.293603,-0.627749,-0.32523
-0.628652,0.059036,0.639193,-0.362598,-0.299643,-0.625004,-0.325614
-0.626783,0.057412,0.644268,-0.364956,-0.304372,-0.623921,-0.326387
-0.622825,0.055735,0.650918,-0.368008,-0.31068,-0.621228,-0.327076
-0.621164,0.054787,0.654254,-0.369551,-0.313841,-0.620123,-0.327418
-0.616917,0.052389,0.662623,-0.373489,-0.321733,-0.617346,-0.328132
-0.614478,0.05132,0.66669,-0.37541,-0.325635,-0.615629,-0.328271
-0.611352,0.049947,0.67176,-0.377858,-0.330731,-0.613146,-0.328225
-0.608913,0.047827,0.677967,-0.380879,-0.337056,-0.611024,-0.328485
-0.605594,0.046751,0.682104,-0.383012,-0.342342,-0.607137,-0.327338
-0.603892,0.04478,0.687347,-0.385627,-0.347585,-0.605697,-0.327716
-0.60022,0.043017,0.693156,-0.388462,-0.353273,-0.602744,-0.327601
-0.598693,0.04223,0.695684,-0.38966,-0.355449,-0.601801,-0.327766
-0.594816,0.040321,0.701905,-0.392595,-0.360642,-0.599582,-0.328273
-0.593257,0.039645,0.704213,-0.3937,-0.362661,-0.598611,-0.328395
-0.58894,0.036401,0.713582,-0.398276,-0.371153,-0.596051,-0.32939
-0.586503,0.035366,0.717156,-0.400024,-0.374495,-0.59442,-0.329511
-0.583321,0.033932,0.722082,-0.40247,-0.379331,-0.592147,-0.329688
-0.581059,0.032971,0.725601,-0.404269,-0.383096,-0.590296,-0.329789
-0.577183,0.03007,0.734432,-0.408809,-0.392423,-0.587103,-0.330612
-0.575717,0.029428,0.736734,-0.41001,-0.39501,-0.585853,-0.330619
-0.57184,0.02716,0.743527,-0.413451,-0.401954,-0.583135,-0.330562
-0.570255,0.026263,0.746056,-0.414715,-0.404421,-0.582154,-0.330341
-0.566152,0.022955,0.754661,-0.418999,-0.412581,-0.57996,-0.330523
-0.564633,0.022368,0.756572,-0.419963,-0.414511,-0.579098,-0.330526
-0.560926,0.021396,0.760528,-0.421981,-0.418682,-0.577218,-0.331422
-0.558748,0.021045,0.762483,-0.422995,-0.420859,-0.576177,-0.332176
-0.555742,0.01904,0.768469,-0.426036,-0.426968,-0.574738,-0.333599
-0.553656,0.018265,0.771377,-0.427562,-0.430295,-0.573369,-0.333732
-0.550106,0.014863,0.780835,-0.432397,-0.440236,-0.571049,-0.334548
-0.54879,0.014887,0.781641,-0.432864,-0.441507,-0.57003,-0.3342
-0.545138,0.013018,0.78782,-0.436064,-0.448251,-0.567946,-0.334877
-0.543554,0.011456,0.792043,-0.438194,-0.452485,-0.56729,-0.335724
-0.539747,0.008889,0.799779,-0.442109,-0.460464,-0.565499,-0.337266
-0.538333,0.008245,0.802082,-0.443285,-0.462936,-0.564642,-0.337652
-0.53508,0.00633,0.808614,-0.446609,-0.469945,-0.562151,-0.338779
-0.533234,0.005252,0.812421,-0.448538,-0.474017,-0.560532,-0.339394
-0.530725,0.002629,0.819966,-0.452255,-0.481391,-0.558583,-0.340637
-0.528749,0.001342,0.824044,-0.454193,-0.485036,-0.557278,-0.340959
-0.525408,-0.00073,0.830599,-0.457219,-0.490407,-0.55523,-0.34117
-0.524162,-0.001761,0.833752,-0.45872,-0.493164,-0.55427,-0.341387
-0.521594,-0.004446,0.842618,-0.463084,-0.50199,-0.551009,-0.342481
-0.520806,-0.006471,0.848477,-0.465944,-0.50796,-0.549543,-0.343618
-0.519109,-0.010965,0.862025,-0.472597,-0.522167,-0.545484,-0.345961
-0.51853,-0.013105,0.868121,-0.475487,-0.528409,-0.54391,-0.346787
-0.517347,-0.019599,0.885249,-0.483656,-0.545652,-0.539865,-0.348237
-0.516675,-0.0224,0.893174,-0.487393,-0.553842,-0.537223,-0.348205
-0.516068,-0.028097,0.908042,-0.494189,-0.568509,-0.53435,-0.349723
-0.5155,-0.031621,0.917725,-0.498546,-0.577989,-0.532457,-0.351152
-0.514372,-0.036482,0.931772,-0.504803,-0.591652,-0.529543,-0.353635
-0.514142,-0.039428,0.939596,-0.508194,-0.59908,-0.528631,-0.355201
-0.513006,-0.044455,0.953976,-0.514349,-0.612842,-0.525877,-0.357376
-0.512489,-0.046349,0.959444,-0.516645,-0.618016,-0.52479,-0.358077
-0.511184,-0.050867,0.972741,-0.522163,-0.630668,-0.521978,-0.359676
-0.511061,-0.053742,0.980549,-0.525364,-0.638108,-0.521016,-0.360969
-0.510587,-0.059369,0.997076,-0.532025,-0.654307,-0.517986,-0.363483
-0.509886,-0.061251,1.003725,-0.534717,-0.6612,-0.515711,-0.364158
-0.510063,-0.066335,1.01864,-0.540498,-0.676008,-0.513449,-0.366543
-0.510004,-0.069449,1.028223,-0.54415,-0.685723,-0.511712,-0.367862
-0.510206,-0.074846,1.044847,-0.550334,-0.702673,-0.50901,-0.370148
-0.510403,-0.077019,1.051626,-0.552786,-0.709618,-0.508004,-0.371093
-0.511821,-0.083489,1.071501,-0.55969,-0.72981,-0.506107,-0.374252
-0.512476,-0.08595,1.079273,-0.562301,-0.737821,-0.505444,-0.375491
-0.513911,-0.091203,1.096833,-0.568002,-0.75606,-0.503618,-0.378088
-0.51547,-0.094481,1.107426,-0.571198,-0.766458,-0.50332,-0.379935
-0.459225,0.093889,0.667964,-0.377551,-0.355013,-0.535802,-0.275711
-0.457572,0.098405,0.658548,-0.372706,-0.346432,-0.536105,-0.272852
-0.454978,0.10329,0.648582,-0.367517,-0.337492,-0.53658,-0.26949
-0.453325,0.10801,0.638434,-0.362238,-0.328536,-0.536888,-0.266263
-0.449788,0.114132,0.625291,-0.355542,-0.317168,-0.537456,-0.261511
-0.448356,0.11637,0.620532,-0.353125,-0.31317,-0.537659,-0.259806
-0.445542,0.122805,0.606638,-0.346111,-0.301802,-0.53794,-0.255838
-0.444227,0.124648,0.602957,-0.344295,-0.299142,-0.537984,-0.254863
-0.441691,0.13066,0.590073,-0.337876,-0.289203,-0.538077,-0.251753
-0.44048,0.132687,0.585776,-0.335733,-0.285866,-0.538205,-0.250486
-0.438062,0.139054,0.571445,-0.328446,-0.273965,-0.538784,-0.246081
-0.436975,0.14357,0.560594,-0.323038,-0.26463,-0.539215,-0.242873
-0.435922,0.150051,0.544184,-0.314926,-0.250238,-0.539836,-0.238337
-0.435236,0.154767,0.531685,-0.308712,-0.239069,-0.54036,-0.234981
-0.433525,0.161471,0.512912,-0.299684,-0.221969,-0.541274,-0.229821
-0.432706,0.163847,0.506129,-0.296469,-0.215782,-0.541639,-0.227972
-0.430975,0.170145,0.487955,-0.288012,-0.199482,-0.542518,-0.223574
-0.429995,0.172229,0.481947,-0.28533,-0.194174,-0.542821,-0.222155
-0.427971,0.177945,0.464701,-0.277809,-0.178831,-0.543613,-0.218485
-0.42681,0.179605,0.459682,-0.275653,-0.174304,-0.543924,-0.217336
-0.424664,0.184775,0.442632,-0.268652,-0.158629,-0.544762,-0.214112
-0.422988,0.187284,0.433963,-0.265319,-0.150499,-0.54524,-0.212474
-0.421282,0.191555,0.417641,-0.259512,-0.135124,-0.545979,-0.209392
-0.420299,0.195852,0.398829,-0.25387,-0.117267,-0.546572,-0.205927
-0.416706,0.201219,0.371517,-0.247885,-0.090683,-0.547317,-0.200427
-0.414629,0.203366,0.358818,-0.246277,-0.07821,-0.547375,-0.198043
-0.406889,0.208283,0.324832,-0.245977,-0.04448,-0.546473,-0.192084
-0.403527,0.209421,0.316043,-0.246939,-0.035566,-0.546071,-0.190248
-0.393663,0.211957,0.293775,-0.251612,-0.01264,-0.544276,-0.185768
-0.388842,0.212873,0.284166,-0.254729,-0.002542,-0.543055,-0.184018
-0.379164,0.214112,0.269276,-0.26065,0.013589,-0.540828,-0.180981
-0.374502,0.214509,0.263596,-0.263169,0.019939,-0.539894,-0.17968
-0.367056,0.215164,0.254057,-0.268088,0.030556,-0.537913,-0.177829
-0.361211,0.215644,0.246934,-0.272183,0.038531,-0.536189,-0.176557
-0.353,0.216175,0.23827,-0.277362,0.048372,-0.533923,-0.174999
-0.350449,0.216301,0.236084,-0.278583,0.050881,-0.533384,-0.174501
-0.342265,0.216911,0.227947,-0.283969,0.060007,-0.531004,-0.172612
-0.339698,0.217086,0.225787,-0.285308,0.062383,-0.530417,-0.171884
-0.331761,0.217759,0.218404,-0.290558,0.070579,-0.528075,-0.169809
-0.329118,0.217979,0.216333,-0.291944,0.072921,-0.527476,-0.169167
-0.320973,0.218789,0.209461,-0.297192,0.08096,-0.525205,-0.167603
-0.315854,0.219338,0.205212,-0.300594,0.08599,-0.523717,-0.166723
-0.309667,0.21996,0.200596,-0.304392,0.091383,-0.521996,-0.165643
-0.304145,0.220605,0.195867,-0.308439,0.096681,-0.519989,-0.164658
-0.295686,0.221596,0.1891,-0.314321,0.104051,-0.516908,-0.163142
-0.292638,0.221925,0.186786,-0.316247,0.10653,-0.515862,-0.162496
-0.283643,0.222765,0.179596,-0.322931,0.114569,-0.512269,-0.160215
-0.28068,0.222922,0.177482,-0.324805,0.116929,-0.511219,-0.159247
-0.271733,0.223607,0.170641,-0.331493,0.124694,-0.507525,-0.156409
-0.268542,0.223907,0.168405,-0.333582,0.127167,-0.506372,-0.155339
-0.258668,0.225267,0.160979,-0.341173,0.135463,-0.502271,-0.152189
-0.25307,0.226162,0.156899,-0.345198,0.139944,-0.500084,-0.150328
-0.246779,0.227169,0.15282,-0.348897,0.144298,-0.49803,-0.148352
-0.24187,0.227966,0.149736,-0.351829,0.147717,-0.496362,-0.147283
-0.234464,0.229205,0.145477,-0.355499,0.152371,-0.494211,-0.146086
-0.231776,0.229664,0.143984,-0.356628,0.153856,-0.493499,-0.145596
-0.226114,0.230664,0.140833,-0.358341,0.156131,-0.492146,-0.143863
-0.22333,0.231217,0.138877,-0.359871,0.15762,-0.491023,-0.142872
-0.218976,0.231999,0.136572,-0.360079,0.158136,-0.490322,-0.14074
-0.216898,0.232326,0.135499,-0.360515,0.158806,-0.489915,-0.139955
-0.210712,0.233108,0.132382,-0.362765,0.161981,-0.488458,-0.138243
-0.206664,0.233599,0.13039,-0.364444,0.16433,-0.487474,-0.137279
-0.201292,0.234405,0.127823,-0.366385,0.167158,-0.486368,-0.135937
-0.197382,0.235173,0.126035,-0.367397,0.16881,-0.485829,-0.134819
-0.189853,0.236895,0.122212,-0.370108,0.172417,-0.48437,-0.132707
-0.187143,0.23753,0.120977,-0.370733,0.173455,-0.484046,-0.131939
-0.179949,0.239207,0.117423,-0.372995,0.176611,-0.48268,-0.130223
-0.176839,0.239968,0.115758,-0.374237,0.178129,-0.481879,-0.129605
-0.167334,0.242239,0.110109,-0.37977,0.184027,-0.478339,-0.127766
-0.163963,0.242925,0.108353,-0.381342,0.185908,-0.477347,-0.126995
-0.155075,0.244423,0.103781,-0.385887,0.191284,-0.474495,-0.124634
-0.149532,0.24525,0.100992,-0.388878,0.194819,-0.472638,-0.123083
-0.14096,0.246719,0.096385,-0.394509,0.200996,-0.469168,-0.120868
-0.135474,0.247531,0.094023,-0.397271,0.204615,-0.467686,-0.11956
-0.126191,0.248875,0.090272,-0.401939,0.210923,-0.465363,-0.117494
-0.12256,0.249436,0.088813,-0.403663,0.213272,-0.464486,-0.116685
-0.113877,0.250984,0.08508,-0.407431,0.218245,-0.462276,-0.114589
-0.108983,0.2522,0.082241,-0.411048,0.221838,-0.45979,-0.113595
-0.100447,0.254097,0.078248,-0.414534,0.226109,-0.457342,-0.111486
-0.097106,0.254881,0.07678,-0.415717,0.227685,-0.45655,-0.110772
-0.089064,0.256928,0.07356,-0.41787,0.231086,-0.455282,-0.109435
-0.084286,0.258212,0.071724,-0.418948,0.232977,-0.454699,-0.108778
-0.077575,0.259983,0.069001,-0.420882,0.235897,-0.453518,-0.107797
-0.070984,0.26183,0.065671,-0.424663,0.239979,-0.450873,-0.106802
-0.061498,0.264247,0.061455,-0.428645,0.244924,-0.448087,-0.105342
-0.057678,0.265227,0.059707,-0.430353,0.246943,-0.446849,-0.104649
-0.048342,0.267677,0.055252,-0.434647,0.251724,-0.443574,-0.102411
-0.044533,0.268727,0.053303,-0.436573,0.253696,-0.442023,-0.101301
-0.034126,0.271763,0.047651,-0.443151,0.260029,-0.436745,-0.098255
-0.030417,0.272736,0.045827,-0.44528,0.262245,-0.435093,-0.09717
-0.021354,0.274912,0.04172,-0.450776,0.268242,-0.431135,-0.094617
-0.01617,0.276066,0.03951,-0.453989,0.271849,-0.428892,-0.093176
-0.00989,0.277395,0.036891,-0.457633,0.276016,-0.426239,-0.09148
-0.005744,0.278197,0.035164,-0.459832,0.278562,-0.424487,-0.090393
-0.000146,0.278963,0.033109,-0.46194,0.281395,-0.422659,-0.088949
0.00238,0.279454,0.032083,-0.46328,0.282776,-0.421477,-0.088418
0.00819,0.280807,0.02956,-0.465543,0.285444,-0.419242,-0.087443
0.010513,0.281484,0.028452,-0.466398,0.286382,-0.4183,-0.087191
0.01708,0.283609,0.025113,-0.469777,0.289759,-0.414921,-0.086477
0.019516,0.284244,0.024072,-0.47083,0.290985,-0.413948,-0.086122
0.02579,0.285516,0.021889,-0.473771,0.294788,-0.411773,-0.084985
0.02961,0.286202,0.02068,-0.475637,0.297259,-0.4105,-0.084195
0.034675,0.287256,0.018803,-0.478137,0.300293,-0.408498,-0.083004
0.038436,0.288227,0.017051,-0.480022,0.302233,-0.406607,-0.081961
0.044638,0.290011,0.013802,-0.483156,0.305088,-0.403051,-0.080008
0.047097,0.290753,0.012482,-0.484385,0.306172,-0.401605,-0.079227
0.053259,0.292681,0.009266,-0.487473,0.308984,-0.398089,-0.077426
0.055745,0.293516,0.00796,-0.48876,0.31015,-0.396649,-0.076737
0.062571,0.295997,0.004173,-0.493003,0.313853,-0.391983,-0.07496
0.06491,0.296695,0.002976,-0.493987,0.314755,-0.390699,-0.074301
0.070338,0.297977,0.000327,-0.495584,0.316267,-0.388105,-0.072432
0.073421,0.298577,-0.001131,-0.496186,0.31687,-0.38678,-0.071374
0.077475,0.299402,-0.003064,-0.496898,0.317612,-0.385,-0.070536
0.080413,0.300085,-0.004501,-0.497278,0.318044,-0.383685,-0.070708
0.085151,0.301223,-0.006848,-0.49765,0.318551,-0.381561,-0.071874
0.087147,0.301686,-0.00783,-0.497977,0.318919,-0.380571,-0.072203
0.092724,0.302798,-0.010431,-0.499788,0.320825,-0.377468,-0.071749
0.095131,0.303189,-0.011472,-0.500794,0.321907,-0.37607,-0.071226
0.101443,0.304447,-0.014461,-0.503952,0.325075,-0.371893,-0.069342
0.103999,0.305139,-0.01584,-0.505379,0.326283,-0.369953,-0.068423
0.110253,0.307351,-0.019872,-0.509265,0.329028,-0.364363,-0.065485
0.114175,0.30902,-0.022633,-0.512059,0.330848,-0.360388,-0.063427
0.120231,0.311929,-0.026881,-0.517021,0.334359,-0.353803,-0.060723
0.124778,0.314098,-0.029877,-0.520345,0.336804,-0.349343,-0.05888
0.132758,0.318133,-0.03507,-0.526237,0.341264,-0.341507,-0.055896
0.135949,0.319753,-0.037079,-0.528483,0.343017,-0.338484,-0.0548
0.143632,0.323451,-0.041608,-0.533269,0.346932,-0.331859,-0.052498
0.146637,0.324822,-0.043257,-0.534917,0.34836,-0.329524,-0.051747
0.154189,0.328297,-0.047272,-0.538826,0.351835,-0.323965,-0.049989
0.157274,0.329801,-0.048919,-0.540432,0.353248,-0.321705,-0.049237
0.165173,0.334076,-0.053269,-0.544529,0.356746,-0.315923,-0.047525
0.170047,0.33682,-0.05595,-0.547114,0.358986,-0.312315,-0.046423
0.176598,0.34013,-0.059224,-0.550584,0.362124,-0.307643,-0.044333
0.181559,0.341998,-0.06112,-0.553166,0.364498,-0.30446,-0.041907
0.189778,0.344694,-0.06418,-0.55731,0.369021,-0.299425,-0.036882
0.192693,0.345405,-0.065061,-0.558049,0.370047,-0.298558,-0.035061
0.201068,0.34949,-0.068962,-0.562662,0.374489,-0.292209,-0.032096
0.204296,0.351395,-0.070736,-0.564285,0.376053,-0.2897,-0.031479
0.212201,0.355815,-0.074709,-0.567839,0.37941,-0.284241,-0.03001
0.215495,0.357491,-0.076191,-0.569583,0.381171,-0.281807,-0.02901
0.224034,0.361246,-0.079458,-0.574567,0.386589,-0.275421,-0.025232
0.229211,0.363317,-0.081203,-0.577715,0.390165,-0.271551,-0.022561
0.236218,0.36643,-0.083693,-0.582603,0.395585,-0.265295,-0.019069
0.241201,0.368533,-0.085326,-0.585875,0.399345,-0.261136,-0.016619
0.249362,0.371981,-0.087875,-0.591399,0.405798,-0.254071,-0.012573
0.252599,0.373371,-0.088869,-0.593518,0.408306,-0.251321,-0.01099
0.260721,0.376977,-0.091403,-0.598405,0.414147,-0.24482,-0.00715
0.26399,0.378475,-0.092436,-0.60026,0.41638,-0.242294,-0.005644
0.272069,0.382177,-0.09492,-0.604529,0.421638,-0.236454,-0.002023
0.27522,0.383583,-0.09583,-0.60604,0.423576,-0.234418,-0.000658
0.282872,0.386853,-0.097918,-0.609076,0.427698,-0.230443,0.002652
0.287392,0.388735,-0.099072,-0.610662,0.429976,-0.22846,0.004505
0.293437,0.391283,-0.100489,-0.613047,0.433421,-0.225582,0.00663
0.298024,0.393312,-0.101445,-0.615256,0.436583,-0.222998,0.007808
0.305684,0.396771,-0.102848,-0.619286,0.442414,-0.218404,0.009237
0.308714,0.398083,-0.103358,-0.620841,0.444707,-0.216627,0.009814
0.316215,0.40085,-0.104424,-0.624354,0.45012,-0.212604,0.011729
0.319233,0.401744,-0.104713,-0.625727,0.452338,-0.211071,0.012628
0.326478,0.404072,-0.105669,-0.628599,0.457002,-0.207686,0.014875
0.329138,0.405248,-0.106348,-0.629345,0.458143,-0.206613,0.01568
0.335213,0.408849,-0.108799,-0.630108,0.459095,-0.204899,0.017239
0.338527,0.411298,-0.11068,-0.630009,0.458658,-0.204254,0.018122
0.342536,0.414777,-0.113664,-0.629452,0.457101,-0.203307,0.019711
0.345016,0.417586,-0.116444,-0.628537,0.45478,-0.202473,0.021444
0.348443,0.422575,-0.121845,-0.626276,0.449227,-0.20103,0.024958
0.349927,0.424549,-0.123952,-0.625506,0.44721,-0.200325,0.026364
0.354741,0.429175,-0.128402,-0.624758,0.444429,-0.197986,0.029442
0.356986,0.430945,-0.129973,-0.624788,0.443938,-0.196847,0.030588
0.362963,0.435308,-0.133601,-0.625341,0.443588,-0.193704,0.033213
0.365385,0.437066,-0.134982,-0.625676,0.443646,-0.19239,0.034139
0.371552,0.441647,-0.138291,-0.626893,0.444401,-0.188874,0.035866
0.375367,0.444398,-0.140125,-0.627859,0.445283,-0.186616,0.036733
0.380555,0.447705,-0.142274,-0.629129,0.446658,-0.183869,0.038213
0.384466,0.449799,-0.143654,-0.630023,0.447754,-0.181976,0.039874
0.391118,0.452826,-0.145558,-0.63156,0.44993,-0.179025,0.043126
0.393911,0.453989,-0.14618,-0.632234,0.451024,-0.177987,0.044257
0.40152,0.457067,-0.147352,-0.634227,0.454683,-0.175898,0.04582
0.404821,0.458342,-0.147656,-0.635157,0.456528,-0.175242,0.046021
0.413228,0.461332,-0.14813,-0.637445,0.461357,-0.174124,0.046221
0.416492,0.462351,-0.148245,-0.638214,0.463124,-0.173938,0.046412
0.424334,0.464563,-0.148441,-0.63982,0.467111,-0.173902,0.047172
0.428949,0.465771,-0.148467,-0.640791,0.469543,-0.173869,0.047662
0.435157,0.467067,-0.148232,-0.642049,0.472928,-0.174187,0.04832
0.439949,0.467634,-0.147686,-0.643007,0.475758,-0.174819,0.048886
0.448031,0.46807,-0.14634,-0.644577,0.480728,-0.176409,0.049869
0.451177,0.468362,-0.145908,-0.645202,0.48261,-0.176928,0.050131
0.458579,0.470063,-0.145655,-0.646773,0.48665,-0.177302,0.049988
0.461403,0.471048,-0.145798,-0.647414,0.48809,-0.17717,0.0496
0.468035,0.474238,-0.146698,-0.649436,0.491715,-0.175107,0.048646
0.470584,0.47539,-0.147083,-0.650007,0.492809,-0.174653,0.048621
0.476285,0.478314,-0.148523,-0.651003,0.494452,-0.173244,0.049801
0.479516,0.480145,-0.149534,-0.651538,0.495193,-0.172226,0.050857
0.484245,0.482646,-0.150555,-0.652683,0.497054,-0.170806,0.05187
0.48843,0.484561,-0.150841,-0.654088,0.49964,-0.169804,0.051994
0.496028,0.487847,-0.150841,-0.657035,0.505198,-0.168075,0.051638
0.498981,0.489197,-0.150881,-0.65823,0.507382,-0.167236,0.051568
0.505383,0.492726,-0.151633,-0.660814,0.511606,-0.164338,0.052162
0.507625,0.494221,-0.152155,-0.661748,0.512929,-0.162845,0.052613
0.51308,0.497864,-0.153398,-0.664052,0.516194,-0.159109,0.054035
0.515407,0.499186,-0.153682,-0.665023,0.517746,-0.157887,0.054664
0.521788,0.502025,-0.153635,-0.667663,0.522531,-0.155796,0.056487
0.52574,0.503582,-0.153381,-0.669303,0.525649,-0.154809,0.057699
0.530776,0.505757,-0.153215,-0.671418,0.529542,-0.153227,0.059261
0.534214,0.507589,-0.153411,-0.672881,0.532019,-0.151624,0.060372
0.539597,0.510795,-0.153978,-0.675225,0.535776,-0.14853,0.062181
0.541763,0.512007,-0.154132,-0.676175,0.537344,-0.147336,0.062851
0.54761,0.514574,-0.15391,-0.678764,0.542026,-0.144834,0.064286
0.550115,0.515442,-0.153605,-0.679893,0.54419,-0.143965,0.06477
0.556203,0.517501,-0.152811,-0.682608,0.549441,-0.141971,0.065875
0.558377,0.51837,-0.152646,-0.683534,0.551192,-0.141208,0.066314
0.562904,0.52085,-0.152894,-0.685302,0.554283,-0.139261,0.067435
0.565317,0.522341,-0.153177,-0.68618,0.555763,-0.13819,0.06808
0.568682,0.523959,-0.153172,-0.687446,0.558124,-0.137112,0.068853
0.571472,0.524729,-0.152643,-0.688599,0.560522,-0.136679,0.069351
0.576319,0.525476,-0.151217,-0.690652,0.56504,-0.13652,0.070058
0.57799,0.526041,-0.150764,-0.691706,0.567039,-0.135302,0.070251
0.582675,0.526903,-0.149811,-0.693288,0.570635,-0.135242,0.070794
0.58456,0.527245,-0.149522,-0.693789,0.571852,-0.135367,0.071007
0.589147,0.528061,-0.148943,-0.694841,0.574514,-0.135878,0.071347
0.590736,0.528538,-0.148802,-0.695367,0.575596,-0.135439,0.071316
0.594777,0.529272,-0.148482,-0.696095,0.577634,-0.136154,0.070751
0.596723,0.530082,-0.148447,-0.696829,0.578944,-0.135003,0.070157
0.599306,0.530939,-0.148448,-0.697488,0.58033,-0.134434,0.069612
0.600981,0.531696,-0.148569,-0.697978,0.581231,-0.133705,0.069432
0.603412,0.53304,-0.148929,-0.698722,0.582478,-0.132245,0.069356
0.604384,0.53351,-0.149039,-0.699007,0.582978,-0.13172,0.069405
0.606951,0.534398,-0.149039,-0.699852,0.584537,-0.130284,0.069807
0.608165,0.534463,-0.148887,-0.700068,0.5851,-0.130411,0.070128
0.61074,0.535118,-0.148655,-0.701086,0.587007,-0.128524,0.070847
0.612045,0.53519,-0.148529,-0.701257,0.587568,-0.128833,0.071014
0.614992,0.535941,-0.148385,-0.702079,0.589209,-0.127757,0.070917
0.616774,0.536475,-0.148346,-0.702584,0.590217,-0.126997,0.070698
0.6193,0.537116,-0.148265,-0.703167,0.591495,-0.126446,0.070431
0.621271,0.537612,-0.148231,-0.703537,0.592383,-0.126302,0.070272
0.624619,0.538487,-0.148328,-0.703992,0.59392,-0.12645,0.070006
0.62602,0.538757,-0.148247,-0.704243,0.59457,-0.126454,0.069922
0.630106,0.538626,-0.147442,-0.704828,0.596362,-0.127756,0.069882
0.63169,0.538516,-0.147006,-0.70522,0.597383,-0.127743,0.06991
0.636038,0.537836,-0.145851,-0.705816,0.599567,-0.129506,0.070032
0.637304,0.538084,-0.145709,-0.706226,0.600543,-0.128824,0.069963
0.640587,0.539033,-0.145685,-0.706968,0.602134,-0.128047,0.069491
0.642393,0.539794,-0.145864,-0.707346,0.602872,-0.127478,0.069161
0.644405,0.540746,-0.146108,-0.707882,0.60378,-0.126204,0.069051
0.645856,0.541058,-0.146197,-0.70806,0.604197,-0.126056,0.069401
0.64726,0.541957,-0.146466,-0.708768,0.605033,-0.123191,0.070376
0.6478,0.542174,-0.146535,-0.708973,0.605307,-0.122363,0.070827
0.648946,0.542453,-0.146508,-0.709559,0.606133,-0.12011,0.071963
0.649305,0.542416,-0.146412,-0.709805,0.606495,-0.119162,0.072507
0.650471,0.542103,-0.146108,-0.710167,0.607159,-0.118297,0.07363
0.650855,0.542241,-0.146104,-0.710331,0.607423,-0.117786,0.073788
0.652122,0.543095,-0.146383,-0.710523,0.607818,-0.117786,0.073196
0.652936,0.543755,-0.146636,-0.710553,0.607951,-0.11826,0.072507
0.653838,0.544485,-0.146902,-0.710594,0.608118,-0.118813,0.071771
0.654292,0.544815,-0.146994,-0.710649,0.608262,-0.119013,0.071511
0.654799,0.545175,-0.147059,-0.710732,0.608476,-0.119293,0.071284
0.654966,0.545311,-0.147085,-0.71076,0.608548,-0.119409,0.07122
0.655398,0.545762,-0.147219,-0.710812,0.608681,-0.119739,0.071056
0.655555,0.545967,-0.147291,-0.710828,0.608718,-0.119871,0.071013
0.655901,0.546475,-0.147473,-0.710845,0.608775,-0.120278,0.07089
0.656022,0.546657,-0.147537,-0.71084,0.608787,-0.120503,0.070804
0.656303,0.547067,-0.14768,-0.710772,0.608764,-0.121334,0.070396
0.656437,0.547287,-0.147753,-0.710716,0.608734,-0.121905,0.07012
0.656529,0.547535,-0.147818,-0.710673,0.608727,-0.12252,0.069915
0.656499,0.547689,-0.147838,-0.710686,0.608764,-0.12278,0.069969
0.655982,0.548166,-0.147913,-0.710964,0.609065,-0.12178,0.070259
0.655905,0.54822,-0.147894,-0.710994,0.609115,-0.121858,0.070394
0.655819,0.548248,-0.147796,-0.711038,0.609242,-0.122215,0.07064
0.655815,0.548209,-0.147727,-0.711051,0.609305,-0.122405,0.070742
0.655795,0.548102,-0.147575,-0.71106,0.60942,-0.122874,0.070881
0.655761,0.548097,-0.147554,-0.71105,0.609424,-0.123025,0.070842
0.65561,0.548212,-0.147645,-0.710969,0.609283,-0.123303,0.07036
0.655488,0.548316,-0.147744,-0.710901,0.609147,-0.12343,0.069957
0.655288,0.548426,-0.147851,-0.710824,0.608984,-0.123576,0.06957
0.655085,0.548458,-0.147888,-0.710784,0.608892,-0.123659,0.069499
0.654683,0.548472,-0.14792,-0.710734,0.608756,-0.123754,0.069585
0.654543,0.548485,-0.147931,-0.710719,0.608713,-0.123806,0.069618
0.654352,0.548597,-0.147971,-0.710693,0.608659,-0.124023,0.06954
0.654328,0.54867,-0.147992,-0.71069,0.608659,-0.124134,0.069469
0.654309,0.548845,-0.148031,-0.71068,0.608672,-0.124469,0.069266
0.654291,0.548885,-0.148034,-0.710668,0.608669,-0.124628,0.069191
0.654235,0.548903,-0.148007,-0.710608,0.608641,-0.125146,0.068987
0.654201,0.548876,-0.147974,-0.710562,0.608619,-0.125494,0.068872
0.654136,0.548813,-0.147917,-0.710511,0.608595,-0.125888,0.068795
0.65405,0.548727,-0.14786,-0.710487,0.608585,-0.126076,0.068858
0.653873,0.548533,-0.147744,-0.710458,0.608575,-0.126286,0.069087
0.653824,0.54847,-0.147704,-0.710447,0.608574,-0.12638,0.069142
0.653849,0.548436,-0.147654,-0.710407,0.608581,-0.12677,0.068964
0.65391,0.548462,-0.147652,-0.710386,0.608585,-0.126978,0.068776
0.654093,0.548552,-0.147651,-0.710342,0.608612,-0.127486,0.068318
0.654146,0.548572,-0.147641,-0.710335,0.608631,-0.127639,0.06824
0.654264,0.548618,-0.147569,-0.710392,0.608785,-0.127857,0.068395
0.654314,0.548629,-0.147518,-0.710433,0.60888,-0.127931,0.068598
0.654283,0.548562,-0.147488,-0.710407,0.608853,-0.128037,0.068822
0.654131,0.548405,-0.147511,-0.710276,0.608627,-0.128159,0.06894
0.653729,0.54802,-0.1476,-0.709936,0.608022,-0.128376,0.069102
0.653586,0.547876,-0.147637,-0.70981,0.607794,-0.128433,0.069114
0.653443,0.547674,-0.147708,-0.709641,0.60748,-0.128379,0.068858
0.65345,0.547642,-0.147735,-0.709618,0.607427,-0.128278,0.068635
0.65351,0.547572,-0.147785,-0.709579,0.607339,-0.128046,0.068083
0.653518,0.547514,-0.147792,-0.709545,0.607284,-0.128033,0.067967
0.653527,0.547262,-0.147748,-0.709415,0.607117,-0.128251,0.068052
0.653519,0.547086,-0.147706,-0.709321,0.607003,-0.128468,0.068208
0.653437,0.546893,-0.147689,-0.709181,0.606805,-0.128748,0.068305
0.653297,0.546819,-0.147732,-0.709063,0.606608,-0.128927,0.068219
0.652965,0.546757,-0.147856,-0.708842,0.606213,-0.129236,0.067932
0.652821,0.546714,-0.147902,-0.708748,0.606046,-0.129363,0.067814
0.652452,0.546458,-0.147958,-0.708494,0.605614,-0.129659,0.067613
0.65228,0.546304,-0.147968,-0.708381,0.605419,-0.129762,0.067555
0.651909,0.54591,-0.14796,-0.70812,0.604994,-0.130041,0.067409
0.651828,0.545783,-0.14794,-0.708043,0.604886,-0.130189,0.067335
0.651862,0.545537,-0.147814,-0.707934,0.604832,-0.130728,0.0671
0.651967,0.545419,-0.147716,-0.707899,0.604873,-0.131105,0.066943
0.652073,0.545307,-0.147625,-0.707846,0.604893,-0.131537,0.066742
0.652079,0.545282,-0.147619,-0.707793,0.604843,-0.131766,0.066596
0.652043,0.54532,-0.147667,-0.707706,0.604724,-0.132037,0.066358
0.652046,0.545319,-0.14768,-0.707673,0.604681,-0.132135,0.066275
0.652162,0.545166,-0.147627,-0.7076,0.604632,-0.132383,0.06613
0.652241,0.545051,-0.147578,-0.707573,0.60463,-0.132476,0.066098
0.652478,0.544791,-0.147461,-0.707537,0.604663,-0.132602,0.066019
0.652583,0.544744,-0.147438,-0.707537,0.604687,-0.132605,0.065966
0.652906,0.544844,-0.147481,-0.707568,0.604763,-0.132524,0.065684
0.653121,0.544957,-0.147527,-0.707603,0.604824,-0.132427,0.065504
0.653375,0.545002,-0.14753,-0.707661,0.604931,-0.132261,0.065435
0.653509,0.544887,-0.147445,-0.707724,0.605048,-0.132077,0.065659
0.653684,0.544542,-0.147217,-0.707847,0.605283,-0.131714,0.066309
0.653773,0.54441,-0.147134,-0.707883,0.605363,-0.131613,0.066482
0.654183,0.544239,-0.14703,-0.707897,0.605488,-0.131658,0.066208
0.654436,0.544221,-0.147015,-0.707881,0.605527,-0.131793,0.065847
0.654943,0.544169,-0.147022,-0.707796,0.605521,-0.132099,0.06489
0.654984,0.544109,-0.147038,-0.707749,0.605451,-0.132103,0.064664
0.654512,0.543836,-0.147153,-0.707572,0.60501,-0.131644,0.064631
0.654039,0.543631,-0.147242,-0.707445,0.604661,-0.131245,0.064758
0.653506,0.543353,-0.147302,-0.707298,0.604291,-0.130898,0.064818
0.653256,0.543144,-0.147276,-0.707219,0.604137,-0.130848,0.064725
0.652944,0.542779,-0.147154,-0.707117,0.603998,-0.13099,0.064449
0.652853,0.542645,-0.147093,-0.707079,0.603968,-0.131129,0.064289
0.652744,0.542381,-0.146916,-0.706987,0.603963,-0.131776,0.06367
0.652766,0.542299,-0.146822,-0.706958,0.604012,-0.132184,0.063311
0.652787,0.542112,-0.146622,-0.706855,0.604069,-0.133204,0.062479
0.652717,0.54203,-0.146591,-0.706786,0.604,-0.133482,0.06229
0.652302,0.541795,-0.146654,-0.706521,0.603545,-0.133814,0.06234
0.651962,0.541655,-0.146755,-0.706328,0.603162,-0.133868,0.062526
0.651483,0.541505,-0.146924,-0.706075,0.602632,-0.133841,0.062635
0.65111,0.54145,-0.147086,-0.705899,0.602236,-0.133724,0.062498
0.650415,0.541436,-0.147422,-0.705623,0.601544,-0.133279,0.062085
0.650129,0.54143,-0.147554,-0.705525,0.60128,-0.133049,0.061927
0.649404,0.541315,-0.147836,-0.705264,0.600665,-0.132553,0.061701
0.649137,0.541197,-0.147919,-0.705126,0.60039,-0.132523,0.061647
0.648508,0.540949,-0.14809,-0.704879,0.599807,-0.132166,0.061592
0.648347,0.540865,-0.14814,-0.704804,0.599629,-0.132038,0.061608
0.648351,0.540589,-0.148179,-0.7046,0.599314,-0.132164,0.061789
0.648433,0.540473,-0.148182,-0.704544,0.599217,-0.132101,0.061952
0.648615,0.540238,-0.148161,-0.704389,0.598976,-0.132477,0.062163
0.648415,0.540369,-0.148268,-0.704481,0.598952,-0.131671,0.062277
0.648189,0.540501,-0.148455,-0.704503,0.598807,-0.130986,0.062471
0.648063,0.540533,-0.148523,-0.704504,0.59873,-0.130715,0.062534
0.64791,0.540148,-0.148551,-0.704173,0.59824,-0.131388,0.06267
0.647522,0.540205,-0.14864,-0.704232,0.598217,-0.130579,0.062692
0.647102,0.539731,-0.148641,-0.703887,0.597688,-0.13103,0.062711
0.646909,0.539602,-0.148654,-0.70379,0.597505,-0.131075,0.062663
0.646411,0.539435,-0.148758,-0.703607,0.597178,-0.131004,0.062304
0.646109,0.539357,-0.14881,-0.703515,0.596974,-0.130962,0.06202
0.645642,0.539234,-0.148885,-0.703358,0.596638,-0.130979,0.061765
0.645451,0.538877,-0.148871,-0.702994,0.596113,-0.132088,0.061785
0.644506,0.538797,-0.149034,-0.702782,0.595569,-0.131854,0.061929
0.644117,0.538767,-0.14909,-0.702717,0.595354,-0.131665,0.061966
0.643506,0.538418,-0.149145,-0.702369,0.594773,-0.132134,0.061797
0.643308,0.538255,-0.149143,-0.702239,0.594569,-0.132328,0.061638
0.642833,0.537807,-0.149147,-0.701886,0.594019,-0.132801,0.061227
0.642616,0.53762,-0.149174,-0.701725,0.593748,-0.132942,0.061122
0.641931,0.537106,-0.149324,-0.70124,0.592864,-0.133157,0.061061
0.641499,0.53679,-0.149442,-0.700931,0.59228,-0.133207,0.061081
0.641035,0.536423,-0.149599,-0.700569,0.591588,-0.13319,0.061072
0.640811,0.53622,-0.149714,-0.700362,0.591178,-0.133083,0.061007
0.640588,0.535958,-0.149909,-0.700082,0.590605,-0.13278,0.060855
0.640536,0.53585,-0.149978,-0.699973,0.590393,-0.132686,0.060793
0.640467,0.53549,-0.150104,-0.699645,0.58983,-0.132703,0.060674
0.640466,0.535314,-0.150142,-0.699492,0.589589,-0.132798,0.060643
0.640565,0.534901,-0.1502,-0.699159,0.589095,-0.133043,0.060524
0.640655,0.534779,-0.150207,-0.699079,0.588989,-0.133077,0.060431
0.641058,0.534638,-0.15017,-0.699078,0.589053,-0.13293,0.059977
0.641377,0.534597,-0.150122,-0.699138,0.589202,-0.132799,0.05966
0.641786,0.534487,-0.15006,-0.699166,0.589327,-0.13273,0.059399
0.642201,0.534138,-0.149938,-0.69897,0.589147,-0.13346,0.05945
0.642496,0.533889,-0.149927,-0.698901,0.589125,-0.133228,0.05976
0.642725,0.533714,-0.14989,-0.698793,0.589037,-0.133558,0.059857
0.643296,0.533595,-0.149874,-0.698696,0.589017,-0.133926,0.059677
0.643554,0.533628,-0.149886,-0.698681,0.589047,-0.134065,0.059461
0.643908,0.53405,-0.150029,-0.698935,0.589396,-0.133074,0.058899
0.644124,0.534072,-0.150043,-0.698942,0.589435,-0.133054,0.058809
0.644813,0.533768,-0.14994,-0.698797,0.589289,-0.133672,0.059056
0.644895,0.533845,-0.150001,-0.698933,0.58944,-0.13279,0.059301
0.645278,0.533725,-0.149963,-0.698948,0.589434,-0.132601,0.059518
0.645597,0.533674,-0.149961,-0.698949,0.58948,-0.132519,0.059492
0.64616,0.533607,-0.149953,-0.698954,0.589568,-0.132422,0.05928
0.646352,0.533596,-0.14996,-0.698954,0.58959,-0.132375,0.059179
0.646642,0.5336,-0.150032,-0.698912,0.589531,-0.132261,0.058949
0.646686,0.533614,-0.150084,-0.698877,0.58946,-0.132216,0.058839
0.646786,0.533679,-0.150209,-0.698798,0.589305,-0.132154,0.058629
0.646879,0.533716,-0.150236,-0.69879,0.589299,-0.132167,0.058615
0.647262,0.533816,-0.150215,-0.698834,0.589443,-0.132346,0.058854
0.647548,0.533899,-0.150178,-0.69889,0.589595,-0.132499,0.059079
0.647955,0.534081,-0.150152,-0.69899,0.589829,-0.132654,0.059279
0.648281,0.534311,-0.15017,-0.699093,0.590033,-0.132689,0.059282
0.648872,0.534805,-0.150232,-0.699308,0.59043,-0.13268,0.059155
0.649108,0.534991,-0.150252,-0.699389,0.590586,-0.132692,0.059108
0.64967,0.535313,-0.150246,-0.699543,0.590926,-0.132857,0.059131
0.649897,0.535399,-0.150226,-0.699591,0.591052,-0.132966,0.059187
0.650408,0.535581,-0.150171,-0.699689,0.591332,-0.133269,0.059302
0.650565,0.53566,-0.150161,-0.699721,0.591421,-0.133376,0.059293
0.650795,0.535876,-0.150179,-0.699782,0.591573,-0.133565,0.059089
0.650871,0.536003,-0.1502,-0.699805,0.591634,-0.133675,0.058905
0.650989,0.536163,-0.150215,-0.699827,0.591716,-0.133906,0.058679
0.651113,0.536276,-0.150205,-0.699836,0.591795,-0.134197,0.058531
0.651335,0.536449,-0.150168,-0.699835,0.591927,-0.134817,0.058293
0.65142,0.536507,-0.150156,-0.69983,0.591968,-0.135047,0.058224
0.651607,0.536612,-0.150146,-0.699812,0.592024,-0.135446,0.058194
0.651675,0.536641,-0.150147,-0.699804,0.592033,-0.135559,0.058239
0.651832,0.536681,-0.150167,-0.699767,0.592012,-0.135749,0.058361
0.651891,0.536685,-0.150186,-0.699742,0.591979,-0.13579,0.058368
0.652028,0.536651,-0.150258,-0.699661,0.591844,-0.135755,0.058306
0.652105,0.536611,-0.150319,-0.699595,0.591725,-0.135679,0.058219
0.652207,0.53656,-0.150429,-0.699474,0.591507,-0.135601,0.057999
0.652253,0.536537,-0.150557,-0.699337,0.59126,-0.135569,0.057697
0.652285,0.536526,-0.150852,-0.699049,0.590777,-0.135481,0.057028
0.652352,0.536504,-0.150941,-0.698949,0.590608,-0.135467,0.056787
0.652968,0.536166,-0.15095,-0.698621,0.590237,-0.136373,0.056453
0.653157,0.536149,-0.150959,-0.698639,0.590275,-0.136187,0.056364
0.653635,0.536196,-0.150986,-0.698807,0.590554,-0.135276,0.056269
0.653935,0.536138,-0.150963,-0.698819,0.590612,-0.135209,0.056291
0.65479,0.535967,-0.150867,-0.698887,0.590774,-0.134985,0.056587
0.655356,0.535866,-0.150817,-0.69893,0.590917,-0.134851,0.05684
0.656147,0.535779,-0.150756,-0.699012,0.591142,-0.134626,0.057043
0.6568,0.535756,-0.150724,-0.699079,0.591331,-0.134476,0.057009
0.657975,0.535768,-0.15068,-0.699202,0.591688,-0.134247,0.056771
0.658424,0.535773,-0.150657,-0.699256,0.591837,-0.134164,0.056678
0.659387,0.53576,-0.150562,-0.699407,0.592221,-0.133966,0.056584
0.659727,0.535754,-0.150511,-0.699479,0.592388,-0.133888,0.056578
0.660501,0.535705,-0.150372,-0.699642,0.592778,-0.133741,0.056608
0.660787,0.535658,-0.150316,-0.699685,0.592901,-0.133717,0.056633
0.661701,0.535181,-0.150067,-0.69951,0.59292,-0.134874,0.056825
0.662033,0.535035,-0.149974,-0.699527,0.593028,-0.134887,0.056938
0.662434,0.534845,-0.149883,-0.699523,0.593114,-0.134884,0.05698
0.6627,0.534711,-0.149856,-0.699502,0.593124,-0.1348,0.056877
0.66308,0.534485,-0.149857,-0.699429,0.593052,-0.134616,0.056554
0.663219,0.53441,-0.149861,-0.699392,0.593018,-0.134602,0.056414
0.66354,0.534306,-0.149866,-0.699277,0.592932,-0.134928,0.056106
0.663346,0.534614,-0.149983,-0.699478,0.593128,-0.133898,0.055936
0.663569,0.534654,-0.149979,-0.6994,0.593124,-0.134398,0.055657
0.663684,0.534627,-0.149919,-0.699404,0.593195,-0.134602,0.055611
0.664351,0.534121,-0.149431,-0.699339,0.593484,-0.136242,0.055799
0.664582,0.53397,-0.14914,-0.699501,0.593898,-0.136455,0.055963
0.664826,0.533803,-0.14887,-0.699605,0.594234,-0.136836,0.056057
0.664895,0.533794,-0.148846,-0.699577,0.594242,-0.137059,0.055941
0.66488,0.533881,-0.148982,-0.69942,0.594002,-0.137373,0.055565
0.664853,0.533887,-0.149033,-0.699344,0.593883,-0.137505,0.055422
0.664734,0.533713,-0.14901,-0.699217,0.593716,-0.137756,0.05523
0.664651,0.533587,-0.14896,-0.699183,0.59368,-0.137815,0.055199
0.664432,0.533218,-0.148832,-0.69908,0.593552,-0.137932,0.055141
0.664362,0.53308,-0.148811,-0.699016,0.593457,-0.137972,0.055099
0.664242,0.532762,-0.148851,-0.698788,0.59309,-0.138043,0.054953
0.664194,0.532562,-0.148905,-0.698617,0.592809,-0.138099,0.054848
0.66387,0.532577,-0.149079,-0.698627,0.592656,-0.137007,0.05464
0.663834,0.532369,-0.149133,-0.698455,0.592385,-0.137027,0.054438
0.663796,0.532003,-0.14923,-0.698146,0.591907,-0.137079,0.054035
0.663747,0.53187,-0.149284,-0.698029,0.591695,-0.137023,0.053917
0.663394,0.531645,-0.149562,-0.697746,0.5911,-0.136458,0.05391
0.663401,0.531348,-0.149629,-0.697442,0.590612,-0.137022,0.054031
0.662687,0.531383,-0.150007,-0.697391,0.590047,-0.135269,0.054306
0.662548,0.531288,-0.150079,-0.697302,0.589838,-0.135093,0.054381
0.662416,0.530914,-0.150037,-0.69712,0.589564,-0.135192,0.054467
0.662408,0.530674,-0.149945,-0.697034,0.589495,-0.135422,0.054479
0.662395,0.530476,-0.149878,-0.69694,0.589406,-0.135675,0.054437
0.662361,0.530495,-0.149918,-0.696894,0.589327,-0.135731,0.054326
0.662415,0.530596,-0.150001,-0.696774,0.58912,-0.136177,0.054045
0.662353,0.530721,-0.150061,-0.696804,0.58911,-0.136008,0.053954
0.662262,0.530813,-0.150117,-0.696779,0.58903,-0.136045,0.053967
0.662233,0.530811,-0.15012,-0.696753,0.588998,-0.136152,0.054058
0.662167,0.530716,-0.150098,-0.696651,0.588885,-0.136509,0.054284
0.662134,0.530642,-0.150084,-0.696597,0.588818,-0.136633,0.054304
0.66205,0.530311,-0.150002,-0.696407,0.588597,-0.13703,0.05416
0.661992,0.530059,-0.149944,-0.696272,0.588432,-0.137255,0.053996
0.661891,0.529757,-0.149912,-0.696108,0.588173,-0.137337,0.053725
0.661811,0.529534,-0.14997,-0.695915,0.587886,-0.13741,0.05344
0.661787,0.529019,-0.150128,-0.695395,0.587208,-0.138044,0.052893
0.661725,0.528912,-0.150184,-0.695319,0.587047,-0.137855,0.052713
0.661554,0.528755,-0.150225,-0.69536,0.587028,-0.136866,0.052629
0.661892,0.528282,-0.150048,-0.695084,0.586783,-0.138061,0.052778
0.662179,0.52782,-0.149836,-0.695011,0.586809,-0.138281,0.053123
0.662302,0.527701,-0.149792,-0.695002,0.586824,-0.138245,0.053188
0.662472,0.527886,-0.149904,-0.695247,0.587101,-0.136864,0.053068
0.662737,0.527901,-0.149978,-0.695252,0.587157,-0.136609,0.05296
0.663073,0.527776,-0.149971,-0.695241,0.587103,-0.136393,0.052899
0.663175,0.527563,-0.149959,-0.695186,0.587008,-0.136191,0.052983
0.663252,0.527046,-0.149902,-0.695016,0.586748,-0.135987,0.053243
0.663306,0.526862,-0.149871,-0.694965,0.586679,-0.135922,0.053333
0.663667,0.526625,-0.149757,-0.694965,0.586754,-0.135864,0.053377
0.664079,0.526404,-0.149605,-0.694856,0.586703,-0.136657,0.053342
0.664588,0.526445,-0.149452,-0.695063,0.587065,-0.136385,0.053234
0.66476,0.526399,-0.149408,-0.695089,0.58713,-0.136349,0.053266
0.665213,0.525965,-0.149298,-0.694893,0.586926,-0.136912,0.05363
0.665274,0.52584,-0.14931,-0.694895,0.58688,-0.136527,0.053904
0.665371,0.52564,-0.149299,-0.694866,0.58681,-0.136218,0.054177
0.665463,0.525477,-0.149261,-0.69483,0.586774,-0.136156,0.054251
0.665593,0.525201,-0.149175,-0.694765,0.586725,-0.136138,0.054248
0.665638,0.525086,-0.149135,-0.694739,0.58671,-0.136157,0.054235
0.665749,0.524789,-0.149019,-0.694675,0.586696,-0.13631,0.054231
0.665787,0.52468,-0.148966,-0.694665,0.586715,-0.136368,0.054224
0.665617,0.524589,-0.14899,-0.69472,0.586952,-0.135826,0.054209
0.665569,0.524475,-0.148952,-0.694713,0.586939,-0.135745,0.054224
0.665306,0.524097,-0.148897,-0.694611,0.586798,-0.135531,0.054347
0.665125,0.523813,-0.148853,-0.694511,0.586634,-0.13548,0.054443
0.665137,0.5232,-0.148722,-0.694156,0.586178,-0.13644,0.054568
0.664984,0.522998,-0.148728,-0.694071,0.586005,-0.13629,0.054588
0.664478,0.522981,-0.148871,-0.694161,0.585922,-0.134876,0.054543
0.664373,0.522855,-0.148883,-0.694098,0.585798,-0.134787,0.054533
0.664325,0.522206,-0.148752,-0.693717,0.585299,-0.135779,0.054552
0.663944,0.522309,-0.148788,-0.693916,0.585417,-0.134625,0.054507
0.66383,0.521615,-0.148594,-0.693546,0.584957,-0.135733,0.054527
0.663476,0.521672,-0.148618,-0.693677,0.585025,-0.134897,0.054499
0.662994,0.521381,-0.148554,-0.693565,0.584806,-0.134904,0.05456
0.662671,0.521237,-0.148509,-0.693521,0.584663,-0.134862,0.054606
0.662244,0.521007,-0.148452,-0.693416,0.584392,-0.134924,0.054634
0.662093,0.520605,-0.148383,-0.693098,0.583957,-0.135883,0.054632
0.661424,0.520311,-0.148443,-0.692849,0.583465,-0.13593,0.054548
0.661178,0.520181,-0.148459,-0.692742,0.58327,-0.136004,0.054512
0.660382,0.520109,-0.148539,-0.692732,0.5831,-0.135201,0.054413
0.660173,0.519975,-0.148521,-0.692649,0.582976,-0.135323,0.054384
0.65975,0.519624,-0.148447,-0.692451,0.582707,-0.135692,0.05431
0.659637,0.519482,-0.148412,-0.692381,0.582617,-0.135829,0.054279
0.659564,0.519115,-0.148286,-0.692245,0.582493,-0.136145,0.054189
0.659584,0.518906,-0.148207,-0.692185,0.582455,-0.13628,0.054133
0.659533,0.518687,-0.148155,-0.692114,0.582367,-0.136301,0.054074
0.659382,0.518616,-0.148193,-0.692072,0.582245,-0.136115,0.054037
0.659025,0.518596,-0.148336,-0.69202,0.581994,-0.135558,0.053992
0.658887,0.518554,-0.148377,-0.69199,0.58189,-0.135379,0.053995
0.658656,0.518178,-0.148323,-0.691847,0.581656,-0.135374,0.054129
0.658591,0.517939,-0.148248,-0.691774,0.581576,-0.135491,0.054242
0.658376,0.517379,-0.148072,-0.691638,0.581405,-0.13554,0.054472
0.658275,0.517201,-0.148039,-0.691579,0.581309,-0.135503,0.054483
0.658019,0.516845,-0.148072,-0.691356,0.580928,-0.135437,0.054216
0.657842,0.516682,-0.148131,-0.691223,0.580675,-0.135306,0.053966
0.657589,0.516477,-0.148191,-0.691084,0.580388,-0.135068,0.053726
0.657408,0.51628,-0.148194,-0.690986,0.580208,-0.134984,0.053665
0.657116,0.515927,-0.148164,-0.690832,0.579937,-0.134931,0.053678
0.657014,0.515801,-0.148155,-0.690775,0.579838,-0.134914,0.053719
0.656823,0.515576,-0.148172,-0.690647,0.579595,-0.134852,0.053928
0.656769,0.515514,-0.148191,-0.690598,0.579498,-0.134828,0.054068
0.656673,0.515399,-0.148239,-0.690497,0.579295,-0.134774,0.054424
0.656645,0.51536,-0.148249,-0.69047,0.579241,-0.134756,0.054521
0.656659,0.515309,-0.148229,-0.69047,0.579244,-0.134737,0.054649
0.656678,0.515293,-0.148209,-0.690488,0.579278,-0.134721,0.054676
0.656607,0.515235,-0.148207,-0.690467,0.579232,-0.134674,0.05466
0.656438,0.515151,-0.148242,-0.690395,0.57908,-0.1346,0.054584
0.656013,0.514972,-0.148338,-0.690225,0.578709,-0.134396,0.05437
0.655826,0.514884,-0.148372,-0.690149,0.578548,-0.134326,0.054298
0.655379,0.514577,-0.148405,-0.689938,0.578151,-0.134316,0.054287
0.655191,0.51441,-0.148401,-0.689837,0.577978,-0.134372,0.054344
0.654738,0.514016,-0.148386,-0.689593,0.577566,-0.134551,0.054462
0.654579,0.513915,-0.148391,-0.689516,0.577434,-0.134608,0.05444
0.654251,0.513878,-0.148445,-0.689409,0.577222,-0.134673,0.054125
0.654075,0.513921,-0.148488,-0.689373,0.577135,-0.134684,0.053864
0.653839,0.513906,-0.148526,-0.689299,0.576988,-0.134744,0.053607
0.653648,0.513766,-0.148517,-0.689193,0.576825,-0.134891,0.05355
0.65333,0.513421,-0.14847,-0.688972,0.576507,-0.13524,0.053579
0.653214,0.51332,-0.148467,-0.688899,0.57639,-0.135318,0.053583
0.652971,0.513345,-0.148575,-0.688832,0.576185,-0.135088,0.05344
0.652902,0.513432,-0.148652,-0.688831,0.576113,-0.134907,0.053336
0.653059,0.513404,-0.148756,-0.688583,0.575721,-0.135648,0.053117
0.652838,0.513681,-0.148908,-0.688735,0.575842,-0.134749,0.053055
0.652886,0.513711,-0.149022,-0.688592,0.575702,-0.13506,0.053143
0.652904,0.51377,-0.149067,-0.68858,0.575662,-0.135037,0.053248
0.653007,0.513818,-0.14912,-0.688513,0.575576,-0.135254,0.053352
0.653111,0.513882,-0.149176,-0.688459,0.575507,-0.135467,0.05337
0.653103,0.514256,-0.149362,-0.688576,0.575595,-0.134901,0.053329
0.653402,0.514093,-0.149341,-0.688332,0.57539,-0.135959,0.053339
0.653555,0.514435,-0.149464,-0.688524,0.575532,-0.135231,0.053267
0.653608,0.514581,-0.14954,-0.688595,0.57562,-0.134857,0.053244
0.65404,0.514734,-0.149568,-0.688683,0.575677,-0.134678,0.053183
0.654398,0.514616,-0.149535,-0.688533,0.575588,-0.135422,0.053179
0.65483,0.51489,-0.149545,-0.688768,0.575821,-0.134829,0.053089
0.655142,0.515048,-0.149559,-0.688889,0.576002,-0.13459,0.053046
0.655716,0.515228,-0.149547,-0.68901,0.57628,-0.134612,0.053026
0.656325,0.515345,-0.149499,-0.689067,0.576528,-0.135008,0.05305
0.657479,0.515617,-0.149385,-0.689245,0.57707,-0.135643,0.053142
0.657895,0.515768,-0.149351,-0.689373,0.577336,-0.135638,0.053184
0.658906,0.515948,-0.149244,-0.689601,0.577867,-0.135699,0.053341
0.659307,0.51596,-0.149192,-0.689674,0.578052,-0.135707,0.053433
0.659986,0.516308,-0.14918,-0.690139,0.57877,-0.134396,0.053597
0.660341,0.516372,-0.149148,-0.690231,0.578966,-0.134335,0.053627
0.661139,0.516678,-0.149126,-0.690489,0.579459,-0.134108,0.053525
0.661595,0.5169,-0.149124,-0.690651,0.579759,-0.133981,0.053412
0.662259,0.517153,-0.149076,-0.690851,0.580182,-0.133995,0.053324
0.662849,0.517263,-0.148966,-0.690977,0.580535,-0.134269,0.053339
0.663918,0.517381,-0.148711,-0.691163,0.581161,-0.135012,0.053441
0.664321,0.517456,-0.148629,-0.691241,0.5814,-0.135265,0.053497
0.665133,0.517864,-0.148598,-0.691481,0.581905,-0.135423,0.053667
0.665392,0.518111,-0.148648,-0.691592,0.582074,-0.135332,0.053761
0.665978,0.51873,-0.148843,-0.69182,0.582536,-0.13511,0.053972
0.666455,0.518678,-0.14876,-0.69174,0.582528,-0.135951,0.054034
0.667052,0.519076,-0.148695,-0.692131,0.583249,-0.135369,0.053958
0.667559,0.51909,-0.148556,-0.692231,0.583572,-0.135664,0.053878
0.668143,0.519119,-0.148409,-0.692367,0.583949,-0.135861,0.053804
0.668514,0.519111,-0.14834,-0.692419,0.584126,-0.135986,0.053807
0.669068,0.519018,-0.14827,-0.692413,0.584298,-0.13629,0.053864
0.669119,0.51918,-0.148293,-0.692597,0.5845,-0.135603,0.053862
0.669704,0.519233,-0.148296,-0.692593,0.584748,-0.13595,0.053828
0.669951,0.519315,-0.148288,-0.692645,0.584869,-0.135983,0.053788
0.670513,0.519496,-0.148282,-0.692748,0.585116,-0.136043,0.053689
0.670678,0.519516,-0.148284,-0.692762,0.585159,-0.136038,0.053671
0.670878,0.519397,-0.148316,-0.692707,0.585069,-0.135861,0.053724
0.670927,0.519265,-0.148341,-0.692638,0.584945,-0.135734,0.053773
0.671044,0.519093,-0.148347,-0.692542,0.584812,-0.135726,0.053773
0.671232,0.518963,-0.148302,-0.692466,0.584771,-0.135966,0.053682
0.671618,0.518732,-0.148182,-0.692322,0.584738,-0.136614,0.053434
0.67174,0.518674,-0.148153,-0.692275,0.584722,-0.136815,0.053338
0.671841,0.518722,-0.148261,-0.692189,0.584658,-0.1369,0.053178
0.671833,0.518814,-0.148341,-0.69219,0.584607,-0.136767,0.053125
0.671693,0.519066,-0.148552,-0.692209,0.584475,-0.136328,0.053051
0.671606,0.519103,-0.148596,-0.692194,0.584414,-0.136272,0.053061
0.671283,0.518976,-0.14857,-0.692099,0.584252,-0.136438,0.05329
0.671068,0.518807,-0.148472,-0.692024,0.584095,-0.136721,0.053472
0.67075,0.518635,-0.148416,-0.691859,0.583883,-0.13726,0.053562
0.670471,0.518596,-0.148434,-0.691727,0.583682,-0.137631,0.053435
0.669949,0.51861,-0.148507,-0.691486,0.583302,-0.138305,0.053008
0.66976,0.518627,-0.148521,-0.691401,0.583182,-0.138625,0.052812
0.66945,0.518677,-0.148438,-0.691257,0.583091,-0.139675,0.052321
0.669384,0.518706,-0.148363,-0.691223,0.583131,-0.140206,0.052091
0.669224,0.51878,-0.148163,-0.691154,0.583259,-0.141522,0.051591
0.66912,0.518802,-0.148107,-0.691121,0.583272,-0.141947,0.051482
0.668691,0.518833,-0.148043,-0.691022,0.583175,-0.142685,0.05155
0.6684,0.518847,-0.148028,-0.690963,0.583085,-0.143016,0.051696
0.668201,0.518773,-0.147928,-0.690845,0.582883,-0.143769,0.051801
0.66793,0.519027,-0.147948,-0.691019,0.583047,-0.143294,0.051704
0.668056,0.518866,-0.147828,-0.690723,0.582874,-0.14489,0.051496
0.668069,0.518892,-0.147813,-0.6907,0.582879,-0.145091,0.051377
0.668171,0.518903,-0.147832,-0.69061,0.582799,-0.145375,0.051013
0.668174,0.518957,-0.147924,-0.69058,0.582811,-0.145219,0.050807
0.66846,0.518908,-0.147992,-0.690478,0.582681,-0.14522,0.050402
0.668642,0.51889,-0.147991,-0.690471,0.582698,-0.14522,0.050354
0.669333,0.518806,-0.147898,-0.690559,0.582948,-0.145159,0.050712
0.669842,0.51876,-0.147811,-0.690654,0.583184,-0.145109,0.05105
0.670507,0.518783,-0.147702,-0.690792,0.583529,-0.14514,0.051269
0.671026,0.518884,-0.147662,-0.690828,0.583819,-0.145551,0.0511
0.671938,0.51917,-0.147528,-0.690971,0.584321,-0.14634,0.050487
0.672198,0.519305,-0.147494,-0.691062,0.584529,-0.146409,0.050265
0.672521,0.519308,-0.147419,-0.69114,0.584731,-0.146386,0.050175
0.672541,0.519172,-0.14739,-0.691096,0.584676,-0.146387,0.050299
0.672535,0.518797,-0.147309,-0.690968,0.584511,-0.146436,0.050602
0.672583,0.518731,-0.147268,-0.690965,0.584536,-0.146477,0.050595
0.672885,0.518877,-0.147141,-0.691136,0.584929,-0.146639,0.050096
0.673106,0.519033,-0.147052,-0.691277,0.585242,-0.146789,0.049673
0.673325,0.519117,-0.14693,-0.691394,0.585542,-0.147025,0.049288
0.673359,0.518978,-0.146829,-0.691371,0.585582,-0.147245,0.049256
0.673314,0.518543,-0.146646,-0.691213,0.585465,-0.147748,0.049449
0.673329,0.518422,-0.146587,-0.691176,0.585451,-0.147909,0.049522
0.673607,0.518607,-0.146535,-0.691335,0.585756,-0.14792,0.049454
0.673797,0.518854,-0.146553,-0.691486,0.585992,-0.14778,0.049342
0.674341,0.519485,-0.146591,-0.691878,0.586614,-0.147451,0.049131
0.67454,0.519623,-0.146574,-0.69199,0.586812,-0.147405,0.049158
0.674964,0.519552,-0.146404,-0.692121,0.58714,-0.147564,0.049689
0.675224,0.519389,-0.146267,-0.692148,0.587283,-0.147786,0.050128
0.675598,0.519341,-0.146141,-0.692249,0.587539,-0.147896,0.050487
0.675924,0.519565,-0.146133,-0.692418,0.587832,-0.147721,0.050431
0.676547,0.520135,-0.146191,-0.692749,0.588373,-0.147338,0.050033
0.676722,0.5204,-0.146242,-0.692923,0.588647,-0.146941,0.049886
0.677395,0.520288,-0.146086,-0.692908,0.588853,-0.147701,0.049919
0.677497,0.520363,-0.146046,-0.693097,0.589122,-0.147218,0.049998
0.67775,0.520291,-0.145893,-0.693347,0.589532,-0.146627,0.050258
0.67784,0.520216,-0.145845,-0.693365,0.589588,-0.146603,0.050315
0.678125,0.519766,-0.145716,-0.693056,0.589308,-0.147629,0.050341
0.677962,0.519857,-0.145775,-0.693175,0.589375,-0.146856,0.050247
0.677879,0.519655,-0.145805,-0.693006,0.589113,-0.146963,0.050158
0.677725,0.519566,-0.14589,-0.692918,0.588899,-0.146744,0.05009
0.677308,0.519478,-0.146112,-0.692793,0.588478,-0.146046,0.049947
0.677095,0.519418,-0.146191,-0.692727,0.588289,-0.145811,0.049876
0.676429,0.519074,-0.14627,-0.692453,0.587742,-0.145712,0.04964
0.676089,0.518865,-0.146265,-0.692303,0.587486,-0.145819,0.04952
0.675258,0.51832,-0.146227,-0.691901,0.586837,-0.146271,0.049219
0.674992,0.518156,-0.146226,-0.691766,0.586616,-0.146418,0.049119
0.674555,0.517912,-0.146245,-0.691503,0.586202,-0.146795,0.048886
0.674362,0.517821,-0.146269,-0.691368,0.585992,-0.147009,0.048774
0.67406,0.517717,-0.146342,-0.691206,0.585685,-0.147085,0.048718
0.673731,0.517644,-0.146457,-0.691092,0.585385,-0.146852,0.048808
0.673203,0.517431,-0.146687,-0.690803,0.58474,-0.14663,0.049121
0.673005,0.517398,-0.146771,-0.690744,0.584558,-0.146423,0.04921
0.672738,0.517359,-0.146842,-0.690663,0.584358,-0.146286,0.049131
0.672814,0.517192,-0.146775,-0.690493,0.584214,-0.146973,0.049013
0.672774,0.51736,-0.146736,-0.690643,0.584444,-0.146729,0.048655
0.672846,0.517379,-0.146713,-0.690646,0.584488,-0.146865,0.048613
0.673166,0.517519,-0.146677,-0.690742,0.584706,-0.146991,0.048776
0.673419,0.517646,-0.146667,-0.69083,0.584875,-0.147007,0.048973
0.673706,0.517861,-0.146701,-0.690942,0.585055,-0.146947,0.049261
0.673838,0.518093,-0.146801,-0.691019,0.585119,-0.146765,0.049517
0.67399,0.518565,-0.147045,-0.691149,0.585163,-0.146303,0.05001
0.674062,0.518716,-0.147118,-0.69119,0.585186,-0.146188,0.050162
0.674362,0.51883,-0.147096,-0.691231,0.585327,-0.146422,0.050239
0.674525,0.518783,-0.147015,-0.691227,0.585415,-0.146708,0.050158
0.674916,0.518625,-0.1468,-0.691203,0.585618,-0.147412,0.049921
0.675028,0.518605,-0.146765,-0.691202,0.585663,-0.147533,0.04989
0.675202,0.518745,-0.146825,-0.691281,0.585679,-0.147226,0.049983
0.675297,0.518788,-0.146908,-0.691247,0.585594,-0.147173,0.050112
0.675346,0.518735,-0.146983,-0.691163,0.585426,-0.147171,0.050316
0.675202,0.518684,-0.147024,-0.691177,0.58536,-0.146763,0.050514
0.674842,0.518432,-0.147074,-0.691107,0.585172,-0.146235,0.050928
0.674723,0.5183,-0.147072,-0.691056,0.585065,-0.146148,0.05103
0.674536,0.518072,-0.147069,-0.690943,0.584864,-0.146071,0.050855
0.674493,0.51801,-0.147041,-0.690931,0.584794,-0.146026,0.050623
0.674494,0.517709,-0.146998,-0.690673,0.584508,-0.146689,0.050019
0.674414,0.517677,-0.147016,-0.690652,0.584455,-0.14659,0.049852
0.674105,0.517568,-0.147091,-0.69056,0.584213,-0.14622,0.049684
0.673931,0.517474,-0.147134,-0.690473,0.584016,-0.146105,0.049677
0.673821,0.51735,-0.14717,-0.690337,0.583782,-0.146213,0.049707
0.673807,0.517354,-0.14721,-0.690301,0.58371,-0.146216,0.049743
0.673894,0.517447,-0.147257,-0.690314,0.583677,-0.14622,0.04986
0.673923,0.51753,-0.147274,-0.69036,0.58373,-0.146134,0.049924
0.674048,0.517761,-0.147262,-0.69053,0.584049,-0.146048,0.050166
0.674233,0.517757,-0.147183,-0.690535,0.584162,-0.146496,0.05032
0.674401,0.518062,-0.14707,-0.690836,0.584668,-0.14639,0.05063
0.674422,0.518123,-0.147075,-0.690839,0.584754,-0.146564,0.050703
0.674261,0.518261,-0.147152,-0.69078,0.584635,-0.146768,0.050697
0.674072,0.518322,-0.147234,-0.690689,0.584454,-0.146899,0.050623
0.673745,0.51838,-0.147316,-0.690586,0.584241,-0.147056,0.050507
0.673413,0.518421,-0.147348,-0.690555,0.584141,-0.147083,0.05043
0.672709,0.518492,-0.147379,-0.690562,0.584022,-0.146947,0.050271
0.672507,0.518395,-0.147345,-0.690452,0.583891,-0.147343,0.050192
0.672066,0.518238,-0.147212,-0.690328,0.583744,-0.148019,0.04987
0.671944,0.518116,-0.147124,-0.690234,0.583686,-0.148514,0.049706
0.671615,0.517881,-0.146926,-0.690071,0.583604,-0.149424,0.049222
0.671487,0.517796,-0.146876,-0.689998,0.583539,-0.149719,0.049015
0.671172,0.517653,-0.146828,-0.689841,0.583353,-0.150139,0.048353
0.670987,0.517584,-0.146836,-0.689745,0.583211,-0.150274,0.047939
0.670704,0.517487,-0.146897,-0.689597,0.582942,-0.150334,0.047569
0.670402,0.517426,-0.147013,-0.68947,0.582641,-0.150173,0.047518
0.66982,0.517342,-0.147296,-0.689246,0.582028,-0.149631,0.04769
0.669637,0.517306,-0.147392,-0.689171,0.581821,-0.149429,0.047766
0.669477,0.517188,-0.147466,-0.689084,0.581605,-0.149169,0.047792
0.669506,0.517134,-0.14744,-0.68909,0.581624,-0.149118,0.047764
0.669659,0.517078,-0.147399,-0.689164,0.581792,-0.148827,0.047675
0.669775,0.517033,-0.147394,-0.68914,0.581775,-0.148859,0.047658
0.670131,0.517063,-0.147517,-0.689057,0.581642,-0.148771,0.047639
0.670416,0.517071,-0.147611,-0.688958,0.581504,-0.148847,0.047645
0.67075,0.517092,-0.147689,-0.688932,0.581395,-0.148664,0.047671
0.671044,0.51694,-0.147691,-0.688831,0.581295,-0.148888,0.047759
0.671229,0.517035,-0.147761,-0.689097,0.581542,-0.147617,0.04789
0.671385,0.516937,-0.147735,-0.689069,0.581514,-0.147661,0.047931
0.671728,0.516865,-0.147721,-0.689061,0.581517,-0.147705,0.04782
0.671852,0.516862,-0.147721,-0.689044,0.581517,-0.14778,0.047698
0.672071,0.516906,-0.14773,-0.68903,0.581547,-0.14792,0.047375
0.672094,0.516925,-0.147731,-0.689035,0.581561,-0.147935,0.047298
0.671956,0.516976,-0.147714,-0.689096,0.581634,-0.147848,0.047295
0.671784,0.517019,-0.147705,-0.689148,0.581681,-0.147742,0.04734
0.671466,0.517153,-0.147743,-0.689249,0.581739,-0.147337,0.047327
0.671244,0.517196,-0.147807,-0.689199,0.581647,-0.147316,0.047256
0.670894,0.517181,-0.147899,-0.689,0.581301,-0.147623,0.047068
0.670731,0.517196,-0.147943,-0.688941,0.581178,-0.147667,0.046967
0.670322,0.51723,-0.148032,-0.688824,0.580948,-0.14778,0.046613
0.670155,0.517251,-0.148062,-0.688795,0.580882,-0.147806,0.046414
0.669755,0.517201,-0.148108,-0.688635,0.580617,-0.148169,0.045981
0.669576,0.517145,-0.148124,-0.688536,0.580459,-0.148373,0.045899
0.668863,0.517124,-0.148235,-0.688431,0.580119,-0.148066,0.046028
0.668485,0.516966,-0.148298,-0.688199,0.579787,-0.148418,0.046217
0.668024,0.51686,-0.148361,-0.68799,0.579414,-0.148699,0.04629
0.667743,0.516901,-0.148424,-0.687889,0.579224,-0.148874,0.046098
0.667346,0.517077,-0.14854,-0.687766,0.57899,-0.149165,0.045539
0.667203,0.51712,-0.148574,-0.687713,0.578899,-0.149293,0.045325
0.666841,0.51698,-0.148574,-0.687509,0.578606,-0.149714,0.045016
0.666694,0.516834,-0.148542,-0.6874,0.578465,-0.149934,0.044947
0.666399,0.516474,-0.148457,-0.687156,0.578155,-0.150403,0.04485
0.666338,0.516403,-0.148448,-0.687101,0.57808,-0.150489,0.044828
0.666342,0.516468,-0.148518,-0.687094,0.578025,-0.150376,0.044811
0.666424,0.516585,-0.148583,-0.687143,0.578058,-0.150181,0.044838
0.666601,0.516712,-0.148638,-0.687232,0.578156,-0.149919,0.04493
0.666803,0.516766,-0.148631,-0.687321,0.578295,-0.149751,0.04505
0.667253,0.516831,-0.148576,-0.687511,0.578621,-0.149453,0.045331
