wangss533/urdfTest/left_arm_joints.csv
left_arm_joint1,left_arm_joint2,left_arm_joint3,left_arm_joint4,left_arm_joint5,left_arm_joint6,left_arm_joint7
0.334326,0.325404,-0.068614,-0.658215,0.297445,-0.004435,0.080594
0.395747,0.271268,0.051035,-0.754925,0.18463,0.038534,0.066688
0.419122,0.242185,0.096764,-0.797303,0.137307,0.056484,0.059242
0.42976,0.227788,0.117907,-0.817089,0.114882,0.064335,0.055555
0.435033,0.220487,0.128262,-0.826772,0.103714,0.067579,0.053387
0.437493,0.216825,0.13338,-0.831697,0.098124,0.06946,0.052306
0.439035,0.214525,0.136085,-0.834019,0.095377,0.069282,0.051749
0.439217,0.213347,0.137697,-0.834481,0.093821,0.069082,0.051293
0.439406,0.212678,0.138066,-0.834605,0.093925,0.068214,0.051279
0.439403,0.212559,0.138159,-0.834629,0.094008,0.067949,0.051234
0.439743,0.211896,0.138209,-0.834539,0.093935,0.066549,0.05155
0.439169,0.211366,0.138762,-0.833495,0.093216,0.065452,0.05137
0.439225,0.211092,0.138728,-0.833514,0.093218,0.065011,0.051415
0.439369,0.210883,0.13872,-0.833435,0.093255,0.064684,0.051154
0.439565,0.210787,0.138715,-0.833273,0.093341,0.064608,0.050499
0.439592,0.210672,0.138656,-0.833245,0.093378,0.064632,0.050386
0.439657,0.210412,0.13858,-0.833203,0.093463,0.064463,0.050038
0.439822,0.210206,0.138627,-0.833098,0.093455,0.064,0.049908
0.439889,0.209776,0.138519,-0.83307,0.093448,0.063504,0.049874
0.438845,0.209215,0.139016,-0.831733,0.092487,0.062983,0.049586
0.438806,0.208949,0.138803,-0.831784,0.092526,0.062936,0.049303
0.439033,0.2086,0.138698,-0.831659,0.092445,0.062373,0.049151
0.438996,0.208434,0.138497,-0.831715,0.092429,0.062334,0.048919
0.439041,0.208314,0.138323,-0.831703,0.092349,0.062186,0.048633
0.438921,0.20812,0.138316,-0.831204,0.091831,0.061596,0.048093
0.438891,0.208119,0.138232,-0.831249,0.091779,0.06156,0.04803
0.437366,0.207621,0.13857,-0.829856,0.090498,0.061363,0.047778
0.437338,0.207644,0.138557,-0.829889,0.090476,0.061335,0.047783
0.437183,0.207586,0.138349,-0.830039,0.090293,0.061257,0.048144
0.437137,0.20762,0.13834,-0.830089,0.090268,0.061213,0.048159
0.436982,0.20766,0.138199,-0.830258,0.090073,0.061027,0.048425
0.4368,0.207811,0.138029,-0.830258,0.090137,0.060819,0.048542
0.436592,0.207942,0.13789,-0.830297,0.090192,0.060535,0.048697
0.435109,0.207829,0.137747,-0.828538,0.089859,0.059614,0.048838
0.4347,0.207956,0.137692,-0.828758,0.090051,0.059231,0.048876
0.434507,0.208086,0.137565,-0.828775,0.09017,0.059015,0.048917
0.434217,0.208126,0.137463,-0.829114,0.090004,0.058522,0.049059
0.43402,0.208201,0.137044,-0.828923,0.090153,0.058023,0.049363
0.431597,0.208126,0.136638,-0.826629,0.089338,0.056798,0.049688
0.431349,0.208435,0.136274,-0.826501,0.089523,0.056544,0.049755
0.430987,0.208648,0.136094,-0.826676,0.089604,0.056207,0.049752
0.430734,0.208957,0.13571,-0.826554,0.089788,0.05596,0.049744
0.430452,0.209227,0.135647,-0.826635,0.089903,0.055701,0.049847
0.430028,0.209636,0.135294,-0.826438,0.090339,0.055293,0.050085
0.429611,0.2092,0.135315,-0.826408,0.08986,0.054442,0.051359
0.427826,0.209178,0.135124,-0.824618,0.089541,0.053975,0.051699
0.427536,0.209341,0.13503,-0.824725,0.089669,0.053706,0.051778
0.427479,0.20931,0.135008,-0.824782,0.089683,0.053659,0.051736
0.427314,0.209396,0.135007,-0.824909,0.089795,0.05366,0.051026
0.427284,0.209375,0.134991,-0.824937,0.089804,0.053638,0.050995
0.427256,0.209329,0.134923,-0.824971,0.089793,0.053617,0.050924
0.427256,0.209329,0.134923,-0.824971,0.089793,0.053617,0.050924
0.427284,0.209287,0.134797,-0.824955,0.089719,0.053653,0.050905
0.427267,0.209197,0.134792,-0.824937,0.089745,0.053702,0.051036
0.427248,0.209089,0.134769,-0.824919,0.089765,0.053754,0.051172
0.42728,0.209065,0.13477,-0.824877,0.08977,0.053801,0.051213
0.427257,0.208973,0.134749,-0.824846,0.089784,0.053914,0.051398
0.427281,0.208967,0.134764,-0.824816,0.089793,0.053944,0.051419
0.427183,0.208829,0.134689,-0.824777,0.089825,0.054318,0.051746
0.427216,0.208815,0.134704,-0.824737,0.089842,0.054359,0.051757
0.427152,0.208759,0.134691,-0.824678,0.089943,0.054742,0.051721
0.427068,0.208761,0.134676,-0.824656,0.090014,0.055057,0.051625
0.427098,0.208643,0.134711,-0.824596,0.090123,0.055133,0.051568
0.42713,0.208562,0.134771,-0.824539,0.090219,0.055192,0.051552
0.427066,0.208426,0.135102,-0.824507,0.09059,0.05525,0.051482
0.427036,0.208407,0.135228,-0.824505,0.090724,0.055263,0.0514
0.426931,0.208412,0.135481,-0.824563,0.090949,0.055203,0.051328
0.426891,0.208447,0.135583,-0.824589,0.091009,0.055172,0.051346
0.426703,0.208479,0.135761,-0.824749,0.09115,0.055015,0.051345
0.426629,0.208459,0.135889,-0.824801,0.091278,0.054953,0.051299
0.426489,0.208577,0.136471,-0.824922,0.091815,0.054698,0.050551
0.426347,0.208418,0.136723,-0.825036,0.092163,0.054526,0.050311
0.426265,0.208444,0.137292,-0.825159,0.092688,0.054124,0.049719
0.426334,0.208277,0.13767,-0.825258,0.093047,0.053542,0.049613
0.425953,0.208346,0.137659,-0.824901,0.094308,0.052427,0.049781
0.425698,0.208331,0.137728,-0.82493,0.094688,0.052206,0.049818
0.425079,0.208398,0.137658,-0.824875,0.09563,0.051595,0.049754
0.424768,0.208549,0.13748,-0.824777,0.096079,0.051269,0.049702
0.424079,0.208904,0.137247,-0.82458,0.09721,0.050453,0.049266
0.423747,0.209024,0.137156,-0.8245,0.097768,0.050012,0.049099
0.422922,0.209392,0.137232,-0.823995,0.099822,0.048176,0.048422
0.4225,0.209432,0.137225,-0.823616,0.101161,0.046661,0.048118
0.42193,0.209442,0.137315,-0.823339,0.102655,0.044767,0.047644
0.421718,0.209451,0.137226,-0.822947,0.103682,0.04275,0.047265
0.421384,0.209292,0.13734,-0.822692,0.104916,0.039518,0.046575
0.42107,0.209293,0.137212,-0.822653,0.105352,0.038588,0.04639
0.420385,0.209453,0.137048,-0.822766,0.106027,0.037107,0.045859
0.418455,0.209753,0.136672,-0.820532,0.105978,0.036067,0.045641
0.4176,0.210223,0.136098,-0.820691,0.106452,0.035659,0.045358
0.416845,0.210784,0.135495,-0.820338,0.107327,0.035574,0.045234
0.415149,0.211476,0.134951,-0.820239,0.108989,0.035949,0.045017
0.413757,0.212068,0.134106,-0.819741,0.110598,0.036101,0.045134
0.412443,0.212522,0.133608,-0.819442,0.112256,0.03564,0.044823
0.410051,0.212891,0.133169,-0.817543,0.1132,0.034582,0.044177
0.408502,0.213356,0.132891,-0.816742,0.115078,0.032161,0.042719
0.407591,0.213885,0.13204,-0.816149,0.116528,0.031192,0.042448
0.40638,0.214484,0.131719,-0.815919,0.118296,0.028938,0.041167
0.405621,0.214941,0.130773,-0.815097,0.119608,0.027481,0.041136
0.402102,0.215023,0.130488,-0.812525,0.120188,0.02496,0.040215
0.400995,0.215736,0.129312,-0.811792,0.121787,0.023991,0.040228
0.399242,0.216682,0.128686,-0.811454,0.124144,0.022598,0.038684
0.397844,0.217501,0.127587,-0.810707,0.126196,0.021549,0.038119
0.394999,0.218384,0.127118,-0.809057,0.127501,0.020497,0.036976
0.393695,0.219326,0.125825,-0.808399,0.129084,0.01939,0.037097
0.391832,0.220504,0.124927,-0.808553,0.130146,0.018678,0.037177
0.389236,0.221057,0.124106,-0.806283,0.130678,0.017833,0.037268
0.387063,0.22192,0.123577,-0.805863,0.132853,0.016822,0.036634
0.385904,0.222655,0.122603,-0.804958,0.134862,0.016016,0.036464
0.384,0.223669,0.122296,-0.804711,0.138492,0.014949,0.03506
0.382846,0.224256,0.121492,-0.803888,0.140543,0.014056,0.034913
0.3808,0.224852,0.121525,-0.803422,0.143951,0.01235,0.034062
0.379467,0.225335,0.12124,-0.80275,0.14647,0.010852,0.033663
0.378337,0.225512,0.121363,-0.802245,0.149688,0.00806,0.032872
0.377222,0.225572,0.121468,-0.801472,0.152456,0.005415,0.032098
0.375639,0.225184,0.122234,-0.800347,0.156997,0.0002,0.030441
0.374673,0.225459,0.122009,-0.799507,0.159455,-0.002044,0.029701
0.372829,0.224724,0.122821,-0.797561,0.163177,-0.009102,0.027052
0.371972,0.22508,0.12241,-0.796584,0.165647,-0.012152,0.025745
0.369404,0.224188,0.123183,-0.793718,0.168666,-0.020311,0.022406
0.368243,0.224875,0.122459,-0.792691,0.171232,-0.022818,0.021378
0.366392,0.225438,0.122531,-0.791987,0.175014,-0.027685,0.019089
0.364598,0.226369,0.121782,-0.791116,0.177971,-0.030016,0.018265
0.36133,0.227141,0.121603,-0.789298,0.180533,-0.032845,0.017218
0.359077,0.228517,0.120519,-0.788439,0.183683,-0.034416,0.017114
0.355544,0.230478,0.119988,-0.788364,0.187531,-0.035539,0.017016
0.353326,0.232012,0.118381,-0.787392,0.190321,-0.036212,0.017427
0.349867,0.233751,0.117788,-0.787557,0.193847,-0.038395,0.017301
0.347973,0.23502,0.116319,-0.7867,0.196274,-0.039964,0.017587
0.344375,0.236893,0.115762,-0.78693,0.199872,-0.042834,0.017045
0.342479,0.238202,0.114483,-0.785974,0.202483,-0.044586,0.01685
0.337948,0.239491,0.114423,-0.783942,0.206371,-0.048922,0.015396
0.335262,0.241048,0.112961,-0.782594,0.210639,-0.051688,0.014788
0.332109,0.242474,0.112265,-0.781058,0.214636,-0.055808,0.013546
0.329261,0.244103,0.110488,-0.779974,0.218457,-0.058387,0.013304
0.323908,0.245505,0.109794,-0.77807,0.22167,-0.062347,0.012269
0.321515,0.246951,0.107605,-0.776754,0.224984,-0.064454,0.012392
0.315362,0.247308,0.107372,-0.773696,0.228194,-0.070304,0.0105
0.313112,0.248338,0.105628,-0.772438,0.231665,-0.073159,0.010024
0.305912,0.247468,0.105738,-0.768119,0.234402,-0.080681,0.007631
0.302242,0.247961,0.10422,-0.765147,0.236781,-0.084347,0.006778
0.294534,0.246966,0.103719,-0.760685,0.238495,-0.092702,0.003766
0.288493,0.247027,0.10191,-0.755978,0.240503,-0.098699,0.001933
0.281294,0.246446,0.100887,-0.751304,0.241918,-0.105977,-0.00068
0.275321,0.246664,0.099189,-0.746946,0.244041,-0.11167,-0.002498
0.266585,0.245911,0.098596,-0.742046,0.245456,-0.120098,-0.005837
0.2618,0.246573,0.096587,-0.738129,0.24759,-0.124206,-0.00693
0.252657,0.246005,0.095962,-0.733369,0.248472,-0.132229,-0.00992
0.247518,0.246945,0.093597,-0.729252,0.250627,-0.136176,-0.010777
0.237079,0.246633,0.092474,-0.723523,0.251282,-0.144272,-0.013421
0.232084,0.247499,0.090075,-0.719346,0.253704,-0.148825,-0.014412
0.221145,0.246443,0.089243,-0.712579,0.254525,-0.159029,-0.017541
0.212834,0.246493,0.087006,-0.705916,0.256587,-0.166489,-0.019349
0.20286,0.245566,0.085893,-0.698788,0.2578,-0.176084,-0.022113
0.194304,0.245419,0.083832,-0.691778,0.26002,-0.184166,-0.024204
0.181527,0.243573,0.083402,-0.682599,0.261196,-0.19708,-0.028235
0.174364,0.243973,0.080706,-0.675785,0.263823,-0.203511,-0.029672
0.160788,0.241943,0.080333,-0.665438,0.264026,-0.217228,-0.033953
0.152946,0.24237,0.077344,-0.657638,0.266307,-0.224197,-0.035447
0.137877,0.240187,0.076561,-0.645253,0.266135,-0.23883,-0.039857
0.130371,0.240837,0.073557,-0.637792,0.269148,-0.245495,-0.041753
0.116407,0.239063,0.072922,-0.626837,0.271314,-0.25869,-0.047107
0.106421,0.238898,0.070403,-0.617831,0.275003,-0.267271,-0.050352
0.095003,0.237624,0.069378,-0.608427,0.278348,-0.277751,-0.054942
0.085778,0.236976,0.067543,-0.600072,0.282434,-0.28616,-0.058395
0.072772,0.234498,0.067694,-0.589423,0.287263,-0.298889,-0.064575
0.065653,0.234409,0.065297,-0.582347,0.291021,-0.304909,-0.0668
0.051528,0.231877,0.065394,-0.570595,0.292998,-0.317376,-0.072331
0.04347,0.232009,0.062322,-0.562342,0.295897,-0.323561,-0.074155
0.027619,0.229828,0.061471,-0.548486,0.296087,-0.336225,-0.079132
0.018916,0.23008,0.058137,-0.539492,0.298459,-0.342501,-0.081024
0.00139,0.228149,0.057173,-0.523759,0.296749,-0.355633,-0.086608
-0.0117,0.228018,0.053798,-0.5107,0.297569,-0.364635,-0.089883
-0.026961,0.227013,0.051929,-0.496855,0.296405,-0.374684,-0.094185
-0.039468,0.227129,0.048046,-0.485094,0.297817,-0.382123,-0.096966
-0.057026,0.226008,0.046064,-0.470934,0.296146,-0.39155,-0.101554
-0.066473,0.226758,0.041206,-0.461522,0.299145,-0.396657,-0.103137
-0.083184,0.225545,0.039438,-0.448082,0.29828,-0.405553,-0.107878
-0.091984,0.226079,0.035045,-0.439373,0.301387,-0.410284,-0.109637
-0.10832,0.22484,0.033123,-0.426023,0.301462,-0.418979,-0.114395
-0.117174,0.224986,0.029444,-0.417214,0.303921,-0.423886,-0.116046
-0.135198,0.223127,0.028166,-0.401333,0.30273,-0.434249,-0.119883
-0.148482,0.222519,0.024769,-0.38814,0.304235,-0.441947,-0.121983
-0.164501,0.220845,0.023285,-0.373024,0.304179,-0.451375,-0.125516
-0.177842,0.21985,0.02038,-0.359604,0.306432,-0.459291,-0.128852
-0.19888,0.21704,0.020052,-0.339226,0.30699,-0.471644,-0.135525
-0.208871,0.216559,0.016128,-0.32856,0.310635,-0.477693,-0.138046
-0.231798,0.213501,0.01614,-0.306248,0.310075,-0.490341,-0.144547
-0.242648,0.21285,0.012272,-0.294754,0.313196,-0.49646,-0.146914
-0.26838,0.209644,0.012096,-0.269137,0.312032,-0.509895,-0.153341
-0.280191,0.208775,0.008509,-0.256424,0.314719,-0.516386,-0.155773
-0.30977,0.205305,0.008672,-0.225681,0.31272,-0.531513,-0.162278
-0.330079,0.203484,0.005491,-0.203453,0.314309,-0.542011,-0.166163
-0.358506,0.200744,0.004573,-0.172344,0.313047,-0.556055,-0.171883
-0.382715,0.198871,0.00178,-0.144882,0.31371,-0.567892,-0.176549
-0.429803,0.195428,0.001396,-0.090713,0.309756,-0.589285,-0.18538
-0.45368,0.193935,-0.002931,-0.061942,0.31161,-0.600002,-0.189236
-0.540012,0.187819,-0.020506,0.045628,0.319906,-0.635943,-0.201229
-0.566349,0.183051,-0.04559,0.080601,0.343019,-0.650274,-0.205644
-0.728663,0.08829,-0.306912,0.337049,0.617537,-0.738583,-0.250109
-0.749064,0.082363,-0.306293,0.3491,0.619339,-0.748898,-0.255675
-0.747007,0.090543,-0.283464,0.348245,0.596606,-0.753128,-0.258221
-0.744981,0.095891,-0.268696,0.338041,0.581721,-0.755028,-0.259595
-0.741007,0.103295,-0.248749,0.322221,0.561282,-0.756136,-0.260706
-0.73682,0.108415,-0.235736,0.308943,0.547607,-0.756262,-0.260947
-0.732942,0.116009,-0.213366,0.290437,0.52376,-0.75606,-0.261112
-0.728174,0.119824,-0.204086,0.278581,0.513866,-0.754691,-0.260618
-0.724758,0.126668,-0.181182,0.260624,0.489876,-0.753978,-0.260892
-0.719996,0.130048,-0.171695,0.248747,0.480068,-0.7524,-0.260465
-0.717151,0.136431,-0.147344,0.231224,0.454857,-0.75116,-0.26083
-0.712308,0.139322,-0.137836,0.21945,0.445325,-0.749434,-0.260765
-0.710523,0.145508,-0.11056,0.203293,0.417517,-0.748148,-0.26226
-0.707737,0.149115,-0.0941,0.191476,0.401046,-0.746697,-0.26328
-0.709179,0.15321,-0.071535,0.182414,0.377984,-0.746279,-0.265114
-0.713302,0.155582,-0.055804,0.179852,0.361598,-0.747107,-0.266804
-0.731166,0.158095,-0.033699,0.190513,0.337322,-0.752509,-0.270618
-0.745364,0.157461,-0.03208,0.204955,0.334416,-0.757585,-0.27286
-0.773482,0.157128,-0.025461,0.230422,0.324812,-0.766513,-0.277081
-0.792357,0.154662,-0.031705,0.251699,0.329659,-0.773262,-0.279643
-0.819522,0.152739,-0.033369,0.276406,0.32847,-0.781418,-0.283182
-0.836039,0.149607,-0.041224,0.294823,0.335216,-0.7874,-0.285277
-0.85664,0.147098,-0.045923,0.311425,0.33697,-0.793652,-0.286958
-0.868949,0.143764,-0.053945,0.322223,0.343535,-0.798038,-0.287847
-0.885246,0.14199,-0.056827,0.334984,0.343929,-0.802158,-0.288791
-0.895685,0.138961,-0.063222,0.342992,0.349226,-0.805079,-0.289494
-0.914799,0.137582,-0.063295,0.3491,0.346425,-0.808277,-0.290243
-0.921142,0.135654,-0.067153,0.3491,0.349765,-0.809658,-0.290819
-0.932839,0.135791,-0.063734,0.3491,0.343811,-0.810962,-0.291101
-0.938544,0.135556,-0.063399,0.3491,0.342481,-0.812174,-0.291609
-0.950272,0.135532,-0.060361,0.3491,0.337189,-0.813761,-0.292568
-0.955178,0.135144,-0.06057,0.3491,0.336522,-0.81502,-0.293103
-0.966532,0.135063,-0.058452,0.3491,0.331628,-0.816805,-0.29403
-0.973381,0.134346,-0.059029,0.3491,0.330768,-0.818715,-0.294856
-0.982177,0.134168,-0.057453,0.3491,0.327449,-0.820394,-0.295767
-0.989382,0.133577,-0.057054,0.3491,0.326368,-0.82242,-0.296727
-0.999922,0.133161,-0.054487,0.3491,0.323248,-0.825267,-0.298165
-1.005157,0.132715,-0.054079,0.3491,0.322567,-0.826976,-0.29883
-1.015908,0.132374,-0.051435,0.3491,0.318451,-0.830159,-0.299682
-1.021483,0.131717,-0.051551,0.3491,0.317801,-0.832096,-0.299997
-1.032788,0.131165,-0.049284,0.3491,0.313284,-0.83578,-0.300364
-1.038201,0.130731,-0.049217,0.3491,0.312496,-0.837675,-0.301051
-1.049764,0.130733,-0.046708,0.3491,0.307852,-0.841359,-0.302869
-1.057336,0.130276,-0.04658,0.3491,0.306662,-0.844124,-0.304479
-1.066499,0.130311,-0.044453,0.3491,0.303529,-0.847168,-0.306473
-1.074795,0.130006,-0.043317,0.3491,0.302291,-0.850075,-0.308238
-1.087071,0.130154,-0.039507,0.3491,0.29899,-0.854103,-0.311104
-1.093336,0.129981,-0.038728,0.3491,0.298379,-0.856416,-0.312359
-1.104996,0.129975,-0.03571,0.3491,0.295409,-0.861228,-0.314763
-1.110707,0.129741,-0.035383,0.3491,0.294979,-0.863858,-0.315825
-1.121925,0.129422,-0.033297,0.3491,0.292698,-0.869425,-0.317945
-1.12841,0.129614,-0.031968,0.3491,0.290925,-0.872027,-0.31864
-1.139728,0.12914,-0.029786,0.3491,0.289166,-0.877414,-0.320851
-1.149223,0.12939,-0.027707,0.3491,0.286679,-0.88108,-0.321806
-1.158987,0.129371,-0.025465,0.3491,0.284164,-0.885579,-0.323225
-1.167392,0.129248,-0.024659,0.3491,0.28265,-0.889826,-0.324359
-1.177168,0.128138,-0.02413,0.3491,0.281082,-0.895748,-0.325865
-1.18301,0.127804,-0.024578,0.3491,0.281193,-0.898797,-0.326986
-1.194225,0.127645,-0.022827,0.3491,0.279318,-0.904192,-0.329569
-1.200546,0.127641,-0.022569,0.3491,0.279083,-0.906763,-0.330907
-1.212859,0.128041,-0.020205,0.3491,0.277361,-0.911916,-0.334191
-1.218562,0.128108,-0.019692,0.3491,0.277029,-0.914373,-0.335346
-1.229858,0.128223,-0.01784,0.3491,0.276169,-0.919786,-0.337967
-1.236491,0.127603,-0.017759,0.3491,0.276889,-0.923332,-0.33926
-1.245788,0.128198,-0.01568,0.3491,0.275414,-0.927755,-0.340975
-1.25181,0.127325,-0.016167,0.3491,0.276799,-0.930872,-0.342209
-1.262828,0.127885,-0.014011,0.3491,0.275261,-0.935779,-0.343896
-1.266548,0.126904,-0.015083,0.3491,0.277109,-0.937741,-0.344732
-1.277196,0.127642,-0.01311,0.3491,0.275895,-0.941887,-0.3467
-1.280824,0.126855,-0.014069,0.3491,0.277729,-0.943537,-0.347757
-1.291787,0.127708,-0.011834,0.3491,0.276262,-0.947295,-0.349898
-1.294962,0.126907,-0.012745,0.3491,0.277918,-0.948678,-0.350804
-1.303165,0.126424,-0.012549,0.3491,0.278477,-0.951614,-0.352526
-1.308605,0.125789,-0.013102,0.3491,0.279428,-0.953623,-0.353458
-1.314399,0.125013,-0.013409,0.3491,0.280416,-0.955509,-0.354296
-1.320718,0.124718,-0.012929,0.3491,0.280373,-0.957512,-0.3546
-1.328729,0.123782,-0.012334,0.3491,0.280896,-0.959651,-0.354403
-1.332545,0.123143,-0.012703,0.3491,0.281756,-0.960903,-0.354536
-1.340115,0.122432,-0.01223,0.3491,0.282199,-0.963079,-0.355384
-1.343645,0.121954,-0.012596,0.3491,0.282994,-0.964277,-0.356101
-1.351392,0.121594,-0.012018,0.3491,0.282876,-0.966531,-0.357699
-1.35474,0.12114,-0.012475,0.3491,0.283369,-0.96758,-0.358333
-1.362419,0.120693,-0.012426,0.3491,0.282232,-0.969381,-0.35915
-1.367688,0.11994,-0.013511,0.3491,0.282462,-0.970815,-0.359721
-1.374502,0.120096,-0.012791,0.3491,0.280047,-0.972343,-0.360206
-1.379861,0.119505,-0.013674,0.3491,0.279821,-0.973854,-0.360807
-1.388275,0.119928,-0.012518,0.3491,0.27602,-0.975666,-0.361387
-1.393031,0.11978,-0.012809,0.3491,0.274832,-0.977255,-0.361848
-1.400254,0.119078,-0.011871,0.3491,0.272925,-0.979488,-0.363127
-1.406063,0.119114,-0.010079,0.3491,0.270657,-0.981464,-0.363669
-1.416787,0.119446,-0.005262,0.3491,0.265273,-0.985355,-0.365046
-1.421338,0.119159,-0.00424,0.3491,0.264157,-0.987074,-0.365703
-1.430694,0.118989,-0.000172,0.3491,0.260307,-0.991644,-0.367602
-1.437099,0.118698,0.002031,0.3491,0.258341,-0.994902,-0.368876
-1.444314,0.118554,0.005268,0.3491,0.254087,-0.998705,-0.37047
-1.450708,0.118302,0.008267,0.3491,0.251096,-1.001979,-0.371907
-1.459403,0.118092,0.012952,0.3491,0.246045,-1.006709,-0.373882
-1.464654,0.11804,0.015872,0.3491,0.242758,-1.009456,-0.374564
-1.471774,0.117228,0.019135,0.3491,0.239666,-1.013253,-0.376895
-1.478966,0.117845,0.024852,0.3491,0.233184,-1.01642,-0.377039
-1.487361,0.117229,0.029797,0.3491,0.226059,-1.020255,-0.378617
-1.491227,0.116642,0.031727,0.3491,0.223705,-1.022162,-0.379113
-1.497451,0.115528,0.034039,0.3491,0.219228,-1.025685,-0.379488
-1.501831,0.114344,0.034197,0.3491,0.217443,-1.028191,-0.379528
-1.506074,0.113294,0.034657,0.3491,0.215209,-1.030554,-0.37945
-1.510295,0.112278,0.035431,0.3491,0.213719,-1.032945,-0.379712
-1.5156,0.11129,0.037023,0.3491,0.211547,-1.035932,-0.380244
-1.518665,0.110647,0.037799,0.3491,0.210676,-1.037603,-0.380517
-1.524319,0.109729,0.039799,0.3491,0.20875,-1.040218,-0.38103
-1.526965,0.108794,0.039363,0.3491,0.209492,-1.04136,-0.381396
-1.533057,0.107942,0.041734,0.3491,0.207803,-1.043846,-0.382017
-1.536156,0.107582,0.043098,0.3491,0.206616,-1.04525,-0.382256
-1.541404,0.106859,0.044477,0.3491,0.205699,-1.047198,-0.382905
-1.544899,0.106258,0.044942,0.3491,0.205506,-1.047198,-0.383379
-1.548995,0.105904,0.045981,0.3491,0.20469,-1.047198,-0.383973
-1.553087,0.105616,0.04722,0.3491,0.20339,-1.047198,-0.384472
-1.559494,0.105923,0.05053,0.3491,0.1986,-1.047198,-0.385174
-1.562617,0.105758,0.05154,0.3491,0.19682,-1.047198,-0.385559
-1.568318,0.10605,0.054665,0.3491,0.192532,-1.047198,-0.386465
-1.571167,0.105815,0.05598,0.3491,0.1911,-1.047198,-0.386991
-1.576239,0.106029,0.059591,0.3491,0.187063,-1.047198,-0.388009
-1.578269,0.105738,0.060102,0.3491,0.186388,-1.047198,-0.388419
-1.581975,0.105485,0.060829,0.3491,0.185082,-1.047198,-0.389065
-1.584245,0.105005,0.060572,0.3491,0.18495,-1.047198,-0.389389
-1.586425,0.104517,0.05986,0.3491,0.185163,-1.047198,-0.389551
-1.588224,0.103737,0.059001,0.3491,0.185691,-1.047198,-0.389451
-1.590305,0.102724,0.057909,0.3491,0.186181,-1.047198,-0.388748
-1.591436,0.10201,0.056914,0.3491,0.186972,-1.047198,-0.38865
-1.593319,0.101307,0.055127,0.3491,0.188066,-1.047198,-0.388783
-1.594481,0.100837,0.0542,0.3491,0.188672,-1.047198,-0.389104
-1.596331,0.100307,0.051816,0.3491,0.190423,-1.047198,-0.389993
-1.597434,0.099893,0.05097,0.3491,0.191145,-1.047198,-0.390301
-1.600794,0.099977,0.052957,0.3491,0.189145,-1.047198,-0.390856
-1.603091,0.099794,0.054401,0.3491,0.187946,-1.047198,-0.391225
-1.605464,0.09955,0.054505,0.3491,0.18853,-1.047198,-0.391974
-1.607481,0.09919,0.055254,0.3491,0.188575,-1.047198,-0.392528
-1.610448,0.098753,0.056972,0.3491,0.188779,-1.047198,-0.393687
-1.611432,0.098312,0.056634,0.3491,0.189987,-1.047198,-0.39429
-1.614098,0.097578,0.056391,0.3491,0.191745,-1.047198,-0.395315
-1.617422,0.098195,0.062736,0.3491,0.185338,-1.047198,-0.394889
-1.618771,0.096781,0.057577,0.3491,0.192296,-1.047198,-0.396669
-1.620922,0.096881,0.060667,0.3491,0.189485,-1.047198,-0.396669
-1.62439,0.096667,0.062559,0.3491,0.189073,-1.047198,-0.397706
-1.626685,0.096731,0.06462,0.3491,0.188012,-1.047198,-0.398445
-1.628624,0.096265,0.06392,0.3491,0.190277,-1.047198,-0.399862
-1.632294,0.097178,0.07044,0.3491,0.184442,-1.047198,-0.400441
-1.634617,0.09648,0.068598,0.3491,0.187997,-1.047198,-0.402405
-1.636236,0.096334,0.06978,0.3491,0.187459,-1.047198,-0.403011
-1.639825,0.096091,0.072883,0.3491,0.186412,-1.047198,-0.404306
-1.64102,0.095781,0.074554,0.3491,0.185734,-1.047198,-0.404621
-1.645396,0.095813,0.079947,0.3491,0.182731,-1.047198,-0.405751
-1.647164,0.096021,0.083334,0.3491,0.179948,-1.047198,-0.406056
-1.650327,0.09602,0.086295,0.3491,0.17869,-1.047198,-0.408254
-1.652183,0.095911,0.087898,0.3491,0.177901,-1.047198,-0.40967
-1.653694,0.095449,0.086617,0.3491,0.180489,-1.047198,-0.41191
-1.65587,0.095552,0.089004,0.3491,0.178624,-1.047198,-0.412684
-1.657851,0.095134,0.089628,0.3491,0.179024,-1.047198,-0.413906
-1.658808,0.094918,0.08979,0.3491,0.179487,-1.047198,-0.4148
-1.662056,0.095304,0.095282,0.3491,0.174552,-1.047198,-0.415406
-1.6629,0.094773,0.093516,0.3491,0.17711,-1.047198,-0.416654
-1.666816,0.095301,0.099448,0.3491,0.171484,-1.047198,-0.417132
-1.667466,0.094425,0.096783,0.3491,0.174561,-1.047198,-0.417792
-1.670486,0.094338,0.099842,0.3491,0.171827,-1.047198,-0.41836
-1.672044,0.093726,0.099836,0.3491,0.171985,-1.047198,-0.418651
-1.674036,0.093295,0.099719,0.3491,0.172278,-1.047198,-0.419168
-1.675808,0.093016,0.099943,0.3491,0.172093,-1.047198,-0.41966
-1.677699,0.092637,0.097641,0.3491,0.174914,-1.047198,-0.421334
-1.678641,0.092039,0.095585,0.3491,0.176975,-1.047198,-0.421723
-1.68091,0.09171,0.094491,0.3491,0.178543,-1.047198,-0.422354
-1.681948,0.091165,0.092999,0.3491,0.180311,-1.047198,-0.422562
-1.683852,0.090119,0.08883,0.3491,0.185041,-1.047198,-0.422617
-1.68463,0.08952,0.086444,0.3491,0.187544,-1.047198,-0.422595
-1.685676,0.088214,0.078325,0.3491,0.195494,-1.047198,-0.422115
-1.686414,0.08722,0.072838,0.3491,0.200737,-1.047198,-0.421689
-1.687179,0.086332,0.066501,0.3491,0.20683,-1.047198,-0.420968
-1.688231,0.085702,0.06291,0.3491,0.210314,-1.047198,-0.420323
-1.689807,0.08515,0.058096,0.3491,0.215012,-1.047198,-0.418996
-1.690667,0.084826,0.056602,0.3491,0.216554,-1.047198,-0.418637
-1.692277,0.084338,0.053826,0.3491,0.219898,-1.047198,-0.418467
-1.69317,0.084058,0.053399,0.3491,0.220703,-1.047198,-0.418674
-1.694842,0.083576,0.052271,0.3491,0.222987,-1.047198,-0.419551
-1.695568,0.08326,0.051653,0.3491,0.22406,-1.047198,-0.419992
-1.696603,0.082433,0.048573,0.3491,0.228297,-1.047198,-0.421501
-1.697324,0.08178,0.046647,0.3491,0.23096,-1.047198,-0.422588
-1.698219,0.081118,0.044538,0.3491,0.234201,-1.047198,-0.423906
-1.699245,0.0806,0.043601,0.3491,0.236139,-1.047198,-0.4248
-1.700755,0.079844,0.041961,0.3491,0.239701,-1.047198,-0.426209
-1.701557,0.079481,0.041404,0.3491,0.241051,-1.047198,-0.426706
-1.703587,0.078941,0.041136,0.3491,0.243205,-1.047198,-0.427469
-1.704588,0.07869,0.041275,0.3491,0.243818,-1.047198,-0.427612
-1.706743,0.078276,0.041899,0.3491,0.244991,-1.047198,-0.427977
-1.707939,0.078155,0.04243,0.3491,0.24501,-1.047198,-0.428043
-1.71039,0.078086,0.044249,0.3491,0.244271,-1.047198,-0.42851
-1.711966,0.077992,0.045153,0.3491,0.243907,-1.047198,-0.42892
-1.713383,0.077704,0.044107,0.3491,0.245849,-1.047198,-0.429946
-1.715411,0.077975,0.046201,0.3491,0.2441,-1.047198,-0.430758
-1.716878,0.077866,0.0446,0.3491,0.246762,-1.047198,-0.43319
-1.717538,0.077487,0.04272,0.3491,0.249135,-1.047198,-0.434195
-1.718753,0.077071,0.040157,0.3491,0.252599,-1.047198,-0.435727
-1.719949,0.077156,0.041776,0.3491,0.251028,-1.047198,-0.435907
-1.721041,0.076534,0.039075,0.3491,0.254478,-1.047198,-0.436586
-1.721408,0.076065,0.037734,0.3491,0.25653,-1.047198,-0.436844
-1.720885,0.074576,0.032304,0.3491,0.264672,-1.047198,-0.437213
-1.720255,0.073395,0.028342,0.3491,0.270436,-1.047198,-0.43737
-1.719757,0.072238,0.024617,0.3491,0.276203,-1.047198,-0.437567
-1.72047,0.071569,0.023576,0.3491,0.278075,-1.047198,-0.437818
-1.722242,0.07096,0.023955,0.3491,0.278877,-1.047198,-0.43823
-1.72326,0.070671,0.024286,0.3491,0.278813,-1.047198,-0.43848
-1.725065,0.070287,0.025012,0.3491,0.278882,-1.047198,-0.43923
-1.725888,0.07016,0.025422,0.3491,0.278696,-1.047198,-0.439624
-1.72769,0.07,0.026472,0.3491,0.278159,-1.047198,-0.440644
-1.728389,0.069908,0.026742,0.3491,0.278043,-1.047198,-0.441031
-1.729691,0.069677,0.026709,0.3491,0.278558,-1.047198,-0.442009
-1.73058,0.06946,0.026524,0.3491,0.278896,-1.047198,-0.442596
-1.731602,0.069392,0.026833,0.3491,0.278591,-1.047198,-0.443134
-1.732719,0.069373,0.02766,0.3491,0.277332,-1.047198,-0.443259
-1.734384,0.069636,0.029831,0.3491,0.274075,-1.047198,-0.443082
-1.735043,0.069671,0.030709,0.3491,0.272755,-1.047198,-0.443116
-1.735934,0.069814,0.032302,0.3491,0.270901,-1.047198,-0.443858
-1.736152,0.06982,0.032712,0.3491,0.270585,-1.047198,-0.444398
-1.736656,0.06992,0.03422,0.3491,0.269418,-1.047198,-0.44584
-1.737012,0.070071,0.035467,0.3491,0.268161,-1.047198,-0.446279
-1.738747,0.070608,0.041614,0.3491,0.262137,-1.047198,-0.447005
-1.739827,0.071145,0.047074,0.3491,0.257566,-1.047198,-0.447272
-1.740942,0.071722,0.052793,0.3491,0.252835,-1.047198,-0.447736
-1.741065,0.072205,0.055204,0.3491,0.250932,-1.047198,-0.448232
-1.740841,0.072828,0.057151,0.3491,0.249578,-1.047198,-0.449248
-1.740593,0.073176,0.057617,0.3491,0.249254,-1.047198,-0.449525
-1.740572,0.073919,0.058631,0.3491,0.248275,-1.047198,-0.449675
-1.740608,0.074275,0.058848,0.3491,0.247913,-1.047198,-0.449514
-1.74073,0.075047,0.05888,0.3491,0.247493,-1.047198,-0.448958
-1.740702,0.075269,0.058683,0.3491,0.247653,-1.047198,-0.448785
-1.740389,0.075543,0.05734,0.3491,0.249267,-1.047198,-0.448453
-1.74006,0.075639,0.056236,0.3491,0.250652,-1.047198,-0.448258
-1.739852,0.075716,0.055366,0.3491,0.251861,-1.047198,-0.448033
-1.739811,0.075858,0.055523,0.3491,0.25191,-1.047198,-0.447826
-1.740071,0.076004,0.056636,0.3491,0.251114,-1.047198,-0.447515
-1.740089,0.076114,0.057048,0.3491,0.250805,-1.047198,-0.447441
-1.740193,0.07618,0.057194,0.3491,0.25084,-1.047198,-0.447668
-1.740209,0.076169,0.057011,0.3491,0.251074,-1.047198,-0.447896
-1.740217,0.076169,0.056384,0.3491,0.251727,-1.047198,-0.448574
-1.740255,0.076193,0.056186,0.3491,0.251874,-1.047198,-0.448823
-1.74026,0.076432,0.055657,0.3491,0.252023,-1.047198,-0.44941
-1.740304,0.076603,0.055381,0.3491,0.251991,-1.047198,-0.449756
-1.740365,0.076898,0.055398,0.3491,0.251661,-1.047198,-0.450096
-1.740486,0.077171,0.055913,0.3491,0.251009,-1.047198,-0.450215
-1.740787,0.077679,0.057347,0.3491,0.249456,-1.047198,-0.450255
-1.740817,0.077906,0.057888,0.3491,0.248935,-1.047198,-0.450248
-1.740821,0.07819,0.058508,0.3491,0.248694,-1.047198,-0.450396
-1.740637,0.078324,0.058558,0.3491,0.248947,-1.047198,-0.450478
-1.740354,0.078458,0.05851,0.3491,0.249711,-1.047198,-0.450641
-1.740174,0.078574,0.058492,0.3491,0.24986,-1.047198,-0.450588
-1.739942,0.078801,0.058603,0.3491,0.249535,-1.047198,-0.45005
-1.739766,0.078964,0.058628,0.3491,0.249214,-1.047198,-0.449606
-1.739558,0.079144,0.058491,0.3491,0.249052,-1.047198,-0.449229
-1.739366,0.079288,0.058215,0.3491,0.249231,-1.047198,-0.449238
-1.739056,0.0795,0.057525,0.3491,0.249854,-1.047198,-0.449543
-1.738902,0.079576,0.057157,0.3491,0.250249,-1.047198,-0.449654
-1.738467,0.079659,0.055942,0.3491,0.251759,-1.047198,-0.449659
-1.738137,0.079719,0.055246,0.3491,0.252681,-1.047198,-0.449568
-1.737578,0.079739,0.053681,0.3491,0.254802,-1.047198,-0.449336
-1.737367,0.0798,0.053227,0.3491,0.255392,-1.047198,-0.449261
-1.737343,0.079967,0.053068,0.3491,0.255576,-1.047198,-0.449118
-1.737438,0.08007,0.053199,0.3491,0.255367,-1.047198,-0.449064
-1.737395,0.08018,0.053068,0.3491,0.255432,-1.047198,-0.449093
-1.73714,0.080195,0.052428,0.3491,0.256078,-1.047198,-0.449264
-1.736501,0.080153,0.050882,0.3491,0.257667,-1.047198,-0.449717
-1.73623,0.080158,0.050358,0.3491,0.258242,-1.047198,-0.449865
-1.735924,0.080227,0.050196,0.3491,0.258733,-1.047198,-0.449955
-1.73582,0.080344,0.05053,0.3491,0.258637,-1.047198,-0.449885
-1.735662,0.080518,0.051287,0.3491,0.258339,-1.047198,-0.44967
-1.735401,0.080597,0.051183,0.3491,0.258438,-1.047198,-0.449582
-1.734352,0.080561,0.049374,0.3491,0.25961,-1.047198,-0.449308
-1.73355,0.080518,0.047847,0.3491,0.26053,-1.047198,-0.449153
-1.732634,0.08059,0.046395,0.3491,0.2612,-1.047198,-0.449163
-1.732195,0.080815,0.046173,0.3491,0.260898,-1.047198,-0.449506
-1.731619,0.081417,0.046614,0.3491,0.259572,-1.047198,-0.45041
-1.73143,0.081597,0.046714,0.3491,0.25916,-1.047198,-0.450696
-1.730589,0.081808,0.045808,0.3491,0.259491,-1.047198,-0.450647
-1.730089,0.081847,0.045079,0.3491,0.260053,-1.047198,-0.45036
-1.729015,0.081789,0.043145,0.3491,0.26172,-1.047198,-0.449585
-1.728588,0.081833,0.042495,0.3491,0.262332,-1.047198,-0.449403
-1.728017,0.081954,0.041647,0.3491,0.263395,-1.047198,-0.449519
-1.727716,0.082068,0.04139,0.3491,0.264005,-1.047198,-0.44969
-1.727328,0.082112,0.040801,0.3491,0.26494,-1.047198,-0.449652
-1.726847,0.082059,0.039904,0.3491,0.265998,-1.047198,-0.449178
-1.726002,0.081825,0.037994,0.3491,0.268032,-1.047198,-0.44798
-1.725721,0.081777,0.037449,0.3491,0.268629,-1.047198,-0.447596
-1.72572,0.081896,0.037761,0.3491,0.268371,-1.047198,-0.447465
-1.725925,0.082065,0.038531,0.3491,0.267615,-1.047198,-0.447667
-1.726517,0.082457,0.040465,0.3491,0.265676,-1.047198,-0.448392
-1.72656,0.08256,0.040785,0.3491,0.265368,-1.047198,-0.448627
-1.726048,0.082589,0.03998,0.3491,0.266274,-1.047198,-0.449148
-1.725576,0.082524,0.039006,0.3491,0.267315,-1.047198,-0.449451
-1.725053,0.08248,0.037978,0.3491,0.26839,-1.047198,-0.449745
-1.724949,0.082507,0.03777,0.3491,0.268511,-1.047198,-0.449872
-1.72496,0.082604,0.037815,0.3491,0.268222,-1.047198,-0.449942
-1.724872,0.082596,0.037613,0.3491,0.268404,-1.047198,-0.449925
-1.724001,0.082295,0.03569,0.3491,0.270774,-1.047198,-0.449739
-1.723333,0.082062,0.034406,0.3491,0.272421,-1.047198,-0.449594
-1.721395,0.081474,0.030911,0.3491,0.276884,-1.047198,-0.449193
-1.72076,0.081343,0.029805,0.3491,0.278228,-1.047198,-0.449057
-1.718357,0.080764,0.025164,0.3491,0.283466,-1.047198,-0.449105
-1.718271,0.081101,0.025312,0.3491,0.282727,-1.047198,-0.448773
-1.717338,0.081104,0.023771,0.3491,0.284009,-1.047198,-0.448732
-1.716991,0.081224,0.023447,0.3491,0.28436,-1.047198,-0.448753
-1.717125,0.081621,0.024351,0.3491,0.283674,-1.047198,-0.448814
-1.716823,0.081656,0.024014,0.3491,0.284297,-1.047198,-0.448981
-1.716537,0.081929,0.024587,0.3491,0.284297,-1.047198,-0.449332
-1.715965,0.082035,0.024416,0.3491,0.284826,-1.047198,-0.449554
-1.715267,0.082252,0.024727,0.3491,0.285303,-1.047198,-0.450075
-1.715061,0.082452,0.025136,0.3491,0.284998,-1.047198,-0.450097
-1.715396,0.082946,0.026767,0.3491,0.28328,-1.047198,-0.449912
-1.715792,0.083297,0.028052,0.3491,0.281734,-1.047198,-0.449645
-1.715737,0.083593,0.028572,0.3491,0.28088,-1.047198,-0.449336
-1.71502,0.083652,0.027679,0.3491,0.281487,-1.047198,-0.449117
-1.713152,0.08355,0.024824,0.3491,0.283745,-1.047198,-0.448722
-1.712345,0.083517,0.023743,0.3491,0.284667,-1.047198,-0.448601
-1.71137,0.083467,0.022948,0.3491,0.285524,-1.047198,-0.448469
-1.711072,0.083499,0.023113,0.3491,0.285561,-1.047198,-0.448449
-1.710629,0.08348,0.023805,0.3491,0.285456,-1.047198,-0.448617
-1.710102,0.083494,0.023772,0.3491,0.28566,-1.047198,-0.448792
-1.708787,0.083489,0.02352,0.3491,0.286036,-1.047198,-0.44967
-1.707714,0.083527,0.023198,0.3491,0.286365,-1.047198,-0.450323
-1.706079,0.083562,0.022552,0.3491,0.287057,-1.047198,-0.451004
-1.704253,0.083702,0.021817,0.3491,0.287904,-1.047198,-0.451264
-1.701127,0.083749,0.02011,0.3491,0.289871,-1.047198,-0.451532
-1.699317,0.084034,0.019487,0.3491,0.290558,-1.047198,-0.451452
-1.695809,0.08437,0.017615,0.3491,0.292526,-1.047198,-0.451135
-1.693916,0.084765,0.016903,0.3491,0.293227,-1.047198,-0.450824
-1.689758,0.085338,0.014608,0.3491,0.295491,-1.047198,-0.449939
-1.686539,0.085294,0.011658,0.3491,0.298703,-1.047198,-0.449656
-1.680403,0.085427,0.007567,0.3491,0.303639,-1.047198,-0.448233
-1.677112,0.086325,0.007671,0.3491,0.303475,-1.047198,-0.44679
-1.672104,0.086894,0.005942,0.3491,0.305889,-1.047198,-0.445347
-1.666472,0.087269,0.003451,0.3491,0.309924,-1.047198,-0.444541
-1.660523,0.088738,0.001643,0.3491,0.311508,-1.047198,-0.443076
-1.655803,0.089092,0.000285,0.3491,0.312811,-1.047198,-0.442403
-1.648814,0.090127,-0.001933,0.3491,0.314751,-1.047198,-0.441341
-1.644346,0.090742,-0.003172,0.3491,0.316117,-1.047198,-0.441067
-1.638239,0.092391,-0.003172,0.3491,0.315766,-1.047198,-0.439951
-1.63237,0.092378,-0.006217,0.3491,0.319012,-1.047198,-0.439679
-1.62414,0.093429,-0.009393,0.3491,0.320582,-1.047198,-0.437868
-1.619749,0.094542,-0.010298,0.3491,0.320019,-1.047198,-0.436438
-1.61397,0.095418,-0.012325,0.3491,0.320751,-1.047198,-0.434911
-1.606489,0.095546,-0.014761,0.3491,0.324825,-1.047198,-0.43451
-1.599774,0.096877,-0.015047,0.3491,0.325788,-1.047198,-0.433618
-1.595803,0.097704,-0.014597,0.3491,0.326129,-1.047198,-0.433122
-1.590195,0.098829,-0.013997,0.3491,0.325619,-1.047198,-0.432013
-1.586265,0.099306,-0.013662,0.3491,0.326106,-1.047198,-0.431414
-1.580356,0.100029,-0.012991,0.3491,0.325852,-1.047198,-0.430296
-1.577244,0.100531,-0.012553,0.3491,0.325864,-1.047198,-0.429962
-1.570639,0.101239,-0.012867,0.3491,0.326611,-1.047198,-0.43015
-1.567017,0.102353,-0.011951,0.3491,0.325615,-1.047198,-0.430274
-1.561646,0.102627,-0.012617,0.3491,0.326796,-1.047198,-0.430508
-1.557454,0.103131,-0.012216,0.3491,0.326692,-1.047198,-0.430125
-1.552505,0.103476,-0.011804,0.3491,0.326859,-1.047198,-0.429292
-1.548772,0.103633,-0.011824,0.3491,0.32727,-1.047198,-0.428938
-1.543542,0.103724,-0.01213,0.3491,0.327944,-1.047198,-0.428238
-1.540657,0.10404,-0.011934,0.3491,0.327835,-1.047198,-0.427939
-1.535096,0.103992,-0.01276,0.3491,0.328768,-1.047198,-0.427268
-1.532533,0.104142,-0.013002,0.3491,0.328872,-1.047198,-0.426857
-1.527729,0.104278,-0.013661,0.3491,0.328843,-1.047198,-0.425552
-1.524502,0.10446,-0.014203,0.3491,0.328747,-1.047198,-0.424633
-1.520745,0.104644,-0.015126,0.3491,0.328602,-1.047198,-0.423574
-1.517391,0.104847,-0.0162,0.3491,0.328609,-1.047198,-0.422926
-1.513587,0.105655,-0.016959,0.3491,0.326841,-1.047198,-0.421832
-1.51135,0.105817,-0.017739,0.3491,0.326831,-1.047198,-0.421478
-1.505128,0.105665,-0.02068,0.3491,0.328798,-1.047198,-0.420854
-1.504314,0.106228,-0.019845,0.3491,0.327263,-1.047198,-0.42029
-1.49812,0.105972,-0.022526,0.3491,0.329698,-1.047198,-0.419687
-1.497052,0.106527,-0.021734,0.3491,0.328371,-1.047198,-0.419159
-1.490686,0.106158,-0.023795,0.3491,0.331743,-1.047198,-0.418558
-1.486725,0.106289,-0.02406,0.3491,0.332953,-1.047198,-0.418074
-1.482538,0.106447,-0.024828,0.3491,0.333559,-1.047198,-0.417567
-1.478648,0.106702,-0.025423,0.3491,0.334051,-1.047198,-0.417401
-1.472687,0.106885,-0.027227,0.3491,0.335828,-1.047198,-0.417529
-1.469664,0.107042,-0.027827,0.3491,0.336453,-1.047198,-0.417421
-1.46378,0.107307,-0.029453,0.3491,0.337933,-1.047198,-0.416359
-1.460818,0.107611,-0.029717,0.3491,0.338014,-1.047198,-0.415518
-1.454743,0.107994,-0.031091,0.3491,0.339324,-1.047198,-0.413555
-1.429281,0.118671,0.035643,0.3491,0.268031,-1.042626,-0.402348
-1.446444,0.109183,-0.031461,0.3491,0.341219,-1.046439,-0.411845
-1.440065,0.10919,-0.032882,0.3491,0.344595,-1.043791,-0.411929
-1.434613,0.109381,-0.033622,0.3491,0.348013,-1.041364,-0.411329
-1.429203,0.109449,-0.033841,0.3491,0.349892,-1.039093,-0.410252
-1.42177,0.109377,-0.03542,0.3491,0.3526,-1.035958,-0.408073
-1.417909,0.109721,-0.035188,0.3491,0.352599,-1.034226,-0.406965
-1.410707,0.110056,-0.036609,0.3491,0.354539,-1.030613,-0.404814
-1.3839,0.120734,-0.009792,0.3491,0.323184,-1.018654,-0.397389
-1.399341,0.110794,-0.038197,0.3491,0.356307,-1.024575,-0.401678
-1.395144,0.110738,-0.03892,0.3491,0.357144,-1.022647,-0.400711
-1.385513,0.110524,-0.041762,0.3491,0.359511,-1.018531,-0.398091
-1.379423,0.110728,-0.042888,0.3491,0.36003,-1.01588,-0.396292
-1.372214,0.110738,-0.044913,0.3491,0.361465,-1.01255,-0.394115
-1.367106,0.111135,-0.045448,0.3491,0.361681,-1.009564,-0.392501
-1.359865,0.111502,-0.046871,0.3491,0.362847,-1.004772,-0.390098
-1.356591,0.111935,-0.046851,0.3491,0.362533,-1.002748,-0.389024
-1.348598,0.112211,-0.048983,0.3491,0.363462,-0.999205,-0.386467
-1.343093,0.111968,-0.050468,0.3491,0.364395,-0.997627,-0.385296
-1.333553,0.111929,-0.053548,0.3491,0.365747,-0.995023,-0.38266
-1.328998,0.111876,-0.054597,0.3491,0.366417,-0.99374,-0.381686
-1.319984,0.111635,-0.056953,0.3491,0.36851,-0.991547,-0.379817
-1.31421,0.111668,-0.057786,0.3491,0.36939,-0.99011,-0.378776
-1.307166,0.111571,-0.05963,0.3491,0.371174,-0.988448,-0.377535
-1.30103,0.111789,-0.060892,0.3491,0.372102,-0.986776,-0.376501
-1.291518,0.111923,-0.064066,0.3491,0.374625,-0.98429,-0.375008
-1.287094,0.112181,-0.064921,0.3491,0.375172,-0.982916,-0.374295
-1.277921,0.112237,-0.06803,0.3491,0.377605,-0.980183,-0.372652
-1.273764,0.112396,-0.068942,0.3491,0.378248,-0.978741,-0.371934
-1.264587,0.112286,-0.072218,0.3491,0.3809,-0.975573,-0.370099
-1.260449,0.112306,-0.073389,0.3491,0.381782,-0.974137,-0.369128
-1.250732,0.111788,-0.077322,0.3491,0.385013,-0.970814,-0.366128
-1.244235,0.111576,-0.079552,0.3491,0.386798,-0.968518,-0.364053
-1.236291,0.111152,-0.083124,0.3491,0.38981,-0.965831,-0.361688
-1.229631,0.111151,-0.085629,0.3491,0.391872,-0.963645,-0.360297
-1.219365,0.110937,-0.09068,0.3491,0.396221,-0.960507,-0.358519
-1.21473,0.111085,-0.092306,0.3491,0.397549,-0.958914,-0.357655
-1.205267,0.110818,-0.097066,0.3491,0.401722,-0.955277,-0.35506
-1.201155,0.110962,-0.098408,0.3491,0.402832,-0.953418,-0.353765
-1.19209,0.110679,-0.102972,0.3491,0.40698,-0.949261,-0.350536
-1.187741,0.110704,-0.104849,0.3491,0.408774,-0.947427,-0.349258
-1.176854,0.110054,-0.111429,0.3491,0.415415,-0.943303,-0.346035
-1.169529,0.109869,-0.115166,0.3491,0.419094,-0.940886,-0.34418
-1.162228,0.109855,-0.119256,0.3491,0.422868,-0.937808,-0.341896
-1.156358,0.10996,-0.122175,0.3491,0.425183,-0.935529,-0.340285
-1.146939,0.109508,-0.129205,0.3491,0.431126,-0.931536,-0.337934
-1.144933,0.110203,-0.129037,0.3491,0.430069,-0.930084,-0.336928
-1.135987,0.108747,-0.137117,0.3491,0.437262,-0.925753,-0.334018
-1.134718,0.108881,-0.137065,0.3491,0.436162,-0.924214,-0.332369
-1.127849,0.107283,-0.143637,0.3491,0.441355,-0.919912,-0.328616
-1.123612,0.106225,-0.148305,0.3491,0.445795,-0.918431,-0.327441
-1.118116,0.106107,-0.153088,0.3491,0.448481,-0.914634,-0.324336
-1.114051,0.106044,-0.156462,0.3491,0.450658,-0.912523,-0.322644
-1.103764,0.105442,-0.165141,0.348549,0.458437,-0.908834,-0.320595
-1.1016,0.104121,-0.170645,0.3491,0.463492,-0.907859,-0.320193
-1.096001,0.10312,-0.177561,0.347503,0.469346,-0.905493,-0.319357
-1.094065,0.103673,-0.17762,0.346655,0.468617,-0.904337,-0.318835
-1.085922,0.102645,-0.186217,0.341602,0.476076,-0.90115,-0.317281
-1.082387,0.103724,-0.185813,0.3385,0.474679,-0.899328,-0.316221
-1.073529,0.103133,-0.19403,0.332285,0.481541,-0.895748,-0.31414
-1.06889,0.104559,-0.193363,0.327626,0.480074,-0.893572,-0.312896
-1.059591,0.104089,-0.201387,0.321102,0.48807,-0.89036,-0.311062
-1.052697,0.104727,-0.204572,0.315142,0.491249,-0.887879,-0.309668
-1.045451,0.105047,-0.209414,0.309993,0.495893,-0.885258,-0.308088
-1.039491,0.105427,-0.213586,0.305483,0.499458,-0.88302,-0.306718
-1.033122,0.10512,-0.221248,0.303038,0.505869,-0.880509,-0.304953
-1.029776,0.106143,-0.221472,0.300457,0.50534,-0.878957,-0.303983
-1.025094,0.104313,-0.23196,0.300938,0.515368,-0.877765,-0.302927
-1.023481,0.104892,-0.232107,0.300716,0.515215,-0.876927,-0.302473
-1.020739,0.102413,-0.242097,0.303963,0.525099,-0.876808,-0.301888
-1.020427,0.102589,-0.242211,0.305524,0.525044,-0.876419,-0.301666
-1.018878,0.099821,-0.25143,0.310369,0.534389,-0.876646,-0.301267
-1.018739,0.099847,-0.251575,0.313128,0.534298,-0.876161,-0.301041
-1.018039,0.096985,-0.259862,0.318178,0.542876,-0.87677,-0.300929
-1.018014,0.096899,-0.2601,0.321242,0.542682,-0.876316,-0.300849
-1.016624,0.094271,-0.267781,0.326574,0.55004,-0.876553,-0.300742
-1.016956,0.094127,-0.268003,0.329164,0.54988,-0.876379,-0.300816
-1.015468,0.09199,-0.274022,0.333774,0.556036,-0.876318,-0.300951
-1.015586,0.091861,-0.274144,0.335899,0.555954,-0.876058,-0.301002
-1.013928,0.089937,-0.279791,0.340094,0.562153,-0.875904,-0.301427
-1.01387,0.089882,-0.279902,0.34199,0.562084,-0.875586,-0.301413
-1.012035,0.087431,-0.286723,0.346603,0.569648,-0.875832,-0.301651
-1.011826,0.085957,-0.290038,0.3491,0.573333,-0.876099,-0.301817
-1.009799,0.086222,-0.29043,0.3491,0.573007,-0.874759,-0.300784
-1.008126,0.08482,-0.294852,0.3491,0.577268,-0.874146,-0.300309
-1.006571,0.083384,-0.29958,0.3491,0.581049,-0.87187,-0.298949
-1.005216,0.083466,-0.299809,0.3491,0.580652,-0.870959,-0.298011
-1.002467,0.082345,-0.303452,0.3491,0.584587,-0.86995,-0.297408
-1.002025,0.081334,-0.30621,0.3491,0.587985,-0.869963,-0.297948
-0.999706,0.079106,-0.311195,0.3491,0.594548,-0.870411,-0.298224
-0.998218,0.079619,-0.310662,0.3491,0.593845,-0.869606,-0.29776
-0.996123,0.077342,-0.316141,0.3491,0.600534,-0.869668,-0.298099
-0.994655,0.076694,-0.318073,0.3491,0.602644,-0.869163,-0.29792
-0.992673,0.075791,-0.32089,0.3491,0.60553,-0.868459,-0.297616
-0.991596,0.074943,-0.323465,0.3491,0.607882,-0.867902,-0.297475
-0.989813,0.073661,-0.327695,0.3491,0.611211,-0.866674,-0.296937
-0.989507,0.072664,-0.330172,0.3491,0.613615,-0.866538,-0.297076
-0.987645,0.070964,-0.33414,0.3491,0.617436,-0.865865,-0.296233
-0.986578,0.070749,-0.334797,0.3491,0.618132,-0.865566,-0.295815
-0.984772,0.068683,-0.338585,0.3491,0.622426,-0.865438,-0.294958
-0.983691,0.068515,-0.339142,0.3491,0.62287,-0.865195,-0.294737
-0.982294,0.066753,-0.343095,0.3491,0.627009,-0.865202,-0.295828
-0.980864,0.066574,-0.344165,0.3491,0.627744,-0.864887,-0.296407
-0.97937,0.065653,-0.346623,0.3491,0.629849,-0.864768,-0.296974
-0.978136,0.065178,-0.348057,0.3491,0.630708,-0.864516,-0.296667
-0.977425,0.06308,-0.352594,0.3491,0.634778,-0.864526,-0.296457
-0.977511,0.061973,-0.354596,0.3491,0.636544,-0.864617,-0.2964
-0.976109,0.060462,-0.358099,0.3491,0.63949,-0.864564,-0.296515
-0.974793,0.060708,-0.35824,0.3491,0.639191,-0.864316,-0.296393
-0.973391,0.059066,-0.361676,0.3491,0.6423,-0.864535,-0.297037
-0.973739,0.057861,-0.363698,0.3491,0.64433,-0.864646,-0.297553
-0.972847,0.05626,-0.367131,0.3491,0.647322,-0.864303,-0.298107
-0.972395,0.055347,-0.369061,0.3491,0.649046,-0.864007,-0.298433
-0.971656,0.054106,-0.371533,0.3491,0.651572,-0.863628,-0.298716
-0.971001,0.053284,-0.372778,0.3491,0.653329,-0.86345,-0.298755
-0.96927,0.052081,-0.374708,0.3491,0.656611,-0.863051,-0.298523
-0.969268,0.051402,-0.375414,0.3491,0.657818,-0.86301,-0.298583
-0.969619,0.049204,-0.379191,0.3491,0.661892,-0.862562,-0.299039
-0.970441,0.048154,-0.380886,0.3491,0.663422,-0.862378,-0.299467
-0.972509,0.045106,-0.38592,0.3491,0.667903,-0.861839,-0.300303
-0.973445,0.043859,-0.387693,0.3491,0.669566,-0.861624,-0.300411
-0.975763,0.040297,-0.392391,0.3491,0.674194,-0.860879,-0.299583
-0.977403,0.037877,-0.394998,0.3491,0.677098,-0.860688,-0.298963
-0.978926,0.035072,-0.398304,0.3491,0.680747,-0.860273,-0.298436
-0.980208,0.033285,-0.400284,0.3491,0.682826,-0.859917,-0.298568
-0.981337,0.030302,-0.403726,0.3491,0.68703,-0.859892,-0.299508
-0.982129,0.029013,-0.40477,0.3491,0.688455,-0.859991,-0.299961
-0.982499,0.026321,-0.407664,0.3491,0.692254,-0.859631,-0.300373
-0.982911,0.025162,-0.408489,0.3491,0.693548,-0.859554,-0.300501
-0.982759,0.022696,-0.410934,0.3491,0.696966,-0.858884,-0.300517
-0.983035,0.021637,-0.411768,0.3491,0.698083,-0.858588,-0.300574
-0.983096,0.019276,-0.414293,0.3491,0.70088,-0.857273,-0.300587
-0.979548,0.020305,-0.415688,0.3491,0.701088,-0.854867,-0.29932
-0.983553,0.015841,-0.417617,0.3491,0.704142,-0.855238,-0.300535
-0.983788,0.014291,-0.418923,0.3491,0.705346,-0.854496,-0.300434
-0.983477,0.011877,-0.4214,0.3491,0.707433,-0.853119,-0.300037
-0.983698,0.010771,-0.422212,0.3491,0.70809,-0.852688,-0.299943
-0.983438,0.008386,-0.424537,0.3491,0.709687,-0.851453,-0.299537
-0.983067,0.008252,-0.424681,0.3491,0.709253,-0.850898,-0.29923
-0.98274,0.006176,-0.426594,0.3491,0.710111,-0.849739,-0.298706
-0.983128,0.005035,-0.427197,0.3491,0.710608,-0.849398,-0.298678
-0.847518,0.129415,-0.318107,0.331891,0.553315,-0.788807,-0.240575
-0.856676,0.129145,-0.310462,0.34552,0.544206,-0.790183,-0.240452
-0.85578,0.131931,-0.303565,0.346544,0.535538,-0.78821,-0.238394
-0.852356,0.134714,-0.298818,0.34388,0.529344,-0.785976,-0.236266
-0.845532,0.139553,-0.29086,0.338274,0.518891,-0.782041,-0.232407
-0.841602,0.140726,-0.29108,0.335255,0.518577,-0.780514,-0.231236
-0.834606,0.146251,-0.281692,0.328611,0.505763,-0.776247,-0.227841
-0.830647,0.147561,-0.282152,0.325314,0.505305,-0.774698,-0.227175
-0.824095,0.152422,-0.274392,0.319424,0.493877,-0.770698,-0.224504
-0.820369,0.153622,-0.274759,0.316517,0.493551,-0.769181,-0.223759
-0.812943,0.160018,-0.262527,0.308347,0.477924,-0.763743,-0.219552
-0.806261,0.164041,-0.256374,0.300831,0.470314,-0.759842,-0.216853
-0.79862,0.169059,-0.247294,0.292469,0.459496,-0.754937,-0.213484
-0.791562,0.173054,-0.240061,0.284451,0.451381,-0.750747,-0.210885
-0.782005,0.17918,-0.226552,0.273956,0.436657,-0.744242,-0.206873
-0.776199,0.180605,-0.226391,0.268453,0.436871,-0.74191,-0.205813
-0.766596,0.187295,-0.209776,0.257486,0.418552,-0.73536,-0.201973
-0.76067,0.188684,-0.209747,0.251851,0.418691,-0.733079,-0.201129
-0.751306,0.194366,-0.195586,0.242222,0.403129,-0.727578,-0.198174
-0.745838,0.19559,-0.195552,0.23716,0.403336,-0.725464,-0.197426
-0.736484,0.201049,-0.180246,0.227473,0.387396,-0.719861,-0.195008
-0.72866,0.204083,-0.173369,0.21923,0.380799,-0.716062,-0.193656
-0.719978,0.208241,-0.161625,0.209922,0.369277,-0.710847,-0.191639
-0.711594,0.212114,-0.150076,0.199934,0.358269,-0.70557,-0.189518
-0.700967,0.218609,-0.126243,0.186772,0.335089,-0.696683,-0.185838
-0.691785,0.221763,-0.116267,0.175193,0.326261,-0.691629,-0.184025
-0.682708,0.227296,-0.092868,0.164264,0.303415,-0.683757,-0.180837
-0.673788,0.228592,-0.09135,0.154587,0.303382,-0.680421,-0.179605
-0.669699,0.234222,-0.061567,0.148883,0.273068,-0.673359,-0.176741
-0.663006,0.235132,-0.059665,0.141956,0.272431,-0.670722,-0.175934
-0.666593,0.238717,-0.036882,0.147113,0.248232,-0.667255,-0.174466
-0.664768,0.238895,-0.03634,0.147123,0.248143,-0.666051,-0.174036
-0.675578,0.240805,-0.022885,0.161927,0.232042,-0.666433,-0.173599
-0.678027,0.240354,-0.025014,0.167703,0.233788,-0.66681,-0.173526
-0.690899,0.24137,-0.017855,0.186782,0.223505,-0.668682,-0.173529
-0.694726,0.240625,-0.021264,0.193613,0.226212,-0.669844,-0.173654
-0.705558,0.241217,-0.017558,0.210457,0.219667,-0.671544,-0.173224
-0.708437,0.240684,-0.020559,0.215994,0.222041,-0.672413,-0.17317
-0.717233,0.241323,-0.01747,0.230165,0.21628,-0.673474,-0.172211
-0.719053,0.24098,-0.01975,0.23434,0.218113,-0.673936,-0.172121
-0.72627,0.24183,-0.016557,0.246781,0.212832,-0.674736,-0.171643
-0.726644,0.241732,-0.017905,0.249816,0.213967,-0.674464,-0.17144
-0.732531,0.242768,-0.015072,0.259916,0.209338,-0.674947,-0.171325
-0.732432,0.242627,-0.016135,0.262319,0.210019,-0.674444,-0.171133
-0.741724,0.244103,-0.011794,0.276764,0.202158,-0.674668,-0.170489
-0.742585,0.243859,-0.01361,0.279807,0.203475,-0.674724,-0.170393
-0.750129,0.244703,-0.010837,0.29214,0.197927,-0.674428,-0.169138
-0.752847,0.244603,-0.011283,0.297027,0.197508,-0.674518,-0.168579
-0.7581,0.245101,-0.009469,0.306908,0.193666,-0.673852,-0.166848
-0.758196,0.244893,-0.010442,0.308778,0.194328,-0.67342,-0.166263
-0.765871,0.246506,-0.006923,0.321249,0.18751,-0.672672,-0.164125
-0.766093,0.246684,-0.007623,0.323837,0.187276,-0.671531,-0.162866
-0.772541,0.248238,-0.004832,0.334522,0.181608,-0.671345,-0.161485
-0.771288,0.248565,-0.005082,0.335722,0.181461,-0.670341,-0.161075
-0.775319,0.249963,-0.003025,0.344878,0.176674,-0.670022,-0.160254
-0.77446,0.25022,-0.003342,0.345652,0.176447,-0.669417,-0.160044
-0.772012,0.250499,-0.003576,0.347288,0.17492,-0.668373,-0.158513
-0.769831,0.250931,-0.002673,0.346319,0.17322,-0.667682,-0.157589
-0.767113,0.251743,-0.001583,0.347324,0.169505,-0.666614,-0.155389
-0.764846,0.252187,-0.000435,0.346302,0.167911,-0.665857,-0.15457
-0.763411,0.253167,0.001614,0.3491,0.164625,-0.664851,-0.153223
-0.761574,0.254531,0.005283,0.3491,0.160462,-0.663342,-0.152261
-0.759316,0.255446,0.007009,0.3491,0.157964,-0.662242,-0.15114
-0.757818,0.25707,0.010375,0.3491,0.153371,-0.661395,-0.150017
-0.753912,0.258533,0.011975,0.3491,0.150017,-0.660253,-0.148145
-0.753193,0.260169,0.015334,0.3491,0.145645,-0.659709,-0.147496
-0.750791,0.262159,0.018024,0.3491,0.140529,-0.658005,-0.145819
-0.749662,0.263338,0.020222,0.3491,0.137403,-0.657038,-0.145346
-0.748478,0.265963,0.024074,0.3491,0.130815,-0.654947,-0.144064
-0.747628,0.26694,0.026125,0.3491,0.127962,-0.653745,-0.143344
-0.747307,0.269412,0.031014,0.3491,0.121161,-0.651131,-0.141422
-0.746484,0.271072,0.034763,0.3491,0.116622,-0.64923,-0.140174
-0.746763,0.273232,0.039136,0.3491,0.1111,-0.64716,-0.1386
-0.746306,0.275257,0.043652,0.3491,0.106098,-0.645255,-0.137472
-0.746449,0.278078,0.04903,0.3491,0.100324,-0.643002,-0.13597
-0.745018,0.279501,0.05246,0.3491,0.096952,-0.641623,-0.135351
-0.7444,0.28228,0.056988,0.3491,0.09079,-0.639072,-0.133541
-0.74273,0.283522,0.05951,0.3491,0.087665,-0.637399,-0.132778
-0.741268,0.286394,0.063864,0.3491,0.08079,-0.634938,-0.130881
-0.739542,0.287557,0.065859,0.3491,0.078065,-0.633539,-0.130247
-0.736185,0.2902,0.06903,0.3491,0.072782,-0.631764,-0.129052
-0.733085,0.292,0.071777,0.3491,0.068929,-0.630521,-0.12844
-0.730408,0.294154,0.07415,0.3491,0.064775,-0.629031,-0.127593
-0.728174,0.296132,0.077252,0.3491,0.060406,-0.627284,-0.126888
-0.726296,0.299213,0.080903,0.3491,0.054232,-0.62461,-0.125717
-0.724903,0.3007,0.083504,0.3491,0.050715,-0.62307,-0.125114
-0.723971,0.303954,0.087298,0.3491,0.043712,-0.619519,-0.123126
-0.72349,0.305717,0.090169,0.3491,0.03933,-0.617677,-0.122057
-0.723436,0.309242,0.094457,0.3491,0.031395,-0.613395,-0.11941
-0.723345,0.311001,0.097396,0.3491,0.027249,-0.611755,-0.118388
-0.723585,0.314413,0.102315,0.3491,0.020513,-0.608263,-0.116246
-0.722838,0.316498,0.106272,0.3491,0.016074,-0.605656,-0.115014
-0.722564,0.318634,0.109527,0.3491,0.012009,-0.603152,-0.11359
-0.721503,0.320412,0.113243,0.3491,0.007743,-0.601234,-0.11262
-0.7195,0.321754,0.115775,0.3491,0.004726,-0.599272,-0.111452
-0.71857,0.322979,0.118536,0.3491,0.001446,-0.597648,-0.110881
-0.717094,0.324862,0.120914,0.3491,-0.002744,-0.595075,-0.110003
-0.716372,0.326067,0.122817,0.3491,-0.005733,-0.593837,-0.109727
-0.714861,0.32814,0.124841,0.3491,-0.010254,-0.591072,-0.109178
-0.714007,0.329007,0.126207,0.3491,-0.012242,-0.589935,-0.108854
-0.712393,0.33082,0.12878,0.3491,-0.015142,-0.587669,-0.107998
-0.711234,0.332307,0.131687,0.3491,-0.017961,-0.586184,-0.107361
-0.710554,0.334132,0.134188,0.3491,-0.021138,-0.584302,-0.106403
-0.709713,0.335758,0.136714,0.3491,-0.024894,-0.581939,-0.105476
-0.70865,0.337694,0.13895,0.3491,-0.029941,-0.578153,-0.103541
-0.708923,0.339463,0.141467,0.3491,-0.034094,-0.576428,-0.102733
-0.707891,0.341483,0.143519,0.3491,-0.039052,-0.572541,-0.100966
-0.708653,0.343507,0.146016,0.3491,-0.043369,-0.570869,-0.100209
-0.707798,0.345789,0.148221,0.3491,-0.048743,-0.566929,-0.09852
-0.706939,0.346506,0.14917,0.3491,-0.050775,-0.565417,-0.097878
-0.704311,0.347812,0.150824,0.3491,-0.055008,-0.562521,-0.09603
-0.703173,0.349342,0.153157,0.3491,-0.059321,-0.560912,-0.094808
-0.700706,0.35018,0.154201,0.3491,-0.062446,-0.558828,-0.093915
-0.697947,0.350294,0.154414,0.3491,-0.063927,-0.557075,-0.09411
-0.694563,0.35122,0.15509,0.3491,-0.067405,-0.554574,-0.095247
-0.693934,0.352222,0.156375,0.3491,-0.070137,-0.553448,-0.095393
-0.691746,0.35355,0.158063,0.3491,-0.074107,-0.550169,-0.094935
-0.690562,0.354167,0.159552,0.3491,-0.07608,-0.548601,-0.094476
-0.689246,0.355969,0.162346,0.3491,-0.080815,-0.544369,-0.092695
-0.688844,0.357049,0.164077,0.3491,-0.083763,-0.5422,-0.091796
-0.69013,0.359725,0.16821,0.3491,-0.09016,-0.536139,-0.088776
-0.691446,0.361852,0.171566,0.3491,-0.095127,-0.531917,-0.086633
-0.69331,0.364591,0.175284,0.3491,-0.100988,-0.526178,-0.083922
-0.694681,0.367065,0.178684,0.3491,-0.1078,-0.521562,-0.08199
-0.698328,0.371804,0.184995,0.3491,-0.11948,-0.513779,-0.078741
-0.699219,0.373367,0.187759,0.3491,-0.123287,-0.510609,-0.077571
-0.702126,0.37762,0.195205,0.3491,-0.132319,-0.504238,-0.074967
-0.702929,0.379499,0.198902,0.3491,-0.137312,-0.501627,-0.073952
-0.703532,0.383055,0.20469,0.3491,-0.147572,-0.495847,-0.071964
-0.702838,0.384305,0.206395,0.3491,-0.150924,-0.493216,-0.071256
-0.706185,0.389273,0.216645,0.3491,-0.163796,-0.487194,-0.068784
-0.707221,0.392041,0.222032,0.3491,-0.170542,-0.483376,-0.067392
-0.708269,0.395146,0.228521,0.3491,-0.179176,-0.478608,-0.064969
-0.70848,0.397603,0.234676,0.3491,-0.187071,-0.475124,-0.062284
-0.708361,0.400486,0.243367,0.3491,-0.196212,-0.470181,-0.057166
-0.708068,0.402281,0.24848,0.3491,-0.201354,-0.467562,-0.055112
-0.7088,0.405843,0.259404,0.3491,-0.212483,-0.4618,-0.051666
-0.708795,0.407654,0.263935,0.3491,-0.217914,-0.45901,-0.050781
-0.709722,0.411772,0.27435,0.3491,-0.232022,-0.452469,-0.048906
-0.710846,0.413926,0.281056,0.3491,-0.240192,-0.44965,-0.047461
-0.712477,0.417756,0.297041,0.3491,-0.254456,-0.442744,-0.04325
-0.713262,0.420547,0.309112,0.3491,-0.264326,-0.438168,-0.040292
-0.716048,0.424155,0.328266,0.3491,-0.281516,-0.432471,-0.036133
-0.71652,0.426782,0.339379,0.3491,-0.292355,-0.427619,-0.033508
-0.719868,0.430955,0.361803,0.3491,-0.313823,-0.420014,-0.028844
-0.719898,0.432983,0.369908,0.3491,-0.321582,-0.416504,-0.027115
-0.722874,0.437394,0.39392,0.3491,-0.345079,-0.409262,-0.02223
-0.7215,0.438776,0.396996,0.3491,-0.348217,-0.405977,-0.021001
-0.722824,0.442877,0.416858,0.3491,-0.368061,-0.398921,-0.016597
-0.72283,0.44489,0.426201,0.3491,-0.377322,-0.396248,-0.014864
-0.721872,0.448271,0.440486,0.3491,-0.391891,-0.390985,-0.01107
-0.72035,0.450503,0.448285,0.3491,-0.399897,-0.387941,-0.00902
-0.719724,0.453199,0.459918,0.3491,-0.411304,-0.384018,-0.006479
-0.719342,0.455833,0.4709,0.3491,-0.421514,-0.380316,-0.005026
-0.720126,0.459547,0.488375,0.3491,-0.437089,-0.37439,-0.003112
-0.719759,0.461883,0.499833,0.3491,-0.447498,-0.371579,-0.002126
-0.718444,0.465153,0.517302,0.3491,-0.462473,-0.366246,0.000337
-0.716544,0.46643,0.521116,0.3491,-0.465077,-0.36397,0.000979
-0.714299,0.469473,0.538305,0.3491,-0.479843,-0.359187,0.003788
-0.713013,0.471076,0.544909,0.3491,-0.486593,-0.357157,0.004818
-0.709893,0.474058,0.553704,0.3491,-0.498967,-0.353467,0.006941
-0.707394,0.475972,0.557557,0.3491,-0.506489,-0.351412,0.00817
-0.704409,0.478209,0.560734,0.3491,-0.516143,-0.348609,0.010273
-0.702247,0.479959,0.56293,0.3491,-0.524859,-0.346186,0.012508
-0.699044,0.482504,0.561671,0.3491,-0.53733,-0.341915,0.016761
-0.697616,0.483754,0.565314,0.3491,-0.545777,-0.340154,0.018691
-0.694166,0.486352,0.568235,0.3491,-0.558508,-0.335248,0.022327
-0.692682,0.488069,0.575981,0.3491,-0.568896,-0.332831,0.024034
-0.689209,0.491308,0.587008,0.3491,-0.586095,-0.327,0.027395
-0.687696,0.492627,0.590623,0.3491,-0.591979,-0.324547,0.028444
-0.68458,0.496366,0.606688,0.3491,-0.612671,-0.318256,0.03111
-0.682208,0.498574,0.61337,0.3491,-0.621905,-0.314334,0.03216
-0.678457,0.501489,0.627844,0.3491,-0.638487,-0.309272,0.034298
-0.675107,0.503524,0.637224,0.3491,-0.648949,-0.305869,0.03631
-0.670138,0.505718,0.646849,0.3491,-0.659803,-0.301034,0.039758
-0.667661,0.507182,0.65263,0.3491,-0.665597,-0.298898,0.040929
-0.66096,0.510585,0.674664,0.3491,-0.685762,-0.294031,0.043296
-0.658012,0.512167,0.679415,0.3491,-0.689669,-0.292326,0.043312
-0.650334,0.515471,0.696083,0.3491,-0.703187,-0.288573,0.043704
-0.646702,0.517161,0.704607,0.3491,-0.710203,-0.287013,0.044
-0.639055,0.519336,0.715878,0.3491,-0.718459,-0.285322,0.044941
-0.635458,0.520833,0.71765,0.3491,-0.718909,-0.284613,0.045083
-0.628953,0.522456,0.728395,0.3491,-0.726145,-0.283768,0.045924
-0.624726,0.523774,0.732949,0.3491,-0.727722,-0.283374,0.046214
-0.615793,0.525108,0.745365,0.3491,-0.733237,-0.283945,0.047316
-0.612954,0.525936,0.747676,0.3491,-0.733461,-0.283873,0.04731
-0.603737,0.527928,0.763431,0.3491,-0.744863,-0.28221,0.047598
-0.602526,0.528419,0.761674,0.3491,-0.742964,-0.281802,0.046959
-0.593309,0.530642,0.780354,0.3491,-0.75937,-0.278456,0.046826
-0.588649,0.531799,0.792406,0.3491,-0.770225,-0.276317,0.047189
-0.581908,0.533595,0.802916,0.3491,-0.781425,-0.27298,0.04875
-0.577392,0.534937,0.811925,0.3491,-0.79094,-0.270279,0.050051
-0.570125,0.536773,0.827948,0.3491,-0.806048,-0.266371,0.051506
-0.562464,0.538239,0.847085,0.3491,-0.822057,-0.262901,0.052183
-0.550259,0.5407,0.876577,0.3491,-0.845126,-0.257221,0.052331
-0.544242,0.541495,0.892277,0.3491,-0.857742,-0.254385,0.052654
-0.526991,0.543432,0.938641,0.3491,-0.896647,-0.245337,0.054008
-0.519692,0.544012,0.958632,0.3491,-0.913879,-0.24109,0.054702
-0.497539,0.544669,1.018954,0.3491,-0.965021,-0.229119,0.056466
-0.497539,0.544669,1.018954,0.3491,-0.965021,-0.229119,0.056466
-0.497539,0.544669,1.018954,0.3491,-0.965021,-0.229119,0.056466
-0.497539,0.544669,1.018954,0.3491,-0.965021,-0.229119,0.056466
-0.497539,0.544669,1.018954,0.3491,-0.965021,-0.229119,0.056466
-0.497539,0.544669,1.018954,0.3491,-0.965021,-0.229119,0.056466
-3.162214,1.383801,1.726135,-1.351655,1.856944,-0.387341,0.000463
-3.400576,1.239125,1.384641,-1.510643,1.555313,-0.468069,8.8e-05
-3.67735,1.302718,1.047073,-1.384064,1.461034,-0.522695,-0.010384
-3.933529,1.499885,0.741013,-1.192051,1.714921,-0.575724,-0.059587
-4.171219,1.611043,0.410409,-1.15114,1.904205,-0.549563,-0.097429
-4.170707,1.634523,0.227534,-1.166329,1.950088,-0.533448,-0.107599
-4.179426,1.653827,0.197106,-1.159544,1.980509,-0.538898,-0.114846
-4.182877,1.660759,0.185349,-1.156845,1.991236,-0.540395,-0.117183
-4.183357,1.662953,0.180815,-1.15555,1.99573,-0.539771,-0.117699
-4.184924,1.661189,0.178952,-1.156432,1.995511,-0.538839,-0.117177
-4.184514,1.659172,0.178701,-1.157633,1.997417,-0.537427,-0.116853
-4.18401,1.657402,0.179828,-1.158375,1.996664,-0.536521,-0.116386
-4.183553,1.65413,0.180095,-1.159672,1.995707,-0.535146,-0.115691
-4.182827,1.652533,0.181187,-1.160152,1.994402,-0.534342,-0.11508
-4.181394,1.650128,0.181711,-1.160922,1.993471,-0.533167,-0.114541
-4.180537,1.648604,0.182456,-1.161401,1.992373,-0.532828,-0.114378
-4.179221,1.646674,0.182724,-1.16199,1.991311,-0.531798,-0.114641
-4.17844,1.645653,0.182833,-1.162277,1.990583,-0.531192,-0.114891
-4.177422,1.644273,0.182955,-1.162416,1.989474,-0.530312,-0.115323
-4.176666,1.643587,0.182987,-1.162596,1.988691,-0.529598,-0.115084
-4.177503,1.641206,0.182497,-1.162748,1.985326,-0.527324,-0.114617
-4.176869,1.640428,0.182937,-1.162897,1.984284,-0.52673,-0.114247
-4.176186,1.63939,0.183055,-1.162998,1.983436,-0.524728,-0.11371
-4.175539,1.638115,0.184014,-1.163383,1.982132,-0.523865,-0.113122
-4.174625,1.63654,0.184717,-1.164061,1.981002,-0.521845,-0.111958
-4.173943,1.635253,0.185694,-1.164473,1.979654,-0.521041,-0.111479
-4.17287,1.633624,0.186091,-1.164926,1.978426,-0.51944,-0.111318
-4.172088,1.632658,0.186437,-1.165276,1.977456,-0.518596,-0.111078
-4.172091,1.630354,0.186406,-1.165886,1.975177,-0.517345,-0.110969
-4.171091,1.628889,0.187423,-1.166367,1.973451,-0.516404,-0.110457
-4.169222,1.626865,0.188033,-1.166682,1.97174,-0.515908,-0.110546
-4.168365,1.625286,0.189472,-1.167234,1.969846,-0.51508,-0.109994
-4.166572,1.622598,0.190237,-1.168365,1.968718,-0.514794,-0.110038
-4.163751,1.622386,0.1921,-1.168764,1.969663,-0.514983,-0.109997
-4.160662,1.621328,0.192949,-1.169829,1.971556,-0.515194,-0.1103
-4.159931,1.619937,0.19404,-1.170396,1.970263,-0.514454,-0.109878
-4.158046,1.618181,0.194662,-1.170783,1.968857,-0.513452,-0.110105
-4.156977,1.616903,0.195471,-1.171048,1.967018,-0.512444,-0.109833
-4.155984,1.615677,0.195918,-1.170942,1.965338,-0.510977,-0.109771
-4.155293,1.614766,0.196656,-1.171103,1.963841,-0.509582,-0.109008
-4.156297,1.612672,0.19643,-1.171583,1.960518,-0.506752,-0.107193
-4.15556,1.611547,0.197479,-1.171908,1.959015,-0.505901,-0.106496
-4.155776,1.610676,0.197825,-1.172283,1.95766,-0.503053,-0.104862
-4.155374,1.609995,0.198293,-1.172655,1.957164,-0.502284,-0.104305
-4.155171,1.609755,0.198646,-1.173229,1.956974,-0.50007,-0.102761
-4.155088,1.609377,0.198938,-1.173109,1.956547,-0.499316,-0.102727
-4.154512,1.608911,0.199134,-1.172893,1.955451,-0.498976,-0.10285
-4.154174,1.608454,0.199218,-1.172415,1.954576,-0.499116,-0.103552
-4.15474,1.606564,0.199135,-1.172773,1.951827,-0.499362,-0.103672
-4.154608,1.60655,0.199219,-1.172647,1.951444,-0.499375,-0.103646
-4.154403,1.606181,0.199243,-1.172487,1.951147,-0.499454,-0.104018
-4.154403,1.606181,0.199243,-1.172487,1.951147,-0.499454,-0.104018
-4.154314,1.606216,0.199141,-1.172131,1.950915,-0.499639,-0.104026
-4.154287,1.60623,0.199106,-1.17196,1.950808,-0.499744,-0.104037
-4.155009,1.604344,0.199035,-1.17236,1.9483,-0.500102,-0.10379
-4.15504,1.604402,0.199061,-1.172283,1.948239,-0.500177,-0.103785
-4.155028,1.60446,0.199062,-1.171894,1.947911,-0.500627,-0.104076
-4.154906,1.604192,0.199005,-1.171623,1.947722,-0.501222,-0.104561
-4.155413,1.603719,0.198417,-1.171807,1.947167,-0.502074,-0.104574
-4.155484,1.603746,0.198477,-1.171625,1.947126,-0.50221,-0.104493
-4.155627,1.603666,0.198604,-1.171399,1.947209,-0.502373,-0.104307
-4.155688,1.603663,0.198662,-1.171379,1.947233,-0.502423,-0.104293
-4.155927,1.603619,0.198888,-1.171302,1.947372,-0.502633,-0.104136
-4.155961,1.603572,0.19892,-1.171275,1.947424,-0.502656,-0.10409
-4.156112,1.603467,0.199092,-1.171367,1.947624,-0.502865,-0.103919
-4.156109,1.603471,0.199125,-1.171484,1.947637,-0.503108,-0.103836
-4.156165,1.60361,0.199186,-1.171492,1.947471,-0.503314,-0.104057
-4.156133,1.603602,0.199161,-1.171415,1.947279,-0.503551,-0.104436
-4.156225,1.603797,0.199003,-1.171279,1.947294,-0.50382,-0.104789
-4.156408,1.604134,0.198644,-1.171155,1.947725,-0.504003,-0.104927
-4.156656,1.604493,0.198391,-1.17088,1.948039,-0.504326,-0.105029
-4.156814,1.60477,0.198051,-1.170769,1.948465,-0.504473,-0.105137
-4.158229,1.603985,0.196996,-1.171048,1.94758,-0.504931,-0.105106
-4.158262,1.604006,0.197027,-1.171035,1.94757,-0.504967,-0.105113
-4.158348,1.604148,0.197104,-1.170886,1.947419,-0.505156,-0.105167
-4.158409,1.604113,0.197166,-1.170876,1.947449,-0.505224,-0.105217
-4.158474,1.603986,0.197263,-1.170767,1.947398,-0.505587,-0.105545
-4.158424,1.603782,0.197288,-1.170746,1.947381,-0.506022,-0.10582
-4.158507,1.603755,0.197398,-1.170765,1.947416,-0.506244,-0.105842
-4.158461,1.603667,0.197427,-1.170869,1.947473,-0.506543,-0.105797
-4.158576,1.603538,0.197552,-1.170928,1.947661,-0.506601,-0.105732
-4.158613,1.603545,0.197589,-1.170924,1.947671,-0.506638,-0.105728
-4.158502,1.603505,0.197629,-1.171142,1.94768,-0.507149,-0.10573
-4.158539,1.603531,0.197666,-1.171151,1.947671,-0.507188,-0.105756
-4.158404,1.603281,0.197657,-1.171097,1.947558,-0.507714,-0.106362
-4.158431,1.603295,0.197684,-1.171094,1.947554,-0.507746,-0.106371
-4.157931,1.603237,0.1979,-1.171151,1.947819,-0.508284,-0.106308
-4.157956,1.60318,0.197924,-1.171107,1.947873,-0.508301,-0.106251
-4.157967,1.603105,0.197935,-1.171038,1.947946,-0.508319,-0.106115
-4.157974,1.603252,0.197978,-1.171157,1.947937,-0.508442,-0.105897
-4.157798,1.603521,0.197945,-1.171343,1.947824,-0.508788,-0.105511
-4.157792,1.603561,0.197941,-1.171351,1.947787,-0.508801,-0.105535
-4.157596,1.603626,0.197873,-1.171451,1.94765,-0.508992,-0.105753
-4.157554,1.603668,0.197835,-1.171511,1.947607,-0.508956,-0.10581
-4.156031,1.604398,0.198701,-1.17115,1.948507,-0.508875,-0.106755
-4.156012,1.604425,0.198684,-1.171184,1.948482,-0.508859,-0.106789
-4.156012,1.604425,0.198684,-1.171184,1.948482,-0.508859,-0.106789
-4.155789,1.604406,0.198672,-1.171484,1.948565,-0.509307,-0.106534
-4.155818,1.604413,0.198701,-1.17147,1.948568,-0.509343,-0.10653
-4.154601,1.605216,0.199123,-1.171174,1.949602,-0.509992,-0.106864
-4.154743,1.605568,0.199023,-1.171007,1.949589,-0.510261,-0.107022
-4.154808,1.605761,0.198854,-1.170992,1.949736,-0.510334,-0.107131
-4.154834,1.605879,0.198914,-1.170999,1.949587,-0.510557,-0.107352
-4.154722,1.605796,0.198904,-1.171044,1.949558,-0.510831,-0.107523
-4.154584,1.605841,0.198959,-1.171273,1.949527,-0.511259,-0.107637
-4.154622,1.605863,0.198999,-1.171288,1.949526,-0.511295,-0.107659
-4.15312,1.607401,0.199006,-1.170816,1.952043,-0.512418,-0.108572
-4.153186,1.60741,0.199073,-1.170843,1.952066,-0.512466,-0.108601
-4.153084,1.607124,0.19912,-1.170986,1.952141,-0.512923,-0.108999
-4.153063,1.607133,0.199152,-1.17102,1.952111,-0.513108,-0.109064
-4.152939,1.60708,0.199144,-1.170985,1.951993,-0.513516,-0.109305
-4.152956,1.607101,0.199162,-1.170989,1.951981,-0.51354,-0.109321
-4.152803,1.607018,0.199136,-1.171113,1.951958,-0.513814,-0.109528
-4.152784,1.60696,0.199126,-1.171165,1.952016,-0.51378,-0.109527
-4.152583,1.606816,0.19909,-1.171492,1.952151,-0.513917,-0.109631
-4.152413,1.606769,0.19905,-1.171577,1.952169,-0.514056,-0.109665
-4.150667,1.607406,0.200141,-1.171168,1.952992,-0.514082,-0.110177
-4.150605,1.607428,0.20008,-1.171192,1.952951,-0.514034,-0.110202
-4.150476,1.607416,0.199957,-1.171249,1.95291,-0.513914,-0.110263
-4.150447,1.607239,0.199933,-1.171317,1.953079,-0.513802,-0.110207
-4.15037,1.607064,0.199877,-1.171565,1.953409,-0.513507,-0.109819
-4.150278,1.606874,0.200032,-1.171741,1.953333,-0.513336,-0.109662
-4.150174,1.606702,0.200187,-1.172078,1.953235,-0.513144,-0.109728
-4.149942,1.606459,0.200503,-1.172246,1.952719,-0.513016,-0.109739
-4.149449,1.605858,0.200731,-1.172414,1.95216,-0.513313,-0.11071
-4.147599,1.606648,0.202018,-1.172072,1.953116,-0.513425,-0.111134
-4.14753,1.606719,0.201951,-1.172136,1.95304,-0.513368,-0.111197
-4.147559,1.606994,0.201945,-1.172229,1.952958,-0.51315,-0.111045
-4.147574,1.607098,0.201955,-1.172305,1.952914,-0.513104,-0.111078
-4.147607,1.607144,0.201989,-1.172374,1.952908,-0.513103,-0.11113
-4.147795,1.607222,0.202189,-1.172687,1.953047,-0.513018,-0.111274
-4.147891,1.60723,0.202294,-1.172787,1.953113,-0.513031,-0.111352
-4.148068,1.607182,0.202548,-1.173007,1.953195,-0.513256,-0.111842
-4.147574,1.60723,0.202712,-1.172953,1.953651,-0.51387,-0.112451
-4.14642,1.608797,0.202686,-1.17227,1.956364,-0.515072,-0.114037
-4.146609,1.609134,0.202349,-1.172188,1.956791,-0.515244,-0.114194
-4.146299,1.609787,0.202084,-1.171994,1.95757,-0.51598,-0.114485
-4.146444,1.61015,0.201736,-1.171792,1.957884,-0.51618,-0.114561
-4.146393,1.610409,0.201687,-1.17168,1.95768,-0.516265,-0.114359
-4.146491,1.610928,0.201262,-1.171506,1.957885,-0.516453,-0.114512
-4.146396,1.611337,0.201154,-1.171445,1.957461,-0.516489,-0.114688
-4.146503,1.61172,0.200739,-1.171384,1.957818,-0.516597,-0.114873
-4.14671,1.612277,0.200581,-1.17105,1.957654,-0.51626,-0.115174
-4.146765,1.612482,0.200393,-1.171031,1.957803,-0.516318,-0.115276
-4.146803,1.61287,0.200198,-1.170999,1.95778,-0.516332,-0.115395
-4.146778,1.612908,0.200173,-1.170999,1.957739,-0.516317,-0.115405
-4.146678,1.613006,0.200076,-1.170957,1.957649,-0.516246,-0.115295
-4.146592,1.6131,0.200027,-1.171028,1.957664,-0.516161,-0.11506
-4.145156,1.614282,0.20073,-1.170603,1.958965,-0.516126,-0.115058
-4.145089,1.61428,0.200663,-1.170595,1.958938,-0.516076,-0.115044
-4.145183,1.614705,0.200559,-1.170464,1.958788,-0.515411,-0.114603
-4.145181,1.614737,0.200511,-1.170384,1.958736,-0.515284,-0.114608
-4.14518,1.614846,0.200493,-1.170304,1.958629,-0.515298,-0.114581
-4.14518,1.614846,0.200493,-1.170304,1.958629,-0.515298,-0.114581
-4.14532,1.615024,0.200642,-1.170379,1.95858,-0.515449,-0.114597
-4.145319,1.615096,0.200651,-1.170431,1.958542,-0.515473,-0.114609
-4.145386,1.615303,0.200733,-1.17057,1.958421,-0.515567,-0.114783
-4.14541,1.615424,0.200767,-1.17065,1.958335,-0.515611,-0.114915
-4.14553,1.615733,0.200675,-1.170636,1.95837,-0.515776,-0.115123
-4.145683,1.615965,0.200606,-1.170479,1.958468,-0.516001,-0.115196
-4.145875,1.616274,0.2006,-1.170252,1.958541,-0.516433,-0.115186
-4.145866,1.616508,0.200471,-1.170232,1.958696,-0.516791,-0.11515
-4.14463,1.618335,0.200438,-1.169594,1.960989,-0.517806,-0.11591
-4.144686,1.618394,0.200495,-1.169623,1.960964,-0.517859,-0.115962
-4.144705,1.618568,0.200429,-1.169747,1.961021,-0.518381,-0.116489
-4.14474,1.618627,0.200466,-1.169768,1.960987,-0.518425,-0.116533
-4.143195,1.620523,0.200438,-1.169239,1.963035,-0.519455,-0.11713
-4.143167,1.62071,0.200408,-1.169151,1.962841,-0.519544,-0.11714
-4.143086,1.620935,0.200355,-1.169223,1.962657,-0.519596,-0.117169
-4.142954,1.621101,0.200247,-1.169214,1.962478,-0.519611,-0.117154
-4.142756,1.621332,0.20009,-1.169332,1.962254,-0.519557,-0.117226
-4.14084,1.622266,0.201365,-1.168975,1.963162,-0.51964,-0.117396
-4.140659,1.622433,0.201211,-1.16904,1.962957,-0.519604,-0.117484
-4.140415,1.622485,0.201135,-1.16917,1.962885,-0.519894,-0.117438
-4.138389,1.623525,0.201875,-1.168872,1.964103,-0.520429,-0.117868
-4.138346,1.623547,0.201835,-1.168906,1.964072,-0.520395,-0.117897
-4.138149,1.623553,0.201679,-1.169177,1.964014,-0.520224,-0.118173
-4.138028,1.623443,0.201592,-1.169395,1.964078,-0.520075,-0.118379
-4.137862,1.623358,0.20147,-1.169535,1.964058,-0.519977,-0.118645
-4.137451,1.622662,0.20206,-1.169753,1.963345,-0.519838,-0.118617
-4.134946,1.623444,0.203441,-1.16952,1.964611,-0.520177,-0.118683
-4.1349,1.623425,0.203397,-1.169524,1.964611,-0.520138,-0.11867
-4.13468,1.623389,0.203209,-1.169616,1.964567,-0.520013,-0.118713
-4.133768,1.623381,0.203717,-1.169607,1.964651,-0.52029,-0.119007
-4.13345,1.62308,0.203958,-1.169777,1.964045,-0.520068,-0.119177
-4.133234,1.622751,0.204302,-1.169907,1.963547,-0.519889,-0.11912
-4.132864,1.622287,0.204495,-1.17,1.963122,-0.519571,-0.118913
-4.132575,1.621909,0.204745,-1.170112,1.962703,-0.519327,-0.118718
-4.132238,1.621608,0.204918,-1.170294,1.962313,-0.519067,-0.118487
-4.131973,1.621287,0.205192,-1.170496,1.961893,-0.51883,-0.118359
-4.131587,1.620962,0.205371,-1.170761,1.961432,-0.518527,-0.118285
-4.131341,1.620655,0.205723,-1.170963,1.960943,-0.518373,-0.11822
-4.129387,1.621345,0.206801,-1.170583,1.961765,-0.518525,-0.1187
-4.129346,1.621377,0.206761,-1.170601,1.961723,-0.518499,-0.118726
-4.12923,1.621574,0.20664,-1.170523,1.961463,-0.518512,-0.118819
-4.129188,1.621552,0.2066,-1.170523,1.961463,-0.518475,-0.118811
-4.129122,1.621465,0.206533,-1.170452,1.961497,-0.518432,-0.118727
-4.129069,1.621353,0.20648,-1.170274,1.961531,-0.518466,-0.118563
-4.128983,1.621235,0.206404,-1.170173,1.961576,-0.518477,-0.118422
-4.128889,1.6212,0.206323,-1.170123,1.961543,-0.518501,-0.118381
-4.128775,1.621149,0.206204,-1.169966,1.96148,-0.518497,-0.118316
-4.128719,1.621113,0.206147,-1.169949,1.961459,-0.518482,-0.118352
-4.128602,1.620985,0.206022,-1.169786,1.961422,-0.518497,-0.118347
-4.128487,1.620598,0.206132,-1.169752,1.961268,-0.518607,-0.11845
-4.128291,1.620229,0.206178,-1.169807,1.961088,-0.518876,-0.118373
-4.12828,1.620214,0.206166,-1.169789,1.961091,-0.518875,-0.118354
-4.128238,1.62005,0.206081,-1.169699,1.960994,-0.519107,-0.118578
-4.128259,1.619996,0.206044,-1.169672,1.960917,-0.519217,-0.118721
-4.129273,1.618474,0.205958,-1.170324,1.958924,-0.519264,-0.11839
-4.129318,1.618492,0.206001,-1.170311,1.958921,-0.51931,-0.1184
-4.129348,1.618318,0.206072,-1.170145,1.958862,-0.51971,-0.118739
-4.129379,1.618323,0.206103,-1.170124,1.958863,-0.51975,-0.118737
-4.129193,1.618037,0.206036,-1.170024,1.958802,-0.520336,-0.118989
-4.129196,1.618022,0.206038,-1.169989,1.958808,-0.520354,-0.118956
-4.129161,1.617997,0.206001,-1.169892,1.958794,-0.520372,-0.118876
-4.129119,1.618036,0.205961,-1.169865,1.958736,-0.520383,-0.118866
-4.128794,1.618076,0.205782,-1.170054,1.958621,-0.520753,-0.118715
-4.128722,1.618101,0.205715,-1.170081,1.958575,-0.520703,-0.118741
-4.128531,1.618218,0.205543,-1.170116,1.958377,-0.52065,-0.118875
-4.128335,1.618209,0.205591,-1.170162,1.957992,-0.520613,-0.119004
-4.127976,1.618254,0.205522,-1.170103,1.957344,-0.520688,-0.119481
-4.127839,1.618286,0.20542,-1.170119,1.957215,-0.520699,-0.119679
-4.127328,1.617852,0.205559,-1.170218,1.95663,-0.520689,-0.120079
-4.127068,1.617542,0.205855,-1.170387,1.956177,-0.520502,-0.120001
-4.124637,1.618298,0.207149,-1.170077,1.957364,-0.520497,-0.120436
-4.12452,1.618234,0.207042,-1.170145,1.957393,-0.520373,-0.120429
-4.124042,1.617757,0.207099,-1.170372,1.957062,-0.519918,-0.120198
-4.123465,1.616998,0.207902,-1.170789,1.956042,-0.519493,-0.119634
-4.122919,1.616364,0.208272,-1.171106,1.955413,-0.519025,-0.119293
-4.122271,1.615609,0.209027,-1.171623,1.95445,-0.518661,-0.118885
-4.119776,1.616246,0.210072,-1.171356,1.955557,-0.518516,-0.119387
-4.119628,1.616181,0.209938,-1.171468,1.955579,-0.518354,-0.119425
-4.119194,1.615658,0.210101,-1.171809,1.955231,-0.517882,-0.11934
-4.118861,1.615086,0.210701,-1.172039,1.954496,-0.517584,-0.119162
-4.118426,1.614434,0.211132,-1.172428,1.95395,-0.517139,-0.119041
-4.118191,1.614004,0.211488,-1.172599,1.953574,-0.51695,-0.118915
-4.116306,1.614387,0.212408,-1.17253,1.954611,-0.517222,-0.119036
-4.116176,1.614098,0.212557,-1.172689,1.954535,-0.517053,-0.118944
-4.115859,1.613729,0.212842,-1.172938,1.954124,-0.516848,-0.118789
-4.115433,1.613231,0.213345,-1.173352,1.953514,-0.516713,-0.11865
-4.115123,1.613107,0.213327,-1.173683,1.953265,-0.516431,-0.118783
-4.113277,1.613755,0.214475,-1.173286,1.954185,-0.516612,-0.119256
-4.113207,1.613842,0.214416,-1.173395,1.954088,-0.516577,-0.119405
-4.113168,1.613856,0.214385,-1.173348,1.954023,-0.51662,-0.119458
-4.112975,1.613527,0.214326,-1.173234,1.953944,-0.5171,-0.120015
-4.11295,1.613477,0.214358,-1.173296,1.953994,-0.517253,-0.120001
-4.111818,1.613417,0.215155,-1.173593,1.954993,-0.517978,-0.120043
-4.111939,1.613165,0.215301,-1.173704,1.955307,-0.518023,-0.119954
-4.111954,1.612891,0.215438,-1.174044,1.955648,-0.518257,-0.119919
-4.111783,1.612782,0.215419,-1.174148,1.95564,-0.518661,-0.12004
-4.111748,1.612996,0.215385,-1.174021,1.95538,-0.518795,-0.120132
-4.111758,1.613047,0.215397,-1.174051,1.955341,-0.518816,-0.120189
-4.11169,1.612933,0.215417,-1.174065,1.955291,-0.519081,-0.120559
-4.110725,1.613508,0.215773,-1.173859,1.956306,-0.519531,-0.120926
-4.110829,1.613462,0.215897,-1.17405,1.956442,-0.519558,-0.121002
-4.110831,1.613493,0.215902,-1.17409,1.956425,-0.51956,-0.121039
-4.110591,1.613562,0.215839,-1.174344,1.956364,-0.519806,-0.121122
-4.110465,1.613646,0.215741,-1.174388,1.956255,-0.519775,-0.121182
-4.10884,1.615216,0.215996,-1.1738,1.95816,-0.520201,-0.121874
-4.108786,1.615344,0.215951,-1.173895,1.95804,-0.520182,-0.122003
-4.108581,1.61547,0.215797,-1.174049,1.95785,-0.520145,-0.122257
-4.108462,1.615523,0.215708,-1.174089,1.957751,-0.52014,-0.122357
-4.106905,1.616922,0.216019,-1.173512,1.959056,-0.520238,-0.122811
-4.106833,1.617175,0.215715,-1.173382,1.959058,-0.520245,-0.122833
-4.106699,1.617684,0.215496,-1.173353,1.958789,-0.519776,-0.122352
-4.10665,1.617706,0.215448,-1.173362,1.958754,-0.519738,-0.12236
-4.106638,1.617764,0.215442,-1.173447,1.958743,-0.519694,-0.122369
-4.106676,1.617734,0.215498,-1.17358,1.958846,-0.519675,-0.122358
-4.106594,1.617853,0.215564,-1.173789,1.958894,-0.519895,-0.122165
-4.1066,1.617896,0.215571,-1.173794,1.958857,-0.519917,-0.122194
-4.106557,1.618052,0.215536,-1.17366,1.958638,-0.520027,-0.122304
-4.106599,1.618232,0.215317,-1.173523,1.958771,-0.520136,-0.122411
-4.106669,1.618411,0.21515,-1.173339,1.958873,-0.520294,-0.122476
-4.106694,1.618392,0.215175,-1.173317,1.958893,-0.520319,-0.122462
-4.106789,1.618468,0.215041,-1.173114,1.959107,-0.520488,-0.122405
-4.106557,1.6184,0.215043,-1.173287,1.959142,-0.520924,-0.122427
-4.105188,1.620024,0.21505,-1.172721,1.961516,-0.521743,-0.123172
-4.10523,1.620072,0.215095,-1.172778,1.961503,-0.521774,-0.123233
-4.105018,1.619993,0.215058,-1.172996,1.961449,-0.522127,-0.123588
-4.10494,1.620085,0.215019,-1.173154,1.961371,-0.522121,-0.123747
-4.103296,1.621647,0.215204,-1.172577,1.96306,-0.522358,-0.124819
-4.10324,1.621701,0.215151,-1.172634,1.963001,-0.522312,-0.124877
-4.103154,1.621739,0.215093,-1.172909,1.963004,-0.522181,-0.125041
-4.103081,1.621656,0.215053,-1.172969,1.963084,-0.52215,-0.124977
-4.101094,1.622444,0.216085,-1.172954,1.964564,-0.522617,-0.124895
-4.101053,1.622417,0.216047,-1.172975,1.964577,-0.522572,-0.124887
-4.100818,1.622347,0.215838,-1.173205,1.96461,-0.522297,-0.124951
-4.100633,1.622377,0.215662,-1.17326,1.964523,-0.522149,-0.124986
-4.100426,1.622354,0.215472,-1.173396,1.9645,-0.521931,-0.125033
-4.100169,1.622015,0.21578,-1.173598,1.964077,-0.521669,-0.12491
-4.098226,1.623015,0.217032,-1.173416,1.965203,-0.521388,-0.124827
-4.098178,1.622997,0.216988,-1.17344,1.965208,-0.52134,-0.124824
-4.098043,1.622888,0.216893,-1.173686,1.965334,-0.521173,-0.124836
-4.097931,1.622823,0.216864,-1.173802,1.965401,-0.521272,-0.124778
-4.097502,1.622397,0.216951,-1.174174,1.965379,-0.521615,-0.124859
-4.097301,1.622063,0.217292,-1.174329,1.965018,-0.521474,-0.12472
-4.095329,1.622864,0.218408,-1.174095,1.966102,-0.521437,-0.124596
-4.095176,1.622828,0.218263,-1.174152,1.96612,-0.521275,-0.124496
-4.095062,1.622858,0.218171,-1.17427,1.966191,-0.521122,-0.124214
-4.095005,1.622823,0.218131,-1.174378,1.966252,-0.521035,-0.124184
-4.094851,1.622731,0.218272,-1.174626,1.966106,-0.520963,-0.124071
-4.094707,1.62259,0.218468,-1.174865,1.965993,-0.520969,-0.123944
-4.093651,1.622848,0.219056,-1.174995,1.966632,-0.521225,-0.12403
-4.093651,1.622848,0.219056,-1.174995,1.966632,-0.521225,-0.12403
-4.092501,1.623419,0.220075,-1.174872,1.967545,-0.520931,-0.124245
-4.092484,1.62338,0.220068,-1.174992,1.967609,-0.520859,-0.124282
-4.092511,1.623379,0.220111,-1.175109,1.967684,-0.520839,-0.124248
-4.092508,1.623411,0.220137,-1.175302,1.967763,-0.520785,-0.124202
-4.092479,1.623485,0.220148,-1.175489,1.967816,-0.520733,-0.124109
-4.09245,1.623509,0.220138,-1.175612,1.967843,-0.520675,-0.124111
-4.090739,1.624632,0.221424,-1.175305,1.968812,-0.520394,-0.124123
-4.090739,1.624632,0.221424,-1.175305,1.968812,-0.520394,-0.124123
-4.090754,1.624676,0.221458,-1.175568,1.968861,-0.520311,-0.124253
-4.090754,1.624676,0.221458,-1.175568,1.968861,-0.520311,-0.124253
-4.090847,1.624691,0.221578,-1.175827,1.96899,-0.520289,-0.124312
-4.090866,1.624737,0.221612,-1.175917,1.969003,-0.520289,-0.124324
-4.089633,1.625883,0.222521,-1.175622,1.970374,-0.520565,-0.124403
-4.089706,1.625895,0.222592,-1.17562,1.970393,-0.520624,-0.124411
-4.089868,1.625966,0.222759,-1.17569,1.970423,-0.520753,-0.124463
-4.089927,1.626,0.222817,-1.175691,1.970417,-0.520809,-0.124478
-4.090111,1.626345,0.222776,-1.175702,1.970513,-0.521043,-0.124573
-4.090149,1.626388,0.222814,-1.175713,1.970494,-0.521083,-0.124596
-4.090346,1.626679,0.222788,-1.175761,1.970666,-0.52131,-0.124691
-4.090395,1.626703,0.222838,-1.175776,1.97067,-0.521353,-0.124708
-4.09054,1.626936,0.222848,-1.175986,1.970963,-0.521648,-0.124752
-4.090573,1.626949,0.222883,-1.176,1.970969,-0.521677,-0.124766
-4.088987,1.628703,0.223068,-1.175484,1.973593,-0.522385,-0.12549
-4.089003,1.628638,0.2231,-1.175624,1.973697,-0.52234,-0.125536
-4.088996,1.628677,0.223098,-1.175692,1.973677,-0.522325,-0.125592
-4.088976,1.628708,0.223082,-1.175739,1.973654,-0.522304,-0.12563
-4.088914,1.628776,0.223024,-1.175785,1.973579,-0.52226,-0.125682
-4.08888,1.628825,0.222991,-1.175807,1.973529,-0.522237,-0.125711
-4.088895,1.628855,0.223016,-1.175958,1.973582,-0.522158,-0.125722
-4.088912,1.628897,0.223049,-1.176074,1.973664,-0.522074,-0.125594
-4.08735,1.629898,0.224482,-1.175941,1.974889,-0.521846,-0.125427
-4.08735,1.629898,0.224482,-1.175941,1.974889,-0.521846,-0.125427
-4.087355,1.630025,0.224512,-1.176231,1.974855,-0.521795,-0.12565
-4.087244,1.630146,0.224423,-1.176297,1.974712,-0.521768,-0.125773
-4.087239,1.630261,0.224437,-1.176427,1.974635,-0.521778,-0.12593
-4.087216,1.630293,0.22442,-1.176474,1.974609,-0.521759,-0.125974
-4.085515,1.631464,0.225435,-1.176033,1.976121,-0.521877,-0.126444
-4.085515,1.631464,0.225435,-1.176033,1.976121,-0.521877,-0.126444
-4.085485,1.63148,0.22541,-1.176061,1.976123,-0.521848,-0.126399
-4.085447,1.631567,0.225382,-1.176062,1.976094,-0.521852,-0.126227
-4.08538,1.631753,0.225361,-1.176163,1.976126,-0.521859,-0.125724
-4.08538,1.631753,0.225361,-1.176163,1.976126,-0.521859,-0.125724
-4.085351,1.631718,0.225333,-1.176142,1.976144,-0.521836,-0.125683
-4.085339,1.631693,0.225323,-1.176141,1.976165,-0.521821,-0.125656
-4.085337,1.631709,0.225326,-1.17619,1.976171,-0.521804,-0.125667
-4.085342,1.631786,0.225338,-1.176238,1.976136,-0.52181,-0.125676
-4.085351,1.631909,0.22535,-1.176303,1.976047,-0.521829,-0.125768
-4.085361,1.631992,0.225362,-1.176338,1.975987,-0.521849,-0.125824
-4.085417,1.632183,0.225436,-1.176385,1.975893,-0.521935,-0.125842
-4.084006,1.633189,0.226447,-1.176003,1.976998,-0.521919,-0.125924
-4.084063,1.633222,0.226503,-1.176014,1.976996,-0.521967,-0.125945
-4.084109,1.633305,0.226556,-1.176068,1.976967,-0.522018,-0.125974
-4.084245,1.633622,0.226444,-1.176057,1.977042,-0.522189,-0.12615
-4.084436,1.63399,0.226131,-1.17597,1.977379,-0.522396,-0.126359
-4.084558,1.634149,0.22604,-1.175908,1.977505,-0.522597,-0.126582
-4.084657,1.634305,0.225909,-1.175874,1.977679,-0.522689,-0.126664
-4.084564,1.634235,0.22598,-1.175979,1.977692,-0.523094,-0.126849
-4.084647,1.634373,0.225829,-1.175934,1.977881,-0.52317,-0.126906
-4.084624,1.634521,0.225814,-1.175876,1.977723,-0.52326,-0.126948
-4.084608,1.634567,0.225801,-1.175892,1.977678,-0.523262,-0.126983
-4.084463,1.634745,0.225655,-1.175717,1.97739,-0.52331,-0.127048
-4.084465,1.63479,0.225658,-1.175721,1.977348,-0.523326,-0.127084
-4.084402,1.634819,0.225599,-1.175594,1.97725,-0.523369,-0.127084
-4.084367,1.634888,0.22556,-1.175411,1.977122,-0.52346,-0.127033
-4.084322,1.634855,0.225515,-1.175363,1.977121,-0.52344,-0.126986
-4.084259,1.634897,0.225446,-1.175217,1.977018,-0.523478,-0.126925
-4.084183,1.634978,0.225363,-1.175068,1.976869,-0.523519,-0.126891
-4.084143,1.634991,0.225322,-1.175038,1.976831,-0.52351,-0.126885
-4.084001,1.635067,0.225171,-1.174834,1.976636,-0.523529,-0.126843
-4.08395,1.635059,0.225124,-1.174852,1.976626,-0.523485,-0.126851
-4.083741,1.635045,0.224921,-1.174814,1.976529,-0.523359,-0.12686
-4.083694,1.635037,0.224875,-1.17482,1.976516,-0.523322,-0.126864
-4.083496,1.634979,0.224684,-1.17478,1.976456,-0.523197,-0.126871
-4.08337,1.6349,0.22457,-1.17477,1.976426,-0.523136,-0.126975
-4.083197,1.634765,0.224411,-1.174741,1.976427,-0.523035,-0.127021
-4.08312,1.634618,0.224338,-1.174676,1.976491,-0.52299,-0.126974
-4.082894,1.634358,0.224129,-1.174609,1.976558,-0.522866,-0.126967
-4.08282,1.634213,0.224062,-1.174583,1.97663,-0.522818,-0.126941
-4.082425,1.633662,0.224199,-1.174747,1.976352,-0.522472,-0.126788
-4.08218,1.633215,0.224548,-1.174866,1.975952,-0.522277,-0.126629
-4.081664,1.632463,0.224956,-1.175199,1.975397,-0.521791,-0.126387
-4.081425,1.632067,0.225293,-1.175308,1.97498,-0.521614,-0.126225
-4.081058,1.631609,0.225503,-1.175502,1.97459,-0.521277,-0.126105
-4.080797,1.631261,0.225785,-1.175627,1.974142,-0.521064,-0.126034
-4.08089,1.630115,0.225868,-1.17589,1.973118,-0.520967,-0.126109
-4.080718,1.629739,0.226236,-1.175982,1.972749,-0.520808,-0.125945
-4.080292,1.628971,0.22631,-1.176164,1.972806,-0.521282,-0.125999
-4.080078,1.628535,0.226733,-1.176335,1.972447,-0.521265,-0.125782
-4.079788,1.628085,0.226967,-1.176334,1.972106,-0.521127,-0.125526
-4.079722,1.628045,0.2269,-1.176284,1.972102,-0.52109,-0.125475
-4.079432,1.627797,0.226846,-1.176045,1.971811,-0.520947,-0.125198
-4.079324,1.627643,0.226975,-1.176059,1.971615,-0.520865,-0.125114
-4.079208,1.627289,0.227107,-1.176131,1.971588,-0.520716,-0.125007
-4.079013,1.626854,0.227476,-1.176345,1.971239,-0.520546,-0.124983
-4.078856,1.626471,0.227602,-1.176443,1.971152,-0.520492,-0.125006
-4.078626,1.626024,0.227977,-1.176677,1.970773,-0.520321,-0.124965
-4.078315,1.625564,0.228224,-1.176848,1.970419,-0.52014,-0.124867
-4.078089,1.625188,0.228568,-1.177023,1.970016,-0.520016,-0.124786
-4.077867,1.624927,0.22863,-1.177115,1.969839,-0.519881,-0.12473
-4.077786,1.623897,0.228825,-1.177603,1.968762,-0.520191,-0.124555
-4.077631,1.623731,0.228937,-1.177661,1.968543,-0.520062,-0.124489
-4.077499,1.623572,0.229072,-1.177719,1.968326,-0.519953,-0.124429
-4.077168,1.623255,0.229286,-1.177862,1.967865,-0.519689,-0.124324
-4.077031,1.623115,0.229422,-1.177937,1.96763,-0.519577,-0.124277
-4.076832,1.622993,0.229512,-1.178074,1.967374,-0.519432,-0.124253
-4.076505,1.622649,0.22985,-1.178333,1.966988,-0.519539,-0.124179
-4.075737,1.622525,0.229974,-1.178626,1.967207,-0.520464,-0.12439
-4.075679,1.622401,0.230148,-1.178671,1.967027,-0.520415,-0.124341
-4.075559,1.622464,0.230055,-1.178666,1.966903,-0.520411,-0.124452
-4.075523,1.622488,0.230022,-1.178671,1.966867,-0.520392,-0.124472
-4.075401,1.62263,0.229885,-1.17853,1.966639,-0.520312,-0.124564
-4.075392,1.622662,0.229863,-1.178369,1.966561,-0.520346,-0.124516
-4.075537,1.622654,0.230002,-1.178296,1.966618,-0.520461,-0.124472
-4.075675,1.622644,0.230142,-1.178233,1.966681,-0.520594,-0.124404
-4.075736,1.62276,0.230345,-1.178341,1.966749,-0.521007,-0.124202
-4.075763,1.622818,0.230462,-1.178267,1.966679,-0.521348,-0.124289
-4.075782,1.62282,0.230661,-1.178098,1.966498,-0.522084,-0.124748
-4.075916,1.623009,0.230588,-1.178033,1.966663,-0.522364,-0.124897
-4.07615,1.623073,0.230464,-1.177799,1.96708,-0.52336,-0.125611
-4.076346,1.623427,0.229959,-1.177653,1.967787,-0.524064,-0.125993
-4.076667,1.623523,0.22966,-1.17742,1.968561,-0.525339,-0.126822
-4.076814,1.623814,0.229373,-1.17738,1.969059,-0.525867,-0.126936
-4.076985,1.624035,0.229187,-1.177231,1.969584,-0.526811,-0.127026
-4.07729,1.624365,0.22891,-1.17696,1.970045,-0.527137,-0.12706
-4.077553,1.624552,0.228895,-1.17677,1.970271,-0.527438,-0.127054
-4.077586,1.624646,0.228809,-1.176796,1.9705,-0.527949,-0.127128
-4.077648,1.624618,0.228777,-1.176704,1.970677,-0.528578,-0.127441
-4.077566,1.624548,0.228802,-1.176737,1.970678,-0.528878,-0.127534
-4.077492,1.624548,0.228797,-1.176747,1.970579,-0.529086,-0.127775
-4.077402,1.624585,0.22874,-1.176765,1.970486,-0.529132,-0.127897
-4.077046,1.624402,0.22857,-1.176799,1.970354,-0.5294,-0.128428
-4.076964,1.6244,0.228506,-1.176842,1.970341,-0.529353,-0.128439
-4.076544,1.624284,0.228317,-1.177114,1.970539,-0.529386,-0.128034
-4.074654,1.62494,0.229437,-1.176732,1.971669,-0.529349,-0.128054
-4.07447,1.624557,0.229532,-1.176827,1.971653,-0.529131,-0.127868
-4.074077,1.623859,0.230424,-1.177153,1.970656,-0.528807,-0.127657
-4.073774,1.623146,0.230708,-1.177173,1.970225,-0.52896,-0.128312
-4.073625,1.622827,0.231157,-1.177289,1.969759,-0.528834,-0.128187
-4.073298,1.622174,0.231473,-1.177533,1.969474,-0.528937,-0.128407
-4.073146,1.621877,0.231857,-1.177633,1.969063,-0.528815,-0.12828
-4.072842,1.621834,0.231994,-1.178088,1.96901,-0.52899,-0.127706
-4.072768,1.62165,0.23219,-1.178224,1.968877,-0.528908,-0.127684
-4.07274,1.621389,0.232257,-1.17831,1.968963,-0.529109,-0.128179
-4.072732,1.621199,0.232512,-1.178425,1.968815,-0.529146,-0.128381
-4.072727,1.620849,0.232579,-1.17844,1.968926,-0.529309,-0.128954
-4.072776,1.620781,0.232648,-1.178566,1.969036,-0.529317,-0.129018
-4.072638,1.620643,0.232727,-1.17883,1.969237,-0.529715,-0.128919
-4.07249,1.62049,0.232929,-1.178952,1.969127,-0.52984,-0.128803
-4.072484,1.620433,0.232927,-1.178958,1.969178,-0.529821,-0.128783
-4.072484,1.620433,0.232927,-1.178958,1.969178,-0.529821,-0.128783
-4.072352,1.620009,0.233002,-1.178753,1.968997,-0.529598,-0.129096
-4.072326,1.619976,0.232977,-1.178742,1.969014,-0.529569,-0.129076
-4.072253,1.619531,0.233156,-1.178812,1.969128,-0.529379,-0.128831
-4.072155,1.619391,0.23333,-1.178945,1.969083,-0.529194,-0.128333
-4.072077,1.619049,0.233508,-1.179046,1.969121,-0.529046,-0.128128
-4.071954,1.61889,0.233647,-1.179092,1.968917,-0.528945,-0.12805
-4.071792,1.618753,0.233742,-1.179152,1.968684,-0.528817,-0.128003
-4.071616,1.618545,0.23384,-1.179155,1.968416,-0.528701,-0.128055
-4.071458,1.618203,0.233951,-1.179241,1.968317,-0.52851,-0.128065
-4.071395,1.617904,0.234175,-1.179423,1.968268,-0.528356,-0.128037
-4.071154,1.617409,0.234479,-1.179725,1.968077,-0.528007,-0.127889
-4.071089,1.617239,0.23465,-1.179759,1.967935,-0.527944,-0.127804
-4.071058,1.617219,0.234625,-1.179812,1.967957,-0.5279,-0.127813
-4.070936,1.617274,0.23462,-1.18002,1.96796,-0.528126,-0.127759
-4.070851,1.617319,0.234563,-1.180089,1.967906,-0.528125,-0.127813
-4.070799,1.617365,0.234515,-1.180124,1.967853,-0.52809,-0.127851
-4.070617,1.617605,0.234335,-1.180188,1.967603,-0.527929,-0.12796
-4.070618,1.617751,0.234322,-1.180175,1.967516,-0.527805,-0.127981
-4.069633,1.618703,0.235456,-1.1797,1.968156,-0.527467,-0.128382
-4.06977,1.618898,0.235334,-1.179676,1.968335,-0.527584,-0.128486
-4.070106,1.619491,0.234952,-1.179735,1.968933,-0.528314,-0.128986
-4.070193,1.619687,0.23481,-1.179722,1.969125,-0.52854,-0.129098
-4.070184,1.61989,0.234704,-1.179741,1.969243,-0.529096,-0.129367
-4.070126,1.620036,0.234575,-1.179746,1.9694,-0.529482,-0.129506
-4.070134,1.620177,0.234591,-1.179676,1.969262,-0.529588,-0.129536
-4.069099,1.622094,0.234309,-1.178831,1.971601,-0.529961,-0.130061
-4.069,1.62234,0.234172,-1.178712,1.97138,-0.52985,-0.129888
-4.069126,1.622763,0.233681,-1.178507,1.971739,-0.52996,-0.129936
-4.069268,1.623074,0.233526,-1.178471,1.971878,-0.529994,-0.129961
-4.069401,1.623355,0.233129,-1.178368,1.972288,-0.530104,-0.130071
-4.069672,1.623513,0.233132,-1.178416,1.972573,-0.530307,-0.130297
-4.069737,1.623651,0.232937,-1.178366,1.972774,-0.530361,-0.130351
-4.06971,1.623587,0.23291,-1.178312,1.972805,-0.530349,-0.130295
-4.069661,1.623501,0.23286,-1.178241,1.972843,-0.530321,-0.130213
-4.069566,1.623389,0.232755,-1.177985,1.972837,-0.530337,-0.130002
-4.069445,1.623361,0.232622,-1.177808,1.972774,-0.530304,-0.129846
-4.069387,1.62363,0.232404,-1.177552,1.97258,-0.529982,-0.129256
-4.069345,1.623622,0.232337,-1.177399,1.97253,-0.529966,-0.129146
-4.069379,1.623708,0.232136,-1.177329,1.972728,-0.52999,-0.129158
-4.069412,1.623687,0.232168,-1.177331,1.97276,-0.530007,-0.129152
-4.069414,1.623353,0.232216,-1.177476,1.9729,-0.530327,-0.129469
-4.069414,1.623353,0.232216,-1.177476,1.9729,-0.530327,-0.129469
-4.069324,1.623332,0.232129,-1.177478,1.972883,-0.530258,-0.12945
-4.069158,1.623342,0.231952,-1.177348,1.972775,-0.53019,-0.12934
-4.069038,1.623396,0.231816,-1.177354,1.972703,-0.530071,-0.129245
-4.069036,1.623494,0.231768,-1.177412,1.972719,-0.529939,-0.128956
-4.069049,1.623647,0.231742,-1.177566,1.972788,-0.529763,-0.128521
-4.06906,1.623688,0.231751,-1.17762,1.972782,-0.529746,-0.128522
-4.069079,1.623756,0.231774,-1.17777,1.972782,-0.529705,-0.12859
-4.069076,1.623813,0.231773,-1.177824,1.972743,-0.529698,-0.128647
-4.069116,1.623968,0.231827,-1.178067,1.972643,-0.529701,-0.12899
-4.069113,1.62395,0.231832,-1.17808,1.972602,-0.529733,-0.129191
-4.069117,1.624029,0.231838,-1.178116,1.972538,-0.529753,-0.129262
-4.069115,1.624098,0.231838,-1.178123,1.972473,-0.52978,-0.12931
-4.068967,1.624094,0.231776,-1.178059,1.972359,-0.530011,-0.129407
-4.068967,1.624094,0.231776,-1.178059,1.972359,-0.530011,-0.129407
-4.068871,1.624128,0.231675,-1.177868,1.972247,-0.530035,-0.129292
-4.068871,1.624128,0.231675,-1.177868,1.972247,-0.530035,-0.129292
-4.068927,1.624108,0.231495,-1.177754,1.972557,-0.530054,-0.129185
-4.068962,1.624055,0.231529,-1.177715,1.972613,-0.530077,-0.12913
-4.06909,1.623872,0.231645,-1.177631,1.972847,-0.530121,-0.128864
-4.06918,1.623977,0.231496,-1.17756,1.973059,-0.530196,-0.128883
-4.069264,1.624077,0.23156,-1.177389,1.972966,-0.530352,-0.12879
-4.069383,1.624338,0.231388,-1.177215,1.973064,-0.530536,-0.12882
-4.069517,1.62466,0.231249,-1.177058,1.973088,-0.53075,-0.128922
-4.06979,1.624985,0.230977,-1.176929,1.973507,-0.53099,-0.129067
-4.070106,1.625258,0.231,-1.176846,1.973682,-0.531271,-0.129224
-4.070324,1.625557,0.230669,-1.176728,1.974127,-0.531451,-0.129348
-4.070811,1.625812,0.230588,-1.176601,1.974597,-0.531897,-0.129778
-4.071112,1.626042,0.230366,-1.176536,1.975074,-0.532168,-0.130025
-4.071314,1.625843,0.230388,-1.17651,1.975304,-0.53293,-0.130825
-4.071488,1.626032,0.230314,-1.176585,1.975525,-0.533085,-0.131004
-4.071546,1.625968,0.230242,-1.176612,1.975613,-0.533696,-0.131725
-4.071516,1.625784,0.230144,-1.176838,1.975472,-0.534248,-0.132064
-4.071547,1.625958,0.230176,-1.1769,1.975326,-0.534309,-0.132237
-4.071541,1.626042,0.230169,-1.176904,1.975247,-0.534329,-0.13229
-4.071437,1.626519,0.230197,-1.176525,1.975003,-0.533986,-0.1322
-4.071384,1.626612,0.230136,-1.176439,1.974882,-0.533996,-0.132173
-4.071329,1.626634,0.230083,-1.176469,1.974849,-0.533948,-0.13219
-4.071302,1.626644,0.230059,-1.176502,1.97484,-0.533916,-0.132204
-4.071123,1.626304,0.230446,-1.176803,1.974511,-0.533686,-0.132123
-4.070867,1.625829,0.231088,-1.176992,1.973797,-0.533471,-0.131938
-4.070394,1.625456,0.231506,-1.177085,1.972902,-0.533185,-0.131723
-4.069968,1.62499,0.232052,-1.177221,1.972028,-0.532908,-0.131486
-4.069585,1.624712,0.232274,-1.177307,1.971438,-0.532658,-0.131326
-4.069173,1.624141,0.232882,-1.177578,1.970666,-0.532298,-0.131089
-4.06871,1.623721,0.233299,-1.177916,1.97004,-0.531785,-0.130738
-4.068512,1.62354,0.233741,-1.178135,1.969632,-0.531401,-0.130429
-4.068245,1.623247,0.234047,-1.17823,1.969222,-0.531021,-0.130489
-4.068147,1.623122,0.234222,-1.178306,1.968992,-0.530937,-0.130455
-4.067998,1.623018,0.234354,-1.178438,1.96872,-0.53081,-0.130596
-4.067939,1.622894,0.23453,-1.178484,1.968538,-0.53076,-0.130547
-4.067998,1.622897,0.234588,-1.178477,1.968555,-0.530807,-0.130559
-4.068065,1.622889,0.234653,-1.178461,1.968584,-0.530857,-0.13056
-4.068152,1.622895,0.234736,-1.178439,1.968606,-0.530928,-0.130566
-4.068231,1.622935,0.234811,-1.178417,1.968592,-0.531006,-0.130589
-4.06834,1.623093,0.234916,-1.178184,1.968373,-0.531253,-0.130785
-4.068382,1.62313,0.234961,-1.178079,1.968297,-0.531361,-0.130876
-4.068471,1.623222,0.235058,-1.178012,1.968157,-0.531507,-0.131194
-4.068526,1.623229,0.235115,-1.177964,1.968104,-0.53156,-0.131416
-4.068679,1.623218,0.235233,-1.177782,1.967972,-0.531581,-0.131988
-4.068731,1.623258,0.235283,-1.177779,1.967954,-0.53163,-0.132015
-4.069032,1.623681,0.23505,-1.17745,1.968232,-0.531997,-0.132068
-4.06917,1.623944,0.234928,-1.177258,1.968315,-0.532214,-0.132068
-4.069357,1.62422,0.234857,-1.177074,1.968412,-0.532486,-0.132072
-4.069565,1.624637,0.234561,-1.176949,1.968701,-0.532747,-0.132228
-4.069779,1.624949,0.234535,-1.176835,1.968723,-0.533092,-0.132505
-4.069872,1.6251,0.234383,-1.176716,1.96884,-0.533321,-0.132758
-4.069912,1.625111,0.234282,-1.176604,1.968937,-0.533845,-0.133301
-4.06989,1.625186,0.234159,-1.176644,1.969139,-0.534226,-0.133419
-4.069755,1.625165,0.234267,-1.176846,1.969185,-0.534779,-0.133481
-4.069781,1.625182,0.234295,-1.176859,1.969184,-0.534803,-0.133499
-4.069743,1.625206,0.234259,-1.176864,1.969149,-0.534784,-0.133511
-4.069636,1.625251,0.234155,-1.176771,1.969046,-0.534757,-0.133473
-4.06952,1.625201,0.234044,-1.176757,1.969053,-0.534642,-0.133415
-4.069445,1.625136,0.233972,-1.176774,1.969104,-0.534528,-0.133356
-4.069303,1.625031,0.233833,-1.176824,1.969214,-0.534267,-0.133189
-4.069265,1.624955,0.233796,-1.176856,1.969305,-0.534153,-0.1331
-4.069137,1.62498,0.233662,-1.176897,1.969387,-0.533851,-0.132745
-4.06906,1.625006,0.233585,-1.176906,1.969416,-0.533699,-0.132548
-4.068943,1.625105,0.233481,-1.176976,1.969498,-0.533442,-0.132079
-4.068898,1.625332,0.233467,-1.177124,1.969545,-0.533203,-0.131712
-4.067239,1.626393,0.234621,-1.176761,1.970524,-0.532477,-0.131896
-4.06711,1.626447,0.234509,-1.176999,1.970499,-0.532288,-0.132013
-4.06692,1.626495,0.234335,-1.177183,1.970472,-0.532031,-0.13202
-4.066874,1.626669,0.234302,-1.177326,1.970433,-0.531866,-0.13196
-4.065419,1.627676,0.23541,-1.176964,1.971292,-0.531397,-0.132071
-4.065419,1.627676,0.23541,-1.176964,1.971292,-0.531397,-0.132071
-4.065439,1.627722,0.235432,-1.176998,1.971268,-0.531415,-0.132109
-4.065551,1.627876,0.235286,-1.176951,1.971474,-0.531511,-0.13217
-4.065892,1.628227,0.235103,-1.176808,1.971904,-0.531849,-0.132253
-4.065938,1.628464,0.234975,-1.176895,1.97215,-0.532172,-0.132088
-4.066091,1.628848,0.23466,-1.176758,1.972571,-0.532758,-0.132067
-4.06642,1.629418,0.234043,-1.176514,1.9733,-0.533168,-0.132251
-4.06657,1.629745,0.233739,-1.176353,1.973671,-0.533682,-0.132363
-4.06688,1.630258,0.233219,-1.176213,1.974303,-0.533988,-0.132623
