wangss533/urdfTest/left_arm_joints.csv
left_arm_joint1,left_arm_joint2,left_arm_joint3,left_arm_joint4,left_arm_joint5,left_arm_joint6,left_arm_joint7
0.158324,0.415327,-0.434051,-0.423823,0.636355,-0.119075,0.102484
0.125821,0.422308,-0.600395,-0.38905,0.767351,-0.146032,0.102438
0.100193,0.429074,-0.706219,-0.35998,0.863433,-0.168504,0.102322
0.083893,0.434543,-0.788147,-0.341992,0.939062,-0.18553,0.101183
0.07142,0.438113,-0.854806,-0.328738,1.000794,-0.199129,0.099712
0.061186,0.441233,-0.911212,-0.319045,1.05337,-0.209305,0.098228
0.053552,0.443449,-0.959711,-0.311306,1.099226,-0.219251,0.09667
0.046555,0.445614,-1.002684,-0.305293,1.13988,-0.226777,0.095129
0.041015,0.44719,-1.040795,-0.300247,1.176598,-0.234354,0.093544
0.035842,0.448827,-1.075604,-0.296084,1.209625,-0.240478,0.092137
0.031584,0.44988,-1.107269,-0.292542,1.239834,-0.24688,0.091089
0.027498,0.45113,-1.136408,-0.289465,1.267611,-0.25212,0.089762
0.023894,0.452119,-1.163331,-0.28682,1.293303,-0.256996,0.088503
0.020544,0.453184,-1.188363,-0.284498,1.317183,-0.261042,0.086909
0.017428,0.454073,-1.211756,-0.282629,1.339537,-0.264387,0.085319
0.014437,0.455052,-1.233646,-0.280884,1.360438,-0.267583,0.083863
0.011922,0.455877,-1.254065,-0.279192,1.380118,-0.270917,0.082073
0.00919,0.455678,-1.27317,-0.276805,1.39839,-0.274041,0.080929
0.006777,0.456193,-1.291241,-0.275697,1.415737,-0.276995,0.079898
0.004365,0.456921,-1.308414,-0.274649,1.43213,-0.279364,0.078853
0.002449,0.457269,-1.324639,-0.273681,1.447707,-0.282178,0.077537
0.000417,0.456821,-1.339949,-0.271717,1.462246,-0.284631,0.076226
-0.001654,0.457327,-1.354628,-0.271061,1.476071,-0.286631,0.07516
-0.003599,0.457855,-1.368615,-0.27041,1.48925,-0.288505,0.074157
-0.005434,0.458332,-1.382039,-0.26983,1.501733,-0.290338,0.073019
-0.007222,0.45887,-1.39475,-0.269219,1.513736,-0.292053,0.072088
-0.009013,0.458415,-1.406784,-0.267518,1.524973,-0.2939,0.071015
-0.010672,0.45893,-1.418233,-0.266995,1.535867,-0.295396,0.070281
-0.012471,0.45933,-1.429366,-0.266544,1.546122,-0.296926,0.069919
-0.014036,0.45976,-1.439893,-0.266118,1.556119,-0.298281,0.069276
-0.01575,0.460139,-1.450066,-0.265701,1.565593,-0.299731,0.068933
-0.017264,0.460584,-1.459758,-0.2653,1.574754,-0.30105,0.068314
-0.018875,0.460967,-1.469078,-0.264924,1.583505,-0.302475,0.067866
-0.020388,0.461314,-1.477945,-0.264606,1.592017,-0.303788,0.067338
-0.022119,0.461673,-1.486467,-0.264299,1.600128,-0.305342,0.066806
-0.02351,0.462027,-1.494702,-0.263993,1.607968,-0.306555,0.066285
-0.025198,0.462295,-1.502708,-0.263724,1.615342,-0.308099,0.065906
-0.026442,0.462132,-1.510467,-0.263233,1.622449,-0.309362,0.065781
-0.028367,0.461442,-1.517966,-0.261966,1.628963,-0.310626,0.065519
-0.029563,0.46175,-1.524986,-0.261747,1.635552,-0.311616,0.065011
-0.030961,0.462082,-1.531802,-0.261525,1.641786,-0.31279,0.064474
-0.032185,0.462443,-1.538364,-0.261275,1.647841,-0.313752,0.063983
-0.033471,0.462797,-1.544645,-0.261032,1.653706,-0.314749,0.063542
-0.034716,0.46304,-1.550656,-0.260846,1.659446,-0.315642,0.063361
-0.036216,0.463026,-1.556608,-0.260672,1.664823,-0.316863,0.064181
-0.037239,0.463178,-1.562218,-0.260511,1.670191,-0.317643,0.064122
-0.038416,0.463341,-1.567639,-0.260373,1.675309,-0.318565,0.063884
-0.039246,0.46349,-1.572867,-0.260303,1.680329,-0.319186,0.063458
-0.040262,0.463634,-1.577908,-0.26028,1.685138,-0.319827,0.062697
-0.041003,0.463782,-1.582808,-0.260214,1.689825,-0.320366,0.06229
-0.041784,0.463937,-1.587589,-0.26014,1.694289,-0.320883,0.061818
-0.042454,0.464102,-1.592156,-0.260055,1.698674,-0.321367,0.061476
-0.043073,0.464242,-1.596594,-0.25999,1.702899,-0.3218,0.061135
-0.043863,0.464211,-1.600929,-0.259928,1.706949,-0.322022,0.061052
-0.044442,0.464362,-1.604968,-0.259843,1.711017,-0.322389,0.060796
-0.045033,0.464503,-1.608958,-0.259777,1.714847,-0.322805,0.060493
-0.04558,0.464512,-1.612834,-0.259719,1.718583,-0.32298,0.060385
-0.046086,0.46465,-1.616554,-0.259651,1.722189,-0.323308,0.060128
-0.04647,0.464762,-1.620095,-0.259605,1.725775,-0.32348,0.05993
-0.047109,0.464782,-1.623622,-0.259549,1.72911,-0.323568,0.059806
-0.047527,0.464851,-1.62696,-0.259536,1.732437,-0.323619,0.059487
-0.047977,0.464933,-1.630219,-0.25952,1.73561,-0.323776,0.05915
-0.048378,0.464987,-1.633295,-0.259539,1.738776,-0.32397,0.058873
-0.049036,0.464888,-1.636164,-0.259031,1.741885,-0.323827,0.0582
-0.049438,0.464943,-1.638834,-0.259068,1.745051,-0.324058,0.057941
-0.04984,0.465065,-1.64157,-0.259041,1.747954,-0.324356,0.057646
-0.049982,0.465616,-1.64408,-0.259319,1.750906,-0.325116,0.057138
-0.05044,0.465727,-1.646758,-0.259268,1.753541,-0.325425,0.056946
-0.051068,0.465819,-1.649218,-0.259229,1.756192,-0.325867,0.05675
-0.051582,0.4659,-1.651649,-0.259207,1.758742,-0.326215,0.056543
-0.052178,0.466143,-1.653596,-0.259224,1.761575,-0.326691,0.05573
-0.052676,0.466355,-1.655637,-0.259248,1.764205,-0.327162,0.055032
-0.052869,0.46727,-1.657455,-0.260063,1.766972,-0.328151,0.05431
-0.053487,0.467258,-1.659469,-0.260121,1.769466,-0.328569,0.054087
-0.053615,0.467536,-1.660935,-0.260288,1.772352,-0.330054,0.053627
-0.054169,0.467554,-1.662934,-0.260311,1.774639,-0.330433,0.053432
-0.055093,0.467569,-1.664547,-0.260349,1.777089,-0.331213,0.053054
-0.055626,0.467652,-1.666465,-0.260339,1.779195,-0.33167,0.052705
-0.056498,0.467896,-1.667985,-0.260304,1.781445,-0.332555,0.05172
-0.05682,0.468226,-1.669661,-0.260629,1.783572,-0.333458,0.051266
-0.057766,0.468315,-1.670494,-0.260708,1.786284,-0.334925,0.050129
-0.058205,0.468312,-1.671595,-0.260808,1.788764,-0.336322,0.049391
-0.058549,0.468351,-1.672492,-0.260863,1.791275,-0.338429,0.048339
-0.058681,0.468186,-1.673714,-0.260922,1.79344,-0.34049,0.047806
-0.059072,0.46813,-1.674526,-0.260859,1.795707,-0.343613,0.046489
-0.059196,0.467689,-1.675942,-0.260562,1.797525,-0.345041,0.046169
-0.060565,0.467612,-1.677304,-0.26059,1.799085,-0.346285,0.045617
-0.061153,0.467665,-1.678894,-0.26055,1.80052,-0.346773,0.045347
-0.062718,0.467882,-1.680401,-0.260383,1.801756,-0.347003,0.044576
-0.063318,0.467894,-1.68178,-0.260396,1.803228,-0.34737,0.044339
-0.065306,0.468205,-1.682683,-0.260407,1.804926,-0.346921,0.043474
-0.066667,0.46821,-1.683711,-0.26059,1.806598,-0.346637,0.043281
-0.068134,0.468381,-1.684496,-0.260697,1.808333,-0.346882,0.042443
-0.069234,0.468306,-1.685419,-0.26083,1.809909,-0.347638,0.041886
-0.070811,0.46863,-1.685728,-0.260882,1.811758,-0.349275,0.03971
-0.07136,0.468752,-1.686658,-0.260944,1.813245,-0.350328,0.038872
-0.072409,0.469042,-1.687119,-0.261431,1.814903,-0.352851,0.037497
-0.073281,0.468955,-1.688131,-0.26149,1.816225,-0.353576,0.037155
-0.074658,0.468702,-1.688672,-0.261188,1.817649,-0.355763,0.035839
-0.075524,0.46862,-1.689595,-0.261258,1.818919,-0.356434,0.03546
-0.077413,0.468918,-1.689837,-0.261253,1.820483,-0.357645,0.033419
-0.078702,0.469141,-1.690407,-0.261292,1.821884,-0.358263,0.032102
-0.080704,0.469873,-1.691006,-0.261909,1.823133,-0.358811,0.030995
-0.081878,0.469896,-1.691929,-0.261836,1.824166,-0.359697,0.030691
-0.084688,0.470364,-1.693056,-0.261868,1.824719,-0.360023,0.030681
-0.085509,0.470417,-1.693977,-0.261785,1.825716,-0.360633,0.030522
-0.087946,0.471097,-1.694158,-0.262276,1.827127,-0.361124,0.02949
-0.088778,0.47115,-1.694624,-0.262358,1.828528,-0.36154,0.028817
-0.09064,0.471535,-1.693907,-0.26252,1.830821,-0.362366,0.026674
-0.091582,0.472484,-1.694275,-0.263573,1.8323,-0.362948,0.026036
-0.093218,0.473038,-1.69346,-0.264233,1.834761,-0.36458,0.024573
-0.094331,0.473109,-1.693276,-0.264341,1.836755,-0.365612,0.023633
-0.095049,0.473511,-1.692412,-0.265053,1.839333,-0.368253,0.02219
-0.095494,0.473541,-1.691756,-0.265366,1.841782,-0.370689,0.020762
-0.095724,0.473389,-1.689575,-0.265857,1.845539,-0.375636,0.018041
-0.096047,0.473386,-1.689331,-0.26596,1.847636,-0.377686,0.016607
-0.095802,0.47267,-1.687228,-0.266037,1.851162,-0.384264,0.013087
-0.095751,0.47224,-1.686999,-0.265878,1.853134,-0.38729,0.011279
-0.095606,0.471378,-1.684983,-0.265612,1.856341,-0.394532,0.006947
-0.096131,0.471396,-1.684873,-0.265643,1.85811,-0.396676,0.005327
-0.097374,0.471473,-1.683506,-0.265856,1.860719,-0.401248,0.002355
-0.098976,0.471693,-1.683269,-0.265858,1.862474,-0.40285,0.000775
-0.100912,0.472714,-1.6827,-0.266676,1.864458,-0.405234,-0.000776
-0.1029,0.47304,-1.682619,-0.266587,1.866108,-0.406269,-0.001648
-0.107413,0.475343,-1.68219,-0.268339,1.867875,-0.406686,-0.001937
-0.109094,0.475675,-1.682606,-0.268219,1.869242,-0.407139,-0.002348
-0.113578,0.477545,-1.682234,-0.269529,1.870874,-0.408713,-0.002887
-0.115189,0.477628,-1.682703,-0.269397,1.872164,-0.40993,-0.003185
-0.1196,0.479305,-1.682263,-0.270259,1.873735,-0.412411,-0.00435
-0.121242,0.47938,-1.682618,-0.270175,1.875115,-0.413672,-0.004842
-0.124409,0.481023,-1.681274,-0.271219,1.877681,-0.417207,-0.007161
-0.126502,0.48133,-1.680801,-0.27116,1.879768,-0.419164,-0.008765
-0.128876,0.482516,-1.679937,-0.27216,1.882099,-0.42257,-0.010567
-0.13134,0.483047,-1.679873,-0.272418,1.88379,-0.424529,-0.011654
-0.135716,0.483845,-1.679246,-0.272802,1.885603,-0.427573,-0.013141
-0.137608,0.483759,-1.679622,-0.272805,1.88701,-0.42905,-0.013648
-0.141601,0.48379,-1.678235,-0.272735,1.889402,-0.433475,-0.016384
-0.142804,0.483245,-1.678154,-0.272533,1.891182,-0.436161,-0.017482
-0.14613,0.481956,-1.676228,-0.27204,1.89396,-0.442495,-0.020649
-0.147857,0.481703,-1.676183,-0.272052,1.895485,-0.444987,-0.022103
-0.151171,0.478787,-1.674739,-0.270087,1.897392,-0.45247,-0.025747
-0.153413,0.476917,-1.674265,-0.268781,1.898658,-0.457094,-0.02817
-0.156499,0.474687,-1.673277,-0.267249,1.899943,-0.463154,-0.031334
-0.158978,0.473113,-1.672615,-0.266103,1.901067,-0.467521,-0.033717
-0.163238,0.470767,-1.670998,-0.26441,1.902343,-0.474693,-0.037635
-0.165104,0.469653,-1.670692,-0.263492,1.903128,-0.477504,-0.039209
-0.169964,0.467468,-1.66929,-0.261734,1.903887,-0.484294,-0.042645
-0.172128,0.46645,-1.669056,-0.260781,1.904326,-0.486823,-0.043941
-0.17745,0.464273,-1.667756,-0.258872,1.904679,-0.493491,-0.047038
-0.179516,0.462963,-1.667252,-0.257717,1.905085,-0.496474,-0.048451
-0.184333,0.459492,-1.665178,-0.254961,1.905799,-0.504983,-0.052137
-0.187134,0.457113,-1.663801,-0.25309,1.906315,-0.510424,-0.054508
-0.190769,0.45379,-1.661657,-0.250515,1.907018,-0.518125,-0.057851
-0.193443,0.451034,-1.659779,-0.248351,1.907616,-0.524132,-0.06057
-0.197771,0.446415,-1.656353,-0.244846,1.908744,-0.534734,-0.065354
-0.199486,0.444106,-1.654745,-0.242957,1.908999,-0.538993,-0.067373
-0.203645,0.438918,-1.651377,-0.238765,1.909589,-0.550148,-0.072293
-0.20528,0.436693,-1.649839,-0.237067,1.909299,-0.554814,-0.074033
-0.209414,0.430208,-1.646237,-0.231214,1.909544,-0.56603,-0.079516
-0.210917,0.427974,-1.644048,-0.229456,1.909341,-0.570383,-0.081806
-0.215117,0.422951,-1.639361,-0.22561,1.91028,-0.580608,-0.088027
-0.217647,0.419692,-1.635808,-0.223138,1.910654,-0.586354,-0.092048
-0.220832,0.415618,-1.631117,-0.22028,1.911656,-0.59409,-0.097512
-0.222978,0.412331,-1.626876,-0.218117,1.912438,-0.599868,-0.101796
-0.226348,0.407128,-1.620091,-0.215035,1.914889,-0.609554,-0.109225
-0.227718,0.404631,-1.616691,-0.213385,1.914913,-0.613198,-0.112057
-0.231474,0.398891,-1.611203,-0.209289,1.915774,-0.622496,-0.118392
-0.233011,0.396119,-1.608328,-0.207091,1.914862,-0.625977,-0.120639
-0.237111,0.389867,-1.603905,-0.201963,1.914179,-0.634928,-0.126099
-0.238782,0.386989,-1.601109,-0.199438,1.912582,-0.638292,-0.128286
-0.243224,0.380396,-1.597274,-0.193307,1.910595,-0.647287,-0.134067
-0.246002,0.376038,-1.594213,-0.189035,1.90811,-0.652402,-0.137519
-0.250047,0.370856,-1.590887,-0.183971,1.905276,-0.658625,-0.141849
-0.253403,0.367195,-1.58776,-0.180429,1.902316,-0.662422,-0.144731
-0.25956,0.361923,-1.584424,-0.17529,1.898775,-0.667952,-0.149215
-0.261933,0.359559,-1.581283,-0.173037,1.89562,-0.669831,-0.150892
-0.26783,0.354596,-1.577328,-0.168403,1.892284,-0.674965,-0.15558
-0.270054,0.352382,-1.573744,-0.166409,1.889124,-0.676676,-0.157412
-0.275719,0.347565,-1.569233,-0.162106,1.885937,-0.681545,-0.162175
-0.277834,0.345114,-1.565363,-0.159942,1.882616,-0.683497,-0.163829
-0.283165,0.33926,-1.560641,-0.154657,1.879159,-0.689511,-0.167592
-0.286075,0.335661,-1.556309,-0.151767,1.875443,-0.693387,-0.169293
-0.290303,0.329888,-1.550889,-0.146413,1.872115,-0.698345,-0.17314
-0.29325,0.325627,-1.545308,-0.142929,1.868699,-0.702145,-0.176493
-0.298155,0.318636,-1.537947,-0.137422,1.866004,-0.708884,-0.18318
-0.300144,0.315352,-1.532198,-0.134857,1.862062,-0.711301,-0.185707
-0.305571,0.307991,-1.524759,-0.128945,1.858592,-0.717902,-0.191996
-0.307852,0.304515,-1.518773,-0.126148,1.853949,-0.720194,-0.194225
-0.313746,0.296722,-1.511104,-0.119767,1.849699,-0.726724,-0.200218
-0.316129,0.293218,-1.504729,-0.117084,1.844374,-0.729104,-0.202161
-0.322111,0.284619,-1.496363,-0.10971,1.839619,-0.736036,-0.208174
-0.325819,0.278965,-1.488677,-0.104924,1.833865,-0.740035,-0.211496
-0.330725,0.271802,-1.480207,-0.098716,1.827949,-0.745639,-0.216246
-0.334446,0.266213,-1.471811,-0.093731,1.821321,-0.749724,-0.219927
-0.340616,0.257411,-1.462073,-0.085541,1.814635,-0.757026,-0.226701
-0.343268,0.253224,-1.453219,-0.081755,1.8068,-0.759508,-0.229159
-0.349594,0.244011,-1.442492,-0.073268,1.799224,-0.766652,-0.236196
-0.352376,0.23955,-1.432569,-0.069305,1.79035,-0.769031,-0.238706
-0.373724,0.182121,-1.41572,0.002074,1.78497,-0.766135,-0.261852
-0.375881,0.18283,-1.402303,-0.000846,1.7713,-0.76937,-0.26242
-0.379672,0.186155,-1.387743,-0.009171,1.757505,-0.778423,-0.265748
-0.382549,0.187433,-1.373469,-0.013565,1.743262,-0.783175,-0.267427
-0.386267,0.189608,-1.359088,-0.019617,1.728756,-0.789131,-0.26943
-0.389723,0.190711,-1.34499,-0.023503,1.713834,-0.792582,-0.270085
-0.395201,0.193299,-1.331184,-0.030215,1.698629,-0.79803,-0.271139
-0.398553,0.19235,-1.317104,-0.030743,1.683568,-0.799238,-0.27124
-0.404021,0.195797,-1.303349,-0.038456,1.668196,-0.804162,-0.271705
-0.407143,0.195798,-1.28942,-0.040192,1.653161,-0.805225,-0.271388
-0.413335,0.197954,-1.275768,-0.046057,1.638061,-0.809462,-0.272124
-0.416816,0.196889,-1.261974,-0.046605,1.623171,-0.810412,-0.27193
-0.422474,0.200497,-1.248483,-0.053695,1.608421,-0.814526,-0.273452
-0.426563,0.201379,-1.23524,-0.05667,1.594125,-0.816414,-0.274164
-0.431698,0.20301,-1.22252,-0.060923,1.580079,-0.819275,-0.275293
-0.435843,0.203799,-1.210145,-0.063737,1.566342,-0.821137,-0.275839
-0.442254,0.205815,-1.198694,-0.068765,1.552889,-0.825,-0.277244
-0.445485,0.205798,-1.187212,-0.070046,1.540142,-0.825591,-0.277273
-0.452722,0.207398,-1.17686,-0.074025,1.52752,-0.827866,-0.278163
-0.45631,0.207269,-1.166306,-0.0749,1.515653,-0.827718,-0.278028
-0.464356,0.208374,-1.156995,-0.077758,1.503755,-0.828637,-0.278372
-0.468129,0.207973,-1.147297,-0.078126,1.492573,-0.828298,-0.277965
-0.476551,0.208368,-1.139135,-0.079771,1.480916,-0.82908,-0.277017
-0.482416,0.207319,-1.13034,-0.079046,1.469861,-0.828922,-0.276357
-0.489661,0.206855,-1.12213,-0.07935,1.458713,-0.828783,-0.275312
-0.495254,0.206358,-1.113713,-0.079675,1.4481,-0.828041,-0.274391
-0.504085,0.206197,-1.106354,-0.080836,1.437518,-0.827017,-0.273134
-0.507707,0.205982,-1.098267,-0.081498,1.427856,-0.826068,-0.272261
-0.51561,0.206348,-1.091531,-0.083419,1.418236,-0.825592,-0.271586
-0.518882,0.206158,-1.084137,-0.084054,1.409569,-0.825,-0.271219
-0.526704,0.205613,-1.077795,-0.084821,1.400729,-0.825079,-0.271388
-0.52962,0.205462,-1.070996,-0.085567,1.3927,-0.824984,-0.271206
-0.537205,0.206069,-1.065965,-0.087578,1.384526,-0.82512,-0.271115
-0.542457,0.205044,-1.060292,-0.087086,1.376988,-0.825185,-0.271323
-0.54851,0.204961,-1.055168,-0.088216,1.369766,-0.825763,-0.271513
-0.552609,0.20498,-1.049916,-0.089612,1.363507,-0.826499,-0.271707
-0.560069,0.204774,-1.045383,-0.091223,1.357784,-0.827767,-0.272247
-0.562802,0.204664,-1.040842,-0.092195,1.352686,-0.828264,-0.272276
-0.569661,0.204938,-1.037924,-0.094619,1.347737,-0.83005,-0.272121
-0.572922,0.204324,-1.034623,-0.094602,1.343397,-0.830531,-0.272015
-0.579579,0.204617,-1.032914,-0.096927,1.339127,-0.832718,-0.27168
-0.582407,0.204511,-1.030703,-0.097607,1.335932,-0.833403,-0.271762
-0.588491,0.20515,-1.029802,-0.100058,1.332993,-0.836019,-0.273024
-0.592293,0.205644,-1.029081,-0.101535,1.331022,-0.837378,-0.27395
-0.597242,0.206268,-1.028924,-0.103637,1.329841,-0.839463,-0.275391
-0.601029,0.206689,-1.028939,-0.105362,1.329643,-0.840989,-0.276506
-0.606953,0.208445,-1.030011,-0.109701,1.33097,-0.843437,-0.278296
-0.60917,0.208562,-1.031523,-0.110894,1.33262,-0.845235,-0.279009
-0.615688,0.209926,-1.034018,-0.114274,1.335124,-0.848757,-0.280933
-0.618046,0.210312,-1.036898,-0.115351,1.337887,-0.851063,-0.281638
-0.625058,0.210986,-1.040504,-0.117825,1.341082,-0.855699,-0.283322
-0.627446,0.211404,-1.044226,-0.118908,1.344768,-0.858139,-0.28406
-0.634213,0.212486,-1.048817,-0.122302,1.349272,-0.862496,-0.285447
-0.638038,0.212971,-1.0537,-0.124059,1.354307,-0.865749,-0.28646
-0.643599,0.213975,-1.05941,-0.126659,1.35968,-0.869676,-0.287571
-0.647966,0.214317,-1.065339,-0.127767,1.365106,-0.873287,-0.288649
-0.655032,0.21532,-1.072198,-0.13029,1.370445,-0.87924,-0.289988
-0.658553,0.214785,-1.078079,-0.129702,1.376169,-0.881962,-0.291297
-0.66566,0.215933,-1.084339,-0.132406,1.382223,-0.887213,-0.293642
-0.668607,0.216513,-1.090447,-0.133336,1.388745,-0.889533,-0.295118
-0.675503,0.217657,-1.096636,-0.136268,1.39584,-0.89454,-0.298102
-0.678408,0.218484,-1.103164,-0.137352,1.402945,-0.896912,-0.299533
-0.685407,0.220002,-1.109826,-0.140362,1.410526,-0.902081,-0.3018
-0.689784,0.220516,-1.116582,-0.141478,1.418109,-0.905666,-0.303345
-0.695215,0.221405,-1.12334,-0.143452,1.42581,-0.910247,-0.305015
-0.699648,0.222293,-1.130261,-0.144814,1.433478,-0.913448,-0.306415
-0.707276,0.222367,-1.136827,-0.145839,1.44094,-0.918306,-0.308225
-0.710366,0.222613,-1.143383,-0.146137,1.44812,-0.920593,-0.309306
-0.717468,0.223468,-1.149517,-0.147865,1.455445,-0.924782,-0.311362
-0.720421,0.223902,-1.155745,-0.148286,1.462471,-0.926746,-0.312633
-0.727319,0.224909,-1.161551,-0.149954,1.469645,-0.930308,-0.314892
-0.729854,0.225545,-1.167696,-0.150662,1.476409,-0.932384,-0.315942
-0.737169,0.2255,-1.173302,-0.150774,1.482769,-0.935219,-0.317905
-0.741419,0.225499,-1.178788,-0.150723,1.488694,-0.937192,-0.319101
-0.746635,0.226332,-1.184188,-0.151942,1.49458,-0.939465,-0.320066
-0.751248,0.225353,-1.189069,-0.151117,1.500036,-0.941197,-0.320652
-0.758231,0.224996,-1.193662,-0.151736,1.505369,-0.943456,-0.320574
-0.761108,0.224872,-1.19819,-0.151769,1.510338,-0.944645,-0.320878
-0.767768,0.224712,-1.202344,-0.152331,1.515128,-0.946907,-0.321824
-0.770083,0.225148,-1.206554,-0.152935,1.519755,-0.948394,-0.322653
-0.776807,0.224802,-1.210394,-0.152964,1.524049,-0.950325,-0.324455
-0.779067,0.225213,-1.214404,-0.153533,1.528169,-0.951603,-0.325229
-0.78539,0.225485,-1.218913,-0.154016,1.531559,-0.953054,-0.32619
-0.788975,0.225924,-1.223277,-0.154514,1.535042,-0.95411,-0.326801
-0.793616,0.226565,-1.22786,-0.155343,1.538271,-0.955422,-0.327516
-0.797143,0.227015,-1.232226,-0.155809,1.541591,-0.956528,-0.328202
-0.802719,0.227908,-1.237104,-0.156898,1.544431,-0.95821,-0.329278
-0.804879,0.228287,-1.241235,-0.157332,1.547957,-0.959283,-0.329852
-0.810421,0.229017,-1.245786,-0.158966,1.551242,-0.961031,-0.330934
-0.812554,0.229446,-1.249796,-0.159795,1.555139,-0.962139,-0.331677
-0.817432,0.230517,-1.25418,-0.162514,1.559137,-0.964585,-0.333091
-0.819244,0.230595,-1.258301,-0.163221,1.563382,-0.966335,-0.333977
-0.823993,0.232014,-1.262797,-0.166429,1.567796,-0.969331,-0.335739
-0.826805,0.232025,-1.267213,-0.167559,1.57235,-0.971914,-0.337023
-0.830313,0.23346,-1.271851,-0.170408,1.577134,-0.974838,-0.338807
-0.833122,0.233514,-1.276563,-0.171457,1.581775,-0.977488,-0.34014
-0.837897,0.234057,-1.28117,-0.173164,1.586228,-0.981084,-0.34284
-0.839818,0.234482,-1.285743,-0.173954,1.590837,-0.982801,-0.344073
-0.843563,0.236696,-1.291097,-0.178212,1.595484,-0.986129,-0.345806
-0.845266,0.236693,-1.29606,-0.178924,1.600467,-0.98782,-0.346892
-0.849603,0.23706,-1.301192,-0.180912,1.605079,-0.99031,-0.349109
-0.851061,0.238554,-1.306591,-0.183071,1.609936,-0.991893,-0.349644
-0.855515,0.238619,-1.312667,-0.183973,1.613548,-0.994917,-0.350411
-0.858099,0.238841,-1.318042,-0.184362,1.617432,-0.997145,-0.351063
-0.862136,0.238218,-1.32334,-0.184139,1.620656,-0.999334,-0.351266
-0.864779,0.238285,-1.327746,-0.184683,1.624304,-1.001322,-0.351848
-0.869533,0.237579,-1.331946,-0.18481,1.627428,-1.003897,-0.352491
-0.871183,0.237699,-1.335464,-0.185206,1.630981,-1.005397,-0.353144
-0.875922,0.23762,-1.339069,-0.18621,1.63408,-1.00749,-0.353624
-0.87802,0.237051,-1.342072,-0.185936,1.63737,-1.008474,-0.35421
-0.88227,0.236997,-1.344795,-0.187071,1.640519,-1.01063,-0.355074
-0.884351,0.237104,-1.347647,-0.187429,1.64351,-1.011387,-0.355424
-0.888729,0.236455,-1.350071,-0.187483,1.646173,-1.013336,-0.35624
-0.891114,0.2366,-1.352432,-0.187939,1.648768,-1.014708,-0.356831
-0.894404,0.236793,-1.354685,-0.188533,1.651189,-1.016133,-0.357591
-0.897148,0.237014,-1.356918,-0.188987,1.653523,-1.016892,-0.358297
-0.901409,0.237469,-1.359008,-0.189763,1.655716,-1.018034,-0.359507
-0.903095,0.237667,-1.361154,-0.190073,1.657885,-1.018686,-0.360013
-0.906962,0.238235,-1.363158,-0.190782,1.659837,-1.019738,-0.361382
-0.908629,0.238531,-1.365167,-0.19113,1.661866,-1.020146,-0.362001
-0.911967,0.239036,-1.367104,-0.191836,1.663627,-1.021305,-0.363393
-0.913342,0.239313,-1.369031,-0.192091,1.66545,-1.021885,-0.36389
-0.916401,0.239745,-1.371004,-0.192522,1.666853,-1.023268,-0.364729
-0.918525,0.239998,-1.372951,-0.192792,1.668312,-1.023876,-0.364901
-0.920671,0.240164,-1.374766,-0.192965,1.669587,-1.025143,-0.365168
-0.922443,0.239996,-1.376572,-0.193085,1.6708,-1.025933,-0.364863
-0.925081,0.239457,-1.378449,-0.193,1.671633,-1.027158,-0.364048
-0.926389,0.23798,-1.379435,-0.191385,1.672622,-1.027703,-0.364338
-0.928918,0.237309,-1.38057,-0.190722,1.67292,-1.028927,-0.364493
-0.929724,0.237421,-1.381394,-0.190801,1.673498,-1.029631,-0.364801
-0.932366,0.236763,-1.382176,-0.18978,1.673523,-1.03061,-0.365626
-0.93313,0.236869,-1.382689,-0.18986,1.673888,-1.031272,-0.365882
-0.935674,0.237114,-1.383004,-0.190222,1.674339,-1.031773,-0.36662
-0.937134,0.237177,-1.383323,-0.190472,1.674897,-1.032153,-0.366972
-0.939188,0.237286,-1.383452,-0.190861,1.675587,-1.032623,-0.36759
-0.940588,0.237155,-1.383579,-0.191286,1.676334,-1.033349,-0.367969
-0.942986,0.236941,-1.383231,-0.192072,1.677459,-1.034569,-0.368759
-0.94404,0.23689,-1.383326,-0.192317,1.67832,-1.034946,-0.369289
-0.946641,0.236722,-1.383107,-0.19294,1.679324,-1.036051,-0.37011
-0.948036,0.235482,-1.3831,-0.191794,1.679873,-1.036408,-0.370662
-0.950533,0.235314,-1.382905,-0.192519,1.680472,-1.037814,-0.371205
-0.951724,0.235355,-1.382979,-0.192769,1.681026,-1.038081,-0.371608
-0.954278,0.235337,-1.38254,-0.193501,1.681953,-1.039138,-0.372474
-0.955883,0.235242,-1.382315,-0.193643,1.682745,-1.039647,-0.373278
-0.957828,0.23537,-1.381971,-0.194301,1.683631,-1.040652,-0.374238
-0.959367,0.235314,-1.381789,-0.194549,1.684377,-1.041516,-0.375155
-0.961935,0.235525,-1.381269,-0.195224,1.685295,-1.043003,-0.376717
-0.962928,0.235502,-1.381314,-0.195511,1.685957,-1.043719,-0.377278
-0.965503,0.235355,-1.380625,-0.196449,1.687143,-1.04519,-0.378504
-0.966467,0.235151,-1.380745,-0.196877,1.687914,-1.045934,-0.378681
-0.969035,0.234927,-1.379945,-0.198017,1.689308,-1.047198,-0.379791
-0.969288,0.235849,-1.374047,-0.199886,1.683551,-1.047198,-0.379479
-0.970407,0.234762,-1.356997,-0.200456,1.666899,-1.047198,-0.37987
-0.971439,0.234292,-1.348517,-0.200786,1.658563,-1.047198,-0.38044
-0.972266,0.233577,-1.335788,-0.201193,1.645908,-1.047198,-0.380825
-0.973195,0.233203,-1.329733,-0.201428,1.640019,-1.047198,-0.381034
-0.974368,0.232268,-1.318724,-0.20166,1.629122,-1.047198,-0.381111
-0.975223,0.232388,-1.317402,-0.201903,1.6281,-1.047198,-0.381541
-0.976488,0.232195,-1.308461,-0.202947,1.619253,-1.047198,-0.381737
-0.977517,0.232169,-1.307847,-0.203144,1.618772,-1.047198,-0.382031
-0.979037,0.231244,-1.299665,-0.203429,1.610791,-1.047198,-0.382427
-0.979359,0.23158,-1.295625,-0.204117,1.606869,-1.047198,-0.382716
-0.981171,0.230669,-1.287368,-0.204409,1.598231,-1.047198,-0.382446
-0.982562,0.23053,-1.284923,-0.204813,1.595257,-1.047198,-0.382028
-0.983831,0.229314,-1.276161,-0.204514,1.586034,-1.047198,-0.381772
-0.985352,0.229469,-1.274441,-0.204784,1.584358,-1.047198,-0.382223
-0.987315,0.22808,-1.265366,-0.204002,1.574633,-1.047198,-0.382234
-0.988557,0.226705,-1.262711,-0.20233,1.572374,-1.047198,-0.382985
-0.991069,0.226844,-1.261662,-0.202716,1.571321,-1.047198,-0.382979
-0.991876,0.226773,-1.260588,-0.20289,1.57028,-1.047198,-0.382804
-0.994756,0.225823,-1.26085,-0.201998,1.570811,-1.047198,-0.382469
-0.996064,0.225358,-1.261531,-0.201352,1.571672,-1.047198,-0.382392
-0.999405,0.224197,-1.26462,-0.199354,1.574486,-1.047198,-0.381606
-1.00171,0.223583,-1.268447,-0.197929,1.578202,-1.047198,-0.381177
-1.004148,0.222325,-1.26953,-0.195934,1.579081,-1.047198,-0.380401
-1.006379,0.22203,-1.27379,-0.194953,1.583433,-1.047198,-0.379915
-1.009842,0.22144,-1.279579,-0.193298,1.589497,-1.047198,-0.379047
-1.01055,0.221284,-1.278513,-0.193103,1.58851,-1.047198,-0.378548
-1.012814,0.220733,-1.277738,-0.192509,1.58812,-1.047198,-0.378077
-1.01356,0.2203,-1.276144,-0.192212,1.586719,-1.047198,-0.378068
-1.015515,0.218571,-1.270316,-0.190887,1.581727,-1.047198,-0.378572
-1.016149,0.219039,-1.268964,-0.191677,1.580449,-1.047198,-0.378333
-1.01755,0.218262,-1.261426,-0.191736,1.572902,-1.047198,-0.378321
-1.018248,0.216576,-1.252728,-0.190538,1.564563,-1.047198,-0.37886
-1.019419,0.215337,-1.244159,-0.190035,1.556358,-1.047198,-0.379159
-1.020391,0.214464,-1.237974,-0.189825,1.550605,-1.047198,-0.379299
-1.022029,0.213133,-1.227528,-0.189762,1.540955,-1.047198,-0.379239
-1.022768,0.212443,-1.223522,-0.189577,1.53728,-1.047198,-0.379209
-1.024558,0.211203,-1.214773,-0.189587,1.529402,-1.047198,-0.378794
-1.025505,0.210955,-1.212978,-0.189553,1.528444,-1.047198,-0.378985
-1.027129,0.210192,-1.204596,-0.190133,1.520861,-1.047198,-0.378032
-1.027955,0.209839,-1.20194,-0.190142,1.518534,-1.047198,-0.377887
-1.029449,0.209157,-1.192289,-0.190612,1.509277,-1.047198,-0.377362
-1.030491,0.208538,-1.186307,-0.190613,1.50336,-1.047198,-0.37713
-1.031689,0.207845,-1.177693,-0.190482,1.495329,-1.047198,-0.3776
-1.032584,0.207573,-1.171488,-0.190798,1.489112,-1.047198,-0.377834
-1.034079,0.207229,-1.161887,-0.191053,1.479781,-1.047198,-0.378887
-1.034834,0.206583,-1.157101,-0.190567,1.475171,-1.047198,-0.379458
-1.036312,0.205872,-1.14622,-0.190679,1.464199,-1.047198,-0.379559
-1.036005,0.206495,-1.140743,-0.19206,1.458458,-1.047198,-0.378996
-1.037903,0.204919,-1.130041,-0.191164,1.447498,-1.047198,-0.378485
-1.03882,0.203805,-1.124777,-0.190327,1.44208,-1.047198,-0.378269
-1.040572,0.200607,-1.107283,-0.188157,1.423761,-1.047198,-0.376881
-1.04212,0.199107,-1.100375,-0.186966,1.416387,-1.047198,-0.376094
-1.044025,0.196751,-1.090009,-0.185235,1.405602,-1.047198,-0.375252
-1.044773,0.195804,-1.08248,-0.185192,1.39788,-1.047198,-0.374568
-1.046053,0.195243,-1.075209,-0.186105,1.39071,-1.047198,-0.373835
-1.046518,0.194843,-1.071571,-0.186248,1.387277,-1.047198,-0.373709
-1.047444,0.194276,-1.063094,-0.186905,1.379386,-1.047198,-0.373977
-1.048225,0.193349,-1.059512,-0.186492,1.375706,-1.047198,-0.373877
-1.049078,0.192656,-1.051602,-0.187079,1.367924,-1.047198,-0.37404
-1.049817,0.192508,-1.050429,-0.187051,1.366933,-1.047198,-0.37433
-1.050508,0.192143,-1.044544,-0.18763,1.360861,-1.047198,-0.374435
-1.051162,0.19177,-1.04147,-0.187473,1.357905,-1.047198,-0.374927
-1.051876,0.191594,-1.039114,-0.187569,1.355593,-1.047198,-0.375319
-1.052161,0.19173,-1.038276,-0.18793,1.354776,-1.047198,-0.375453
-1.052603,0.192058,-1.03901,-0.188486,1.355448,-1.047198,-0.37544
-1.052618,0.192265,-1.039004,-0.188869,1.35541,-1.047198,-0.375443
-1.052009,0.192728,-1.035437,-0.190311,1.351814,-1.047198,-0.375633
-1.052332,0.1925,-1.034273,-0.190159,1.350837,-1.047198,-0.376079
-1.051709,0.192441,-1.028594,-0.191018,1.345836,-1.047198,-0.377281
-1.051752,0.192334,-1.027837,-0.191241,1.345294,-1.047198,-0.377519
-1.05072,0.192947,-1.026814,-0.193392,1.345411,-1.047198,-0.378066
-1.049674,0.193928,-1.027056,-0.19531,1.346901,-1.047198,-0.378714
-1.048429,0.195047,-1.0277,-0.197493,1.348543,-1.047198,-0.379159
-1.047923,0.195415,-1.028146,-0.198095,1.349531,-1.047198,-0.379677
-1.047086,0.195983,-1.028684,-0.198486,1.351035,-1.047198,-0.380947
-1.046706,0.196349,-1.02964,-0.198785,1.352123,-1.047198,-0.38111
-1.045775,0.19829,-1.034986,-0.200189,1.358057,-1.047198,-0.381592
-1.046442,0.198251,-1.039189,-0.199111,1.362715,-1.047198,-0.382163
-1.04668,0.199284,-1.047229,-0.198612,1.371339,-1.047198,-0.382503
-1.046626,0.199687,-1.04922,-0.19863,1.373563,-1.047198,-0.382557
-1.047059,0.200163,-1.05258,-0.198222,1.377633,-1.047198,-0.382508
-1.047035,0.199919,-1.051255,-0.197861,1.376565,-1.047198,-0.38221
-1.047225,0.200188,-1.051982,-0.197848,1.377797,-1.047198,-0.382029
-1.046933,0.199914,-1.049868,-0.197822,1.375601,-1.047198,-0.381525
-1.04677,0.200004,-1.048859,-0.198196,1.374858,-1.047198,-0.381134
-1.046903,0.199971,-1.048796,-0.198184,1.374909,-1.047198,-0.381113
-1.046897,0.19994,-1.047484,-0.198261,1.373747,-1.047198,-0.381262
-1.046859,0.199959,-1.046907,-0.1983,1.373176,-1.047198,-0.381399
-1.04702,0.199838,-1.045396,-0.198182,1.371605,-1.047198,-0.381855
-1.047065,0.199834,-1.044896,-0.198092,1.371102,-1.047198,-0.382113
-1.047017,0.200048,-1.043624,-0.198085,1.36951,-1.047198,-0.38262
-1.047242,0.200203,-1.043921,-0.197863,1.369593,-1.047198,-0.382987
-1.047208,0.200447,-1.043616,-0.19783,1.369119,-1.047198,-0.383362
-1.046929,0.200838,-1.043773,-0.198126,1.369245,-1.047198,-0.383557
-1.046844,0.201369,-1.04523,-0.198393,1.370847,-1.047198,-0.383808
-1.046673,0.201624,-1.045545,-0.198591,1.371326,-1.047198,-0.383914
-1.046211,0.202065,-1.045728,-0.19914,1.371782,-1.047198,-0.38379
-1.046325,0.202141,-1.045985,-0.199124,1.372457,-1.047198,-0.384003
-1.045799,0.202052,-1.044043,-0.19921,1.37125,-1.047198,-0.384042
-1.046026,0.202108,-1.045204,-0.199001,1.372722,-1.047198,-0.384235
-1.045653,0.202333,-1.046139,-0.198974,1.373704,-1.047198,-0.38391
-1.045492,0.202611,-1.047624,-0.198999,1.375039,-1.047198,-0.383634
-1.045386,0.202905,-1.049589,-0.198899,1.376921,-1.047198,-0.383473
-1.045349,0.203093,-1.050897,-0.198787,1.378232,-1.047198,-0.383574
-1.045363,0.203389,-1.053149,-0.198535,1.380606,-1.047198,-0.384005
-1.045365,0.203459,-1.053721,-0.198398,1.381313,-1.047198,-0.384194
-1.045256,0.203475,-1.053542,-0.198092,1.381612,-1.047198,-0.38424
-1.045166,0.203406,-1.052945,-0.198008,1.381134,-1.047198,-0.384002
-1.045335,0.203433,-1.052882,-0.197703,1.381801,-1.047198,-0.383789
-1.045402,0.203327,-1.052664,-0.197506,1.381688,-1.047198,-0.383706
-1.045454,0.203419,-1.053374,-0.197329,1.382586,-1.047198,-0.383667
-1.045254,0.203478,-1.053017,-0.197388,1.382116,-1.047198,-0.38354
-1.045309,0.203589,-1.053537,-0.197293,1.382634,-1.047198,-0.3836
-1.045278,0.203528,-1.052655,-0.197145,1.381689,-1.047198,-0.383643
-1.045063,0.203389,-1.049822,-0.196839,1.378946,-1.047198,-0.384009
-1.044814,0.203093,-1.047652,-0.196762,1.376573,-1.047198,-0.383825
-1.044479,0.203076,-1.046713,-0.196815,1.375874,-1.047198,-0.38373
-1.044374,0.203151,-1.047036,-0.196871,1.376543,-1.047198,-0.383794
-1.043972,0.203325,-1.047674,-0.197138,1.37766,-1.047198,-0.383558
-1.044097,0.203404,-1.048752,-0.196983,1.378859,-1.047198,-0.38365
-1.043485,0.203124,-1.046334,-0.19652,1.37575,-1.047198,-0.383227
-1.043259,0.202973,-1.045527,-0.19607,1.374239,-1.047198,-0.382926
-1.042604,0.203038,-1.044434,-0.195819,1.372444,-1.047198,-0.382982
-1.042333,0.203315,-1.046089,-0.195578,1.373801,-1.047198,-0.383525
-1.04177,0.204208,-1.051007,-0.195421,1.378492,-1.047198,-0.385124
-1.041584,0.204539,-1.053029,-0.195343,1.380358,-1.047198,-0.385453
-1.040864,0.204864,-1.054505,-0.195128,1.381582,-1.047198,-0.385719
-1.040928,0.205122,-1.056609,-0.195054,1.383692,-1.047198,-0.385625
-1.040608,0.205282,-1.058245,-0.194803,1.385032,-1.047198,-0.384758
-1.040484,0.205003,-1.057688,-0.194381,1.384475,-1.047198,-0.384701
-1.040389,0.205322,-1.060527,-0.194203,1.387694,-1.047198,-0.384966
-1.040274,0.205534,-1.062015,-0.194213,1.389433,-1.047198,-0.385182
-1.040173,0.205388,-1.06251,-0.193764,1.390213,-1.047198,-0.385287
-1.040221,0.205069,-1.062238,-0.193213,1.389785,-1.047198,-0.384864
-1.040373,0.204659,-1.061754,-0.19244,1.388625,-1.047198,-0.383572
-1.040511,0.204697,-1.062365,-0.192266,1.389172,-1.047198,-0.383324
-1.040414,0.204885,-1.063437,-0.192355,1.390555,-1.047198,-0.38334
-1.040194,0.204718,-1.062722,-0.192384,1.389957,-1.047198,-0.383409
-1.040019,0.205348,-1.064986,-0.192953,1.393331,-1.047198,-0.384511
-1.039653,0.205663,-1.065143,-0.193633,1.393169,-1.047198,-0.384278
-1.039277,0.205589,-1.060662,-0.193615,1.388372,-1.047198,-0.384376
-1.039145,0.205579,-1.058205,-0.193536,1.385513,-1.047198,-0.384461
-1.038997,0.205073,-1.054355,-0.193023,1.381209,-1.047198,-0.384528
-1.038953,0.204998,-1.054109,-0.192945,1.380703,-1.047198,-0.384544
-1.038995,0.204934,-1.054654,-0.192587,1.381335,-1.047198,-0.384911
-1.039176,0.20495,-1.055324,-0.19244,1.382004,-1.047198,-0.385064
-1.039155,0.204729,-1.053689,-0.19207,1.380006,-1.047198,-0.384683
-1.039176,0.204334,-1.051741,-0.191661,1.377732,-1.047198,-0.384318
-1.038572,0.203743,-1.045254,-0.19136,1.370207,-1.047198,-0.38302
-1.039145,0.202343,-1.042803,-0.189612,1.367595,-1.047198,-0.383004
-1.039596,0.201923,-1.042786,-0.188368,1.367072,-1.047198,-0.382829
-1.039812,0.201927,-1.043624,-0.187809,1.367667,-1.047198,-0.382848
-1.039807,0.201871,-1.043833,-0.187252,1.367704,-1.047198,-0.382814
-1.039581,0.201427,-1.042287,-0.18671,1.366205,-1.047198,-0.38283
-1.039307,0.201713,-1.043817,-0.186701,1.368371,-1.047198,-0.383201
-1.039289,0.201852,-1.04502,-0.186701,1.369796,-1.047198,-0.383338
-1.038281,0.20216,-1.043525,-0.187293,1.36877,-1.047198,-0.383357
-1.038213,0.202057,-1.043132,-0.18713,1.368762,-1.047198,-0.383624
-1.037163,0.202242,-1.040897,-0.187552,1.367396,-1.047198,-0.384101
-1.03716,0.202248,-1.041927,-0.187422,1.3686,-1.047198,-0.384187
-1.036596,0.203057,-1.047117,-0.187806,1.37432,-1.047198,-0.384614
-1.036233,0.20378,-1.05146,-0.188204,1.378821,-1.047198,-0.384762
-1.035959,0.204348,-1.055657,-0.18825,1.383126,-1.047198,-0.384886
-1.035843,0.204452,-1.056462,-0.187944,1.383743,-1.047198,-0.384739
-1.035618,0.204128,-1.054465,-0.187012,1.381034,-1.047198,-0.384112
-1.03566,0.20422,-1.054928,-0.186785,1.381397,-1.047198,-0.384062
-1.035178,0.203735,-1.053564,-0.186208,1.38003,-1.047198,-0.383841
-1.034898,0.203606,-1.05336,-0.186191,1.379996,-1.047198,-0.383847
-1.034211,0.203678,-1.054926,-0.186525,1.381911,-1.047198,-0.383833
-1.03389,0.203624,-1.05452,-0.186547,1.381678,-1.047198,-0.384025
-1.032791,0.203406,-1.052173,-0.186368,1.379585,-1.047198,-0.384989
-1.03188,0.203242,-1.0498,-0.186388,1.376969,-1.047198,-0.385318
-1.030439,0.203124,-1.04672,-0.186431,1.373724,-1.047198,-0.385665
-1.029863,0.203049,-1.046685,-0.186029,1.373865,-1.047198,-0.38602
-1.027675,0.20231,-1.040937,-0.185385,1.367953,-1.047198,-0.385707
-1.026889,0.202191,-1.039944,-0.185013,1.367171,-1.047198,-0.385785
-1.025042,0.202274,-1.042701,-0.183976,1.370388,-1.047198,-0.385762
-1.023984,0.202454,-1.044113,-0.183691,1.372129,-1.047198,-0.38577
-1.021881,0.203172,-1.052624,-0.182483,1.3814,-1.047198,-0.385672
-1.020357,0.203721,-1.05498,-0.18249,1.384348,-1.047198,-0.385777
-1.017848,0.204225,-1.065769,-0.180864,1.395731,-1.047198,-0.384914
-1.015439,0.204893,-1.071083,-0.180654,1.401383,-1.047198,-0.384077
-1.013501,0.204701,-1.08066,-0.178042,1.411915,-1.047198,-0.384082
-1.010819,0.205894,-1.086092,-0.177928,1.41764,-1.047198,-0.383655
-1.007785,0.205579,-1.095275,-0.174344,1.427817,-1.047198,-0.383942
-1.006173,0.206092,-1.099961,-0.173705,1.432705,-1.047198,-0.383812
-1.001691,0.20752,-1.111292,-0.172556,1.445256,-1.047198,-0.384049
-0.999288,0.208507,-1.114955,-0.172733,1.449552,-1.047198,-0.38418
-0.994623,0.209185,-1.126665,-0.171017,1.462666,-1.047198,-0.384633
-0.991883,0.210725,-1.130365,-0.171901,1.466615,-1.047198,-0.384353
-0.987487,0.211263,-1.141444,-0.16952,1.477415,-1.047198,-0.38392
-0.984876,0.211876,-1.151012,-0.168015,1.487044,-1.047198,-0.384034
-0.981049,0.212541,-1.159358,-0.166428,1.495615,-1.047142,-0.383966
-0.978329,0.212977,-1.166495,-0.165232,1.503406,-1.046864,-0.384132
-0.972443,0.213996,-1.172395,-0.164616,1.510915,-1.046722,-0.384331
-0.970561,0.21425,-1.177998,-0.163933,1.517299,-1.046797,-0.384627
-0.964668,0.215266,-1.182996,-0.164002,1.523588,-1.046371,-0.38436
-0.962809,0.215332,-1.187754,-0.163464,1.528955,-1.046227,-0.384413
-0.957038,0.215759,-1.191854,-0.163331,1.534286,-1.045769,-0.384129
-0.955133,0.215853,-1.195846,-0.162991,1.53877,-1.045786,-0.384253
-0.949343,0.217556,-1.199548,-0.163988,1.543455,-1.045695,-0.384719
-0.94662,0.217633,-1.202931,-0.163308,1.547498,-1.045751,-0.385398
-0.94234,0.21825,-1.205844,-0.163252,1.551408,-1.04599,-0.386121
-0.939791,0.218135,-1.208628,-0.162656,1.554774,-1.045921,-0.38614
-0.934845,0.218826,-1.21115,-0.163269,1.558288,-1.04607,-0.385679
-0.933136,0.218942,-1.213696,-0.163194,1.561272,-1.046196,-0.385622
-0.929166,0.218495,-1.215883,-0.162317,1.563974,-1.045779,-0.385202
-0.927414,0.218869,-1.217926,-0.162518,1.56642,-1.045779,-0.385318
-0.923774,0.218441,-1.219835,-0.161643,1.568522,-1.045046,-0.384877
-0.922538,0.21847,-1.221512,-0.161263,1.570296,-1.044629,-0.384851
-0.919059,0.218117,-1.223187,-0.16031,1.571651,-1.043773,-0.383998
-0.916994,0.218014,-1.224617,-0.159729,1.572715,-1.043286,-0.38348
-0.9144,0.217956,-1.226036,-0.158919,1.573421,-1.042321,-0.38282
-0.912081,0.218959,-1.227572,-0.159356,1.5741,-1.041577,-0.382297
-0.909216,0.219318,-1.229179,-0.158061,1.574288,-1.039624,-0.382155
-0.907996,0.219389,-1.230129,-0.15757,1.574663,-1.039036,-0.382022
-0.904626,0.219236,-1.231198,-0.15644,1.574582,-1.038013,-0.381273
-0.903357,0.21924,-1.231547,-0.156056,1.574821,-1.037522,-0.381112
-0.900098,0.21907,-1.231873,-0.1551,1.574803,-1.036516,-0.380523
-0.898885,0.219087,-1.231908,-0.154715,1.574751,-1.036051,-0.380363
-0.895657,0.218849,-1.23186,-0.153771,1.574494,-1.035373,-0.379682
-0.89373,0.218777,-1.231546,-0.153174,1.574152,-1.034996,-0.379371
-0.891187,0.218689,-1.23107,-0.152339,1.573663,-1.034473,-0.379003
-0.889141,0.218665,-1.230341,-0.151658,1.573065,-1.034285,-0.379052
-0.885777,0.218738,-1.22931,-0.150419,1.572266,-1.033894,-0.379305
-0.884338,0.218677,-1.228238,-0.149791,1.571298,-1.033604,-0.379381
-0.88125,0.217655,-1.226617,-0.147263,1.570022,-1.032408,-0.378857
-0.88005,0.217697,-1.225068,-0.146694,1.568502,-1.031391,-0.378295
-0.876293,0.217383,-1.223342,-0.145351,1.566942,-1.029852,-0.376412
-0.875012,0.21735,-1.221445,-0.144812,1.565293,-1.028693,-0.375797
-0.871171,0.217151,-1.218557,-0.143638,1.564313,-1.026536,-0.375058
-0.868777,0.216979,-1.215711,-0.142963,1.562995,-1.025074,-0.37483
-0.865549,0.216819,-1.212622,-0.141882,1.56165,-1.023096,-0.374248
-0.863146,0.21661,-1.209834,-0.140931,1.559761,-1.021558,-0.373328
-0.859382,0.215308,-1.206292,-0.138034,1.557637,-1.019158,-0.37168
-0.857857,0.21524,-1.203173,-0.13732,1.554824,-1.017649,-0.370787
-0.85364,0.214512,-1.199555,-0.135148,1.552039,-1.014678,-0.36879
-0.851955,0.214385,-1.196137,-0.134404,1.548767,-1.012944,-0.367931
-0.847634,0.214245,-1.192346,-0.132573,1.545623,-1.009121,-0.366162
-0.845786,0.213976,-1.188785,-0.131736,1.54192,-1.00753,-0.36508
-0.841421,0.212648,-1.184896,-0.128415,1.537638,-1.004391,-0.362796
-0.838713,0.212534,-1.180742,-0.12703,1.533126,-1.001983,-0.361396
-0.834936,0.212065,-1.176587,-0.125215,1.528303,-0.999086,-0.35919
-0.832149,0.211688,-1.171961,-0.124028,1.523675,-0.996267,-0.357868
-0.827473,0.211025,-1.167203,-0.12215,1.518942,-0.99174,-0.355644
-0.825684,0.210629,-1.162381,-0.121386,1.513959,-0.989642,-0.354615
-0.821381,0.209592,-1.157812,-0.118632,1.508101,-0.986424,-0.352003
-0.819801,0.209437,-1.152767,-0.117658,1.502335,-0.984806,-0.351014
-0.815697,0.207468,-1.147567,-0.11359,1.495318,-0.983132,-0.348692
-0.814116,0.207118,-1.141707,-0.112659,1.488729,-0.98167,-0.347587
-0.809684,0.205485,-1.135252,-0.109821,1.481752,-0.979991,-0.345869
-0.807163,0.204844,-1.128641,-0.108675,1.474714,-0.978377,-0.344584
-0.803535,0.203619,-1.121557,-0.106585,1.46741,-0.976893,-0.343439
-0.80099,0.20282,-1.114423,-0.104931,1.459743,-0.975294,-0.34239
-0.796674,0.202404,-1.107148,-0.102637,1.451527,-0.972719,-0.340823
-0.795059,0.201219,-1.099269,-0.100923,1.443296,-0.971553,-0.340208
-0.790806,0.200255,-1.091195,-0.098315,1.434412,-0.968915,-0.338701
-0.789545,0.199777,-1.083007,-0.097421,1.425597,-0.96686,-0.337747
-0.78523,0.198839,-1.074724,-0.095128,1.416164,-0.964107,-0.335712
-0.784201,0.197345,-1.065728,-0.093103,1.406661,-0.962421,-0.334815
-0.780567,0.196411,-1.056726,-0.090745,1.396485,-0.959139,-0.331999
-0.779328,0.194054,-1.046952,-0.087603,1.385731,-0.956934,-0.329981
-0.776696,0.19318,-1.03686,-0.085605,1.374523,-0.953991,-0.327597
-0.775468,0.191051,-1.025941,-0.082424,1.362684,-0.951771,-0.326249
-0.772432,0.189396,-1.014195,-0.078729,1.349801,-0.94865,-0.324697
-0.771704,0.188749,-1.002145,-0.077602,1.336936,-0.946222,-0.323564
-0.76914,0.186553,-0.989286,-0.073594,1.322947,-0.94263,-0.321118
-0.768577,0.185748,-0.975897,-0.072421,1.308973,-0.939933,-0.319766
-0.766492,0.183626,-0.962028,-0.068782,1.293819,-0.93549,-0.316329
-0.766095,0.182769,-0.947395,-0.067501,1.278607,-0.932659,-0.314935
-0.763381,0.181264,-0.932251,-0.064481,1.262337,-0.928468,-0.31141
-0.763642,0.178385,-0.915415,-0.05994,1.244886,-0.925285,-0.309761
-0.762176,0.177233,-0.897877,-0.057337,1.226309,-0.92122,-0.307315
-0.761708,0.176068,-0.879865,-0.055218,1.20693,-0.917588,-0.305356
-0.761238,0.173673,-0.860556,-0.050388,1.185622,-0.912659,-0.303133
-0.761976,0.172596,-0.840102,-0.04869,1.163963,-0.909281,-0.301873
-0.762687,0.169845,-0.818886,-0.044189,1.140053,-0.903785,-0.298459
-0.764812,0.16787,-0.795979,-0.041698,1.115477,-0.899978,-0.296503
-0.76686,0.164621,-0.771651,-0.036794,1.088402,-0.894138,-0.292892
-0.769234,0.163086,-0.745484,-0.034642,1.060441,-0.890152,-0.290956
-0.773806,0.159279,-0.716359,-0.026869,1.028474,-0.884495,-0.288508
-0.778718,0.156652,-0.683687,-0.021266,0.993512,-0.879729,-0.286857
-0.784497,0.153738,-0.646908,-0.0142,0.954095,-0.874307,-0.285247
-0.789859,0.152078,-0.606153,-0.009496,0.910969,-0.868946,-0.283923
-0.799207,0.148265,-0.557977,0.00169,0.86007,-0.862938,-0.283729
-0.809233,0.1465,-0.501649,0.009421,0.801552,-0.857248,-0.283543
-0.826786,0.142675,-0.430756,0.027463,0.72711,-0.850416,-0.2836
-0.855821,0.139654,-0.333706,0.053973,0.6267,-0.844693,-0.285464
-0.95561,0.13079,-0.179486,0.168994,0.464849,-0.853451,-0.295644
-1.092144,0.099618,-0.189539,0.3491,0.476221,-0.900757,-0.316253
-1.119763,0.083106,-0.21608,0.3491,0.508745,-0.913785,-0.323036
-1.119873,0.081588,-0.219498,0.3491,0.512664,-0.913798,-0.322913
-1.115612,0.080184,-0.225441,0.3491,0.518954,-0.912451,-0.322112
-1.11154,0.080985,-0.226807,0.3491,0.519315,-0.910373,-0.320784
-1.106007,0.079113,-0.235673,0.3491,0.527275,-0.908308,-0.319385
-1.102261,0.080268,-0.236094,0.3491,0.526983,-0.90673,-0.318449
-1.09709,0.078861,-0.243312,0.3491,0.533378,-0.904833,-0.316936
-1.09394,0.079716,-0.24394,0.3491,0.533692,-0.903731,-0.316493
-1.08888,0.078734,-0.24982,0.3491,0.538948,-0.902025,-0.315035
-1.085498,0.07793,-0.2544,0.3491,0.54387,-0.901293,-0.315006
-1.080234,0.07757,-0.258756,0.3491,0.547723,-0.899508,-0.313474
-1.075616,0.077553,-0.262249,0.3491,0.551142,-0.898072,-0.312746
-1.071457,0.077358,-0.265515,0.3491,0.553948,-0.89662,-0.311727
-1.067003,0.077552,-0.268315,0.3491,0.556262,-0.895119,-0.310967
-1.062097,0.077718,-0.271152,0.3491,0.557889,-0.89321,-0.309817
-1.058585,0.077979,-0.273187,0.3491,0.559674,-0.892098,-0.309441
-1.054031,0.078339,-0.275273,0.3491,0.560948,-0.890228,-0.308551
-1.051117,0.07862,-0.276793,0.3491,0.562401,-0.889224,-0.308329
-1.046688,0.079171,-0.278336,0.3491,0.563463,-0.88734,-0.307629
-1.04396,0.079457,-0.279594,0.3491,0.564571,-0.88638,-0.307233
-1.037788,0.078806,-0.285212,0.3491,0.570498,-0.884986,-0.30667
-1.033732,0.079665,-0.286061,0.3491,0.570759,-0.883311,-0.305552
-1.028646,0.078713,-0.291788,0.3491,0.576747,-0.882064,-0.304954
-1.025094,0.079505,-0.292532,0.3491,0.576282,-0.879764,-0.303297
-1.020133,0.078714,-0.297974,0.3491,0.580682,-0.876919,-0.301451
-1.017394,0.079545,-0.298195,0.3491,0.580076,-0.875199,-0.300357
-1.012009,0.078447,-0.304024,0.3491,0.586357,-0.873646,-0.299587
-1.009711,0.079288,-0.303696,0.3491,0.585749,-0.872433,-0.298984
-1.003625,0.077717,-0.310787,0.3491,0.594569,-0.871865,-0.299093
-1.001474,0.078549,-0.310173,0.3491,0.593631,-0.870696,-0.298367
-0.995255,0.077739,-0.315977,0.3491,0.600268,-0.86938,-0.297918
-0.990663,0.078112,-0.318479,0.3491,0.602672,-0.867802,-0.29711
-0.986178,0.077926,-0.322093,0.3491,0.60618,-0.866277,-0.296352
-0.982061,0.078646,-0.323921,0.3491,0.607261,-0.86448,-0.295398
-0.977544,0.07905,-0.327261,0.3491,0.608921,-0.861952,-0.294098
-0.97325,0.078317,-0.332867,0.3491,0.614848,-0.861089,-0.293813
-0.968901,0.079061,-0.333855,0.3491,0.614699,-0.85888,-0.29191
-0.964381,0.078432,-0.338974,0.3491,0.620297,-0.858136,-0.291319
-0.959319,0.079106,-0.340058,0.3491,0.620839,-0.856247,-0.289317
-0.955585,0.07895,-0.343719,0.3491,0.624693,-0.85547,-0.289027
-0.949536,0.078851,-0.348242,0.3491,0.628793,-0.854238,-0.289054
-0.947346,0.079507,-0.348617,0.348706,0.628431,-0.853158,-0.289167
-0.943566,0.079793,-0.350576,0.348092,0.629675,-0.852303,-0.289141
-0.939673,0.08003,-0.353961,0.346303,0.63249,-0.851129,-0.288562
-0.933861,0.078826,-0.362476,0.345459,0.640462,-0.850028,-0.287589
-0.931216,0.079687,-0.363196,0.343713,0.640554,-0.848937,-0.287029
-0.925517,0.078667,-0.370868,0.343047,0.647557,-0.848092,-0.286413
-0.922688,0.079504,-0.371674,0.341077,0.647737,-0.846958,-0.285965
-0.916669,0.079153,-0.377894,0.339955,0.65338,-0.846169,-0.285862
-0.91407,0.079912,-0.378674,0.338289,0.6536,-0.845089,-0.285455
-0.908634,0.079389,-0.385611,0.337519,0.65996,-0.843825,-0.285345
-0.905494,0.080285,-0.386591,0.336027,0.660194,-0.842381,-0.284859
-0.90105,0.079487,-0.393403,0.335481,0.667082,-0.841306,-0.284725
-0.897674,0.080493,-0.394217,0.333672,0.667776,-0.839779,-0.284008
-0.892451,0.079709,-0.399717,0.333361,0.674725,-0.83897,-0.283309
-0.889562,0.080613,-0.400518,0.331296,0.67554,-0.837761,-0.28266
-0.884579,0.079786,-0.408894,0.331082,0.683996,-0.83617,-0.282225
-0.880973,0.080156,-0.413294,0.328662,0.687947,-0.834789,-0.281838
-0.875815,0.079892,-0.423033,0.327688,0.696502,-0.832265,-0.281293
-0.872156,0.080137,-0.427915,0.325294,0.700988,-0.830848,-0.280575
-0.866934,0.079394,-0.438052,0.324463,0.710503,-0.82827,-0.278382
-0.86215,0.079288,-0.445398,0.321925,0.717553,-0.826289,-0.276548
-0.857554,0.078729,-0.453737,0.320907,0.725684,-0.824338,-0.274868
-0.852864,0.078768,-0.460525,0.318617,0.732428,-0.822839,-0.274077
-0.847484,0.078225,-0.469726,0.318018,0.741812,-0.821279,-0.273794
-0.843592,0.079492,-0.472042,0.314877,0.743757,-0.819947,-0.27309
-0.838298,0.077981,-0.482872,0.315354,0.755433,-0.818602,-0.272774
-0.834342,0.079184,-0.485188,0.312332,0.757651,-0.817196,-0.271996
-0.828867,0.077836,-0.495141,0.312694,0.768428,-0.815662,-0.271185
-0.824968,0.078987,-0.49756,0.30984,0.770724,-0.814247,-0.270413
-0.819504,0.07792,-0.50804,0.310156,0.781281,-0.811923,-0.269591
-0.814133,0.078339,-0.515091,0.30747,0.788134,-0.809836,-0.268712
-0.808975,0.078363,-0.522638,0.306347,0.795297,-0.807553,-0.267756
-0.803948,0.078637,-0.529508,0.304167,0.801834,-0.80571,-0.266818
-0.798223,0.078332,-0.538372,0.303806,0.809975,-0.80325,-0.265541
-0.79379,0.079539,-0.542144,0.300465,0.813145,-0.801704,-0.264481
-0.788591,0.07835,-0.552829,0.301213,0.8231,-0.799681,-0.26356
-0.783603,0.079731,-0.557424,0.297194,0.827037,-0.798147,-0.262556
-0.777906,0.079644,-0.566068,0.296262,0.834318,-0.795793,-0.261002
-0.773439,0.07917,-0.575055,0.294456,0.843472,-0.794921,-0.260761
-0.734146,0.156011,-0.376755,0.187549,0.618381,-0.760312,-0.225585
-0.782859,0.149832,-0.326111,0.246612,0.562131,-0.767974,-0.229554
-0.803712,0.147334,-0.310558,0.275861,0.543775,-0.771904,-0.230489
-0.805805,0.148445,-0.304285,0.280631,0.536041,-0.771318,-0.229244
-0.802685,0.151998,-0.295032,0.280083,0.52445,-0.76849,-0.226059
-0.800233,0.153571,-0.29215,0.278395,0.520668,-0.76707,-0.224753
-0.796489,0.157005,-0.28484,0.276999,0.510518,-0.764197,-0.222375
-0.792865,0.15803,-0.285872,0.27432,0.510755,-0.762859,-0.221824
-0.789605,0.16186,-0.277015,0.272878,0.498286,-0.759837,-0.219715
-0.786201,0.162811,-0.277856,0.270548,0.498531,-0.758506,-0.219071
-0.783558,0.167773,-0.264223,0.26881,0.481459,-0.75449,-0.215624
-0.780221,0.170747,-0.257642,0.265873,0.473379,-0.751652,-0.213454
-0.777707,0.174313,-0.247951,0.264434,0.461734,-0.748346,-0.210821
-0.774648,0.177195,-0.240421,0.261823,0.45312,-0.745419,-0.208782
-0.772078,0.18153,-0.226509,0.260691,0.437502,-0.741101,-0.205677
-0.768418,0.182375,-0.226561,0.258108,0.437767,-0.739479,-0.204893
-0.766356,0.187333,-0.209859,0.257182,0.418662,-0.735297,-0.201946
-0.762698,0.188209,-0.209907,0.254565,0.418653,-0.733733,-0.201363
-0.759617,0.192564,-0.196188,0.253288,0.402819,-0.730239,-0.199089
-0.75658,0.193312,-0.196144,0.251416,0.402719,-0.72887,-0.198596
-0.753529,0.197537,-0.181919,0.250115,0.387034,-0.725331,-0.196799
-0.750896,0.199625,-0.175792,0.248725,0.380465,-0.723202,-0.195938
-0.748514,0.202679,-0.165554,0.247774,0.369512,-0.720076,-0.194482
-0.746206,0.20559,-0.155723,0.245824,0.359243,-0.716829,-0.192857
-0.744873,0.210637,-0.136621,0.24516,0.33918,-0.711298,-0.189853
-0.742476,0.212926,-0.129179,0.242517,0.331636,-0.708547,-0.18849
-0.741013,0.217442,-0.112342,0.242004,0.313789,-0.703716,-0.185683
-0.737443,0.21834,-0.111122,0.239106,0.312987,-0.701961,-0.184771
-0.736787,0.223361,-0.091936,0.238899,0.292267,-0.697182,-0.181829
-0.733488,0.224081,-0.090512,0.236225,0.291361,-0.695565,-0.181188
-0.732864,0.228112,-0.073289,0.236392,0.273138,-0.691487,-0.179069
-0.730186,0.22991,-0.06644,0.234218,0.266419,-0.689045,-0.17811
-0.728293,0.231895,-0.057967,0.233577,0.257865,-0.686449,-0.177105
-0.724863,0.232427,-0.056154,0.23135,0.256712,-0.684595,-0.176657
-0.723933,0.235354,-0.042604,0.231971,0.242485,-0.681569,-0.1757
-0.720737,0.23593,-0.040621,0.229194,0.24101,-0.679987,-0.17535
-0.719477,0.238462,-0.029329,0.229659,0.22903,-0.677143,-0.174138
-0.71641,0.239084,-0.02733,0.226999,0.227441,-0.675625,-0.173704
-0.715299,0.241724,-0.015752,0.227491,0.214895,-0.672686,-0.172084
-0.712196,0.242408,-0.013603,0.22485,0.213147,-0.671136,-0.171673
-0.710909,0.245176,-0.001872,0.22544,0.200791,-0.668357,-0.170654
-0.706907,0.246023,0.00099,0.222409,0.198471,-0.666267,-0.170169
-0.706254,0.24887,0.01282,0.223123,0.185876,-0.663754,-0.169499
-0.702209,0.249659,0.01582,0.220066,0.183206,-0.661574,-0.169081
-0.702461,0.25337,0.030667,0.221888,0.166531,-0.657825,-0.168097
-0.698437,0.254259,0.034262,0.218121,0.163298,-0.655775,-0.167709
-0.698495,0.257375,0.048108,0.21978,0.148002,-0.651941,-0.166083
-0.695638,0.258727,0.054929,0.216819,0.141322,-0.649511,-0.165241
-0.694365,0.261314,0.067105,0.217389,0.128265,-0.645686,-0.163205
-0.690513,0.262016,0.071327,0.213674,0.124458,-0.643418,-0.162354
-0.691427,0.266198,0.087574,0.216488,0.106186,-0.639265,-0.160069
-0.688466,0.268803,0.098581,0.213816,0.094697,-0.635695,-0.158619
-0.6863,0.271712,0.110098,0.213074,0.08219,-0.632149,-0.157086
-0.681203,0.272975,0.116096,0.208837,0.076558,-0.62932,-0.156555
-0.680153,0.276528,0.129309,0.210779,0.06173,-0.626285,-0.155699
-0.675506,0.277626,0.135802,0.206176,0.05572,-0.623814,-0.15544
-0.672014,0.279795,0.144004,0.205814,0.045708,-0.621531,-0.1539
-0.66783,0.280696,0.149628,0.201854,0.039869,-0.619544,-0.153185
-0.662609,0.281702,0.153899,0.199455,0.033828,-0.617336,-0.151224
-0.659038,0.282317,0.15856,0.196592,0.029076,-0.61587,-0.150426
-0.65648,0.284543,0.167706,0.197662,0.018955,-0.613931,-0.14909
-0.652031,0.285638,0.174066,0.194292,0.013125,-0.611403,-0.148629
-0.649617,0.287866,0.183591,0.194925,0.002882,-0.609659,-0.147508
-0.644819,0.289301,0.190352,0.191359,-0.003841,-0.607104,-0.146873
-0.640593,0.291952,0.199493,0.191736,-0.014555,-0.605637,-0.14505
-0.636195,0.293298,0.206831,0.18774,-0.021706,-0.603265,-0.144672
-0.631058,0.2953,0.214189,0.186722,-0.030357,-0.600818,-0.143271
-0.629647,0.297942,0.225019,0.186409,-0.042039,-0.598869,-0.142967
-0.626517,0.301449,0.236833,0.187134,-0.05572,-0.595474,-0.141989
-0.621907,0.302768,0.245808,0.182958,-0.06419,-0.592721,-0.141783
-0.621195,0.30691,0.260501,0.186596,-0.080548,-0.589144,-0.140094
-0.61566,0.30842,0.271386,0.182452,-0.090421,-0.585521,-0.139509
-0.615936,0.312731,0.287392,0.186183,-0.107554,-0.582212,-0.138053
-0.610374,0.314403,0.299423,0.181973,-0.118096,-0.578586,-0.137659
-0.610481,0.319685,0.317378,0.187089,-0.136311,-0.575247,-0.136402
-0.605377,0.32122,0.330559,0.182331,-0.147924,-0.571983,-0.136381
-0.603625,0.326044,0.346807,0.185523,-0.165206,-0.568358,-0.135072
-0.598495,0.32773,0.360161,0.180926,-0.17768,-0.565099,-0.135059
-0.595869,0.332293,0.375861,0.183216,-0.195203,-0.561311,-0.133632
-0.590855,0.334042,0.389483,0.178847,-0.208125,-0.558167,-0.133729
-0.586082,0.338196,0.40399,0.179527,-0.223871,-0.555397,-0.133104
-0.580479,0.340344,0.417423,0.175905,-0.23713,-0.552227,-0.133175
-0.574027,0.342879,0.429843,0.173543,-0.249541,-0.549647,-0.133228
-0.571894,0.346833,0.444574,0.174855,-0.265249,-0.5472,-0.132994
-0.567753,0.351315,0.459496,0.176324,-0.281458,-0.543386,-0.132532
-0.563082,0.353094,0.473722,0.172802,-0.295023,-0.540302,-0.132791
-0.561317,0.35873,0.489544,0.176826,-0.313325,-0.536016,-0.131448
-0.558117,0.361477,0.505489,0.175025,-0.329387,-0.53266,-0.131283
-0.555999,0.366923,0.522409,0.178081,-0.348696,-0.527498,-0.129471
-0.551426,0.368746,0.538657,0.174519,-0.364017,-0.524105,-0.129581
-0.550636,0.374753,0.556889,0.178882,-0.383301,-0.519566,-0.128094
-0.547611,0.378179,0.575081,0.178219,-0.400651,-0.515937,-0.127855
-0.544584,0.382,0.592977,0.178593,-0.41796,-0.51211,-0.127353
-0.539811,0.383925,0.609927,0.175733,-0.433423,-0.5089,-0.127675
-0.536995,0.387833,0.626963,0.177227,-0.450565,-0.505501,-0.127024
-0.532956,0.389481,0.64327,0.174371,-0.465756,-0.502955,-0.127707
-0.5296,0.39323,0.659098,0.175304,-0.482227,-0.49948,-0.127632
-0.5257,0.394877,0.674529,0.172781,-0.497031,-0.497055,-0.128397
-0.522593,0.399041,0.689478,0.174109,-0.513478,-0.49345,-0.128758
-0.518866,0.400644,0.704487,0.171878,-0.527724,-0.491163,-0.129462
-0.514368,0.403423,0.719411,0.171465,-0.541342,-0.488061,-0.129643
-0.511798,0.406301,0.734381,0.171625,-0.555182,-0.485525,-0.129909
-0.509517,0.410262,0.749275,0.17382,-0.570012,-0.483049,-0.129422
-0.506653,0.413013,0.763922,0.173797,-0.584677,-0.480202,-0.129379
-0.503879,0.417001,0.778072,0.175727,-0.600581,-0.475915,-0.128371
-0.500352,0.418576,0.79269,0.173918,-0.614809,-0.473436,-0.128726
-0.49792,0.423133,0.806753,0.176278,-0.630788,-0.468974,-0.128069
-0.495851,0.426015,0.8217,0.176674,-0.64603,-0.466585,-0.128039
-0.492941,0.430323,0.836055,0.178739,-0.662286,-0.462271,-0.127307
-0.489139,0.432035,0.850875,0.177175,-0.676568,-0.46018,-0.127926
-0.485281,0.435481,0.864794,0.178712,-0.692363,-0.456628,-0.126752
-0.480859,0.437251,0.879119,0.177509,-0.70675,-0.45426,-0.126949
-0.476409,0.43959,0.892767,0.177793,-0.721448,-0.451716,-0.126802
-0.472144,0.441163,0.906391,0.176872,-0.735483,-0.449444,-0.127741
-0.466642,0.443282,0.91885,0.176529,-0.7496,-0.446332,-0.129915
-0.463081,0.444777,0.932114,0.175577,-0.762705,-0.44461,-0.131141
-0.458848,0.44815,0.944758,0.177512,-0.776506,-0.441187,-0.131639
-0.455288,0.449593,0.958039,0.176707,-0.789025,-0.43932,-0.132227
-0.452154,0.453423,0.970815,0.179768,-0.802827,-0.434884,-0.131026
-0.448881,0.454768,0.98382,0.178961,-0.815481,-0.432481,-0.131117
-0.447896,0.460637,0.995792,0.184205,-0.831224,-0.426329,-0.128745
-0.446195,0.46441,1.008844,0.18635,-0.846262,-0.42188,-0.12752
-0.444767,0.469469,1.021561,0.190027,-0.862152,-0.416034,-0.125628
-0.442943,0.473889,1.035032,0.192637,-0.877632,-0.411277,-0.124634
-0.441766,0.481016,1.047757,0.198344,-0.894832,-0.403438,-0.122335
-0.43932,0.484511,1.062014,0.19961,-0.909871,-0.399976,-0.122193
-0.436668,0.490947,1.074972,0.204285,-0.926458,-0.393195,-0.120621
-0.433459,0.494022,1.089198,0.205071,-0.940997,-0.390378,-0.120829
-0.42967,0.499959,1.102013,0.209018,-0.956846,-0.384493,-0.119813
-0.426381,0.503135,1.115745,0.209931,-0.970988,-0.381749,-0.119972
-0.422886,0.509886,1.127658,0.214414,-0.986892,-0.375461,-0.118904
-0.419496,0.51442,1.140411,0.216612,-1.001466,-0.371469,-0.118604
-0.415759,0.519863,1.152558,0.219954,-1.015902,-0.366548,-0.117222
-0.411849,0.523767,1.165268,0.222059,-1.028978,-0.363054,-0.115573
-0.40668,0.528632,1.177443,0.225531,-1.041474,-0.357878,-0.111392
-0.403285,0.531853,1.189545,0.227203,-1.05331,-0.355477,-0.110171
-0.39896,0.53788,1.19978,0.231526,-1.066083,-0.349674,-0.107748
-0.395699,0.540982,1.21051,0.232772,-1.077548,-0.347035,-0.107818
-0.391881,0.54755,1.219307,0.237349,-1.090242,-0.340701,-0.106746
-0.388826,0.550624,1.229433,0.238843,-1.100639,-0.337934,-0.106369
-0.385247,0.557074,1.238622,0.244113,-1.111023,-0.331183,-0.10299
-0.382165,0.561146,1.248102,0.247053,-1.120119,-0.326893,-0.100851
-0.379083,0.566352,1.256895,0.251319,-1.128725,-0.321209,-0.097779
-0.376394,0.57037,1.265324,0.254372,-1.136643,-0.316811,-0.095771
-0.373661,0.576569,1.273107,0.259862,-1.144051,-0.30948,-0.092015
-0.371304,0.579308,1.280566,0.261672,-1.150762,-0.306515,-0.090867
-0.368256,0.585243,1.286896,0.266761,-1.157321,-0.299668,-0.087235
-0.365885,0.587826,1.293109,0.268434,-1.163199,-0.296903,-0.086088
-0.362516,0.593433,1.29817,0.273061,-1.168981,-0.290637,-0.082618
-0.359548,0.594487,1.30346,0.273065,-1.173726,-0.288498,-0.081725
-0.355914,0.600286,1.307381,0.277952,-1.178726,-0.283885,-0.078387
-0.352682,0.602902,1.311486,0.279611,-1.182966,-0.28155,-0.076767
-0.349193,0.606497,1.315113,0.282213,-1.186689,-0.278245,-0.074798
-0.346728,0.60951,1.318749,0.284383,-1.189838,-0.275323,-0.073794
-0.343823,0.61457,1.322012,0.288401,-1.192191,-0.270198,-0.07245
-0.342051,0.616589,1.325124,0.289778,-1.194575,-0.268175,-0.072045
-0.338643,0.620814,1.327844,0.293285,-1.195906,-0.263675,-0.070197
-0.336347,0.621507,1.330539,0.293391,-1.197225,-0.261975,-0.069628
-0.332872,0.625857,1.332442,0.297387,-1.198154,-0.258113,-0.067244
-0.330778,0.626545,1.333981,0.297298,-1.199878,-0.256782,-0.066754
-0.32741,0.63053,1.333314,0.300031,-1.203614,-0.254388,-0.0649
-0.324718,0.631562,1.333303,0.299498,-1.207162,-0.253194,-0.064398
-0.322182,0.634884,1.331893,0.301603,-1.212676,-0.25167,-0.062327
-0.319588,0.635654,1.331073,0.300909,-1.218128,-0.250551,-0.060671
-0.317354,0.639357,1.327283,0.302588,-1.228262,-0.24804,-0.05679
-0.315675,0.640587,1.327781,0.30278,-1.233685,-0.246946,-0.055395
-0.312538,0.643964,1.325892,0.304274,-1.241935,-0.243732,-0.052185
-0.310075,0.644708,1.327409,0.303947,-1.246163,-0.242503,-0.051302
-0.307232,0.649347,1.326685,0.307135,-1.252862,-0.238208,-0.048402
-0.304841,0.650115,1.328386,0.306886,-1.256637,-0.236803,-0.047706
-0.302386,0.65484,1.327986,0.309929,-1.26263,-0.232075,-0.045839
-0.300381,0.657922,1.329113,0.312006,-1.266773,-0.229528,-0.04495
-0.297691,0.661243,1.32981,0.314074,-1.2709,-0.226168,-0.043475
-0.29494,0.662499,1.331197,0.314271,-1.273921,-0.223751,-0.042074
-0.291306,0.666705,1.331757,0.317713,-1.2771,-0.220191,-0.038619
-0.289008,0.667469,1.333484,0.317573,-1.278953,-0.218784,-0.03794
-0.284788,0.671562,1.334317,0.320825,-1.280366,-0.216045,-0.036049
-0.282699,0.672261,1.335866,0.320835,-1.281417,-0.214676,-0.035875
-0.277675,0.676716,1.336845,0.324011,-1.280989,-0.213098,-0.035784
-0.275368,0.677952,1.33799,0.324666,-1.281339,-0.212509,-0.035685
-0.270184,0.680691,1.338734,0.326351,-1.280474,-0.21163,-0.034972
-0.266781,0.682056,1.339565,0.32708,-1.279984,-0.211426,-0.034544
-0.26224,0.683749,1.340421,0.328089,-1.27854,-0.211399,-0.033941
-0.258495,0.684749,1.341421,0.328692,-1.27684,-0.211703,-0.033452
-0.252127,0.686128,1.342852,0.329644,-1.272821,-0.212662,-0.032571
-0.249913,0.68676,1.343338,0.329896,-1.27145,-0.212648,-0.032561
-0.245001,0.688913,1.343418,0.33142,-1.269171,-0.212451,-0.03253
-0.243632,0.689469,1.343307,0.331472,-1.268819,-0.211563,-0.032971
-0.24003,0.692878,1.342455,0.333817,-1.268351,-0.210284,-0.033761
-0.238767,0.69327,1.342285,0.333789,-1.268592,-0.2093,-0.033638
-0.235812,0.696623,1.340944,0.336019,-1.269777,-0.207449,-0.03251
-0.234155,0.698185,1.340364,0.336888,-1.271088,-0.206015,-0.03142
-0.23197,0.700613,1.339863,0.338368,-1.272156,-0.203999,-0.03036
-0.230098,0.702734,1.340165,0.339686,-1.272163,-0.202495,-0.030235
-0.227128,0.706667,1.340649,0.342273,-1.270866,-0.199863,-0.030564
-0.22578,0.707393,1.341115,0.342244,-1.270518,-0.198579,-0.030777
-0.224162,0.712071,1.340687,0.345867,-1.270751,-0.194871,-0.029969
-0.223625,0.713547,1.340624,0.346822,-1.271455,-0.193024,-0.029503
-0.222507,0.716443,1.339973,0.348468,-1.272756,-0.188283,-0.028033
0.353912,0.565103,-0.488988,-0.484519,0.798124,-0.246641,0.063702
0.308468,0.580483,-0.659075,-0.440861,0.932028,-0.275065,0.064171
0.276655,0.589719,-0.774681,-0.412248,1.033446,-0.295394,0.062945
0.256126,0.597565,-0.864837,-0.39489,1.115007,-0.309571,0.061749
0.239605,0.603504,-0.939448,-0.382443,1.182038,-0.320272,0.060138
0.22772,0.609922,-1.003254,-0.374239,1.240186,-0.327077,0.05922
0.215988,0.613718,-1.0586,-0.366987,1.290161,-0.334293,0.057336
0.208507,0.618797,-1.107133,-0.362835,1.336808,-0.33886,0.05608
0.200028,0.621715,-1.150906,-0.35848,1.377791,-0.344277,0.054097
0.194903,0.62595,-1.190026,-0.35641,1.417315,-0.347681,0.052575
0.187883,0.62834,-1.226613,-0.353439,1.451418,-0.351779,0.050756
0.18281,0.632064,-1.260543,-0.351783,1.48314,-0.353854,0.049684
0.17704,0.634535,-1.291914,-0.349797,1.511586,-0.356475,0.048343
0.172448,0.637164,-1.320585,-0.348533,1.538572,-0.358659,0.047134
0.168089,0.639069,-1.346763,-0.347457,1.564269,-0.361318,0.045658
0.165543,0.641332,-1.370184,-0.347384,1.590164,-0.363876,0.044199
0.160932,0.642,-1.393136,-0.345729,1.612517,-0.366152,0.042532
0.15957,0.644526,-1.414234,-0.346381,1.635175,-0.368837,0.041263
0.155686,0.64513,-1.434787,-0.345012,1.654715,-0.370744,0.039781
0.154834,0.647246,-1.453851,-0.345473,1.674332,-0.373258,0.038508
0.151157,0.647686,-1.472235,-0.344461,1.69139,-0.374606,0.037276
0.150366,0.649634,-1.489207,-0.344826,1.708538,-0.376559,0.034956
0.14757,0.65021,-1.505492,-0.343975,1.723728,-0.377463,0.03305
0.146033,0.651777,-1.520885,-0.34436,1.738358,-0.378755,0.031291
0.143444,0.65228,-1.535516,-0.343685,1.751615,-0.379294,0.029986
0.141513,0.654155,-1.549598,-0.3442,1.76415,-0.379047,0.028824
0.138957,0.654475,-1.562614,-0.343682,1.775827,-0.379687,0.02794
0.13746,0.655901,-1.5748,-0.344191,1.787437,-0.379255,0.027221
0.135213,0.656112,-1.586182,-0.343811,1.798105,-0.3797,0.026593
0.134348,0.656586,-1.596647,-0.343635,1.808897,-0.379251,0.026109
0.132672,0.657037,-1.60676,-0.343627,1.818463,-0.379801,0.025368
0.132275,0.658551,-1.616402,-0.34475,1.828005,-0.379714,0.024573
0.131261,0.659146,-1.625559,-0.344852,1.836741,-0.379991,0.02355
0.130472,0.659503,-1.634199,-0.344646,1.845049,-0.379738,0.022552
0.13028,0.66047,-1.642375,-0.345192,1.852987,-0.380695,0.021594
0.130726,0.661073,-1.650069,-0.344967,1.860654,-0.380969,0.02036
0.130132,0.66172,-1.657374,-0.345525,1.867612,-0.381877,0.019835
0.131618,0.662187,-1.663631,-0.345962,1.8755,-0.383022,0.01894
0.131461,0.662269,-1.669758,-0.346082,1.882349,-0.384013,0.018284
0.133551,0.662438,-1.674887,-0.346619,1.890275,-0.385506,0.017468
0.133229,0.662645,-1.680605,-0.346744,1.896244,-0.386051,0.016831
0.133886,0.663255,-1.686202,-0.346712,1.901971,-0.385466,0.015632
0.133592,0.663632,-1.691729,-0.346676,1.90682,-0.385072,0.014931
0.133598,0.665041,-1.697113,-0.347725,1.911443,-0.384459,0.014463
0.13323,0.665198,-1.702022,-0.347667,1.915868,-0.383972,0.014391
0.132567,0.666127,-1.70697,-0.348231,1.919854,-0.381904,0.015018
0.131994,0.66625,-1.711285,-0.348176,1.923797,-0.381621,0.014981
0.131397,0.666273,-1.715407,-0.3484,1.927691,-0.379785,0.015983
0.130598,0.666439,-1.719072,-0.348457,1.931393,-0.379084,0.015941
0.129659,0.666843,-1.722594,-0.349117,1.935037,-0.377186,0.01677
0.129054,0.666908,-1.726023,-0.349093,1.938194,-0.377133,0.016624
0.128749,0.667276,-1.729544,-0.348953,1.940846,-0.376975,0.015877
0.128278,0.667653,-1.732836,-0.348789,1.94322,-0.377284,0.014947
0.127952,0.668065,-1.735942,-0.348633,1.945443,-0.377714,0.013991
0.127666,0.668335,-1.73867,-0.34863,1.94779,-0.378173,0.013413
0.127346,0.668589,-1.741239,-0.348667,1.949994,-0.378688,0.012946
0.126827,0.668672,-1.743629,-0.348691,1.952084,-0.378945,0.012759
0.126519,0.669589,-1.746051,-0.349431,1.953931,-0.379608,0.012489
0.125976,0.669652,-1.748227,-0.349362,1.955749,-0.379772,0.012333
0.12544,0.669801,-1.750442,-0.349186,1.957229,-0.380045,0.012148
0.12489,0.669869,-1.752393,-0.3491,1.958754,-0.380292,0.011954
0.124428,0.670114,-1.754282,-0.348944,1.960069,-0.38089,0.011363
0.124225,0.670359,-1.755959,-0.348888,1.961476,-0.381642,0.010753
0.123791,0.670454,-1.757589,-0.348831,1.962708,-0.382224,0.010553
0.12324,0.670512,-1.759075,-0.348741,1.9639,-0.382554,0.010402
0.122746,0.670687,-1.76037,-0.348567,1.965182,-0.38283,0.010486
0.122332,0.670655,-1.761645,-0.348625,1.96635,-0.383084,0.010561
0.121836,0.670666,-1.762767,-0.348658,1.967515,-0.383521,0.010754
0.121466,0.670699,-1.763858,-0.348647,1.968612,-0.383701,0.010715
0.121132,0.670667,-1.764814,-0.348742,1.969733,-0.384211,0.010815
0.12076,0.670655,-1.765833,-0.348745,1.970644,-0.384407,0.010679
0.120368,0.670647,-1.766945,-0.348731,1.971277,-0.384711,0.010372
0.120082,0.670773,-1.767903,-0.348722,1.971978,-0.384983,0.009816
0.119739,0.670801,-1.768881,-0.348705,1.972536,-0.385245,0.009469
0.119428,0.670807,-1.769681,-0.348684,1.973234,-0.385397,0.009361
0.11903,0.67083,-1.770452,-0.348625,1.973826,-0.385655,0.009229
0.118781,0.670864,-1.771158,-0.348583,1.974467,-0.385761,0.00918
0.118392,0.670882,-1.771865,-0.348523,1.974952,-0.386031,0.009044
0.118151,0.670913,-1.772509,-0.34848,1.975487,-0.386152,0.008981
0.117795,0.670922,-1.773167,-0.348429,1.975865,-0.386421,0.008814
0.117574,0.670942,-1.77373,-0.3484,1.976339,-0.386536,0.008741
0.117198,0.670991,-1.774289,-0.348327,1.976667,-0.386882,0.008528
0.117006,0.671028,-1.774713,-0.348356,1.977155,-0.387126,0.008295
0.11702,0.671142,-1.775083,-0.348422,1.977692,-0.387644,0.008023
0.116801,0.671144,-1.775486,-0.348408,1.978118,-0.387784,0.007982
0.116616,0.671116,-1.775793,-0.348429,1.978626,-0.388047,0.008117
0.116471,0.671127,-1.77617,-0.348415,1.979016,-0.388109,0.008099
0.116522,0.671032,-1.776497,-0.348554,1.979435,-0.388688,0.008091
0.116348,0.671007,-1.776871,-0.348561,1.979709,-0.388809,0.007992
0.116597,0.671291,-1.777155,-0.348527,1.98008,-0.389378,0.007205
0.11648,0.671268,-1.777501,-0.348537,1.98033,-0.389489,0.007156
0.11656,0.671247,-1.777727,-0.3486,1.980745,-0.38987,0.007369
0.116465,0.671298,-1.777985,-0.348553,1.981045,-0.389907,0.007394
0.116405,0.671351,-1.778172,-0.348518,1.981419,-0.389928,0.007504
0.116416,0.6712,-1.778543,-0.348592,1.981551,-0.390261,0.007815
0.116333,0.671147,-1.778898,-0.348584,1.981607,-0.390453,0.007833
0.116279,0.67112,-1.779157,-0.348599,1.981753,-0.390488,0.007795
0.116298,0.670983,-1.779499,-0.348681,1.981776,-0.390578,0.007717
0.116288,0.670904,-1.779737,-0.348747,1.981878,-0.390592,0.00762
0.116459,0.670833,-1.779956,-0.348854,1.982007,-0.390499,0.007167
0.116426,0.670808,-1.780131,-0.348876,1.982132,-0.390505,0.007124
0.116675,0.670726,-1.780241,-0.348829,1.982357,-0.39082,0.006969
0.11686,0.670558,-1.780362,-0.348774,1.982559,-0.391154,0.007223
0.116777,0.670564,-1.780474,-0.348755,1.982668,-0.391219,0.007208
0.116897,0.670408,-1.780662,-0.348678,1.982691,-0.391614,0.00717
0.116689,0.670301,-1.780868,-0.34871,1.982561,-0.391845,0.006961
0.116616,0.670329,-1.781041,-0.348618,1.982502,-0.392006,0.006866
0.116911,0.669495,-1.781087,-0.347712,1.982578,-0.392445,0.006475
0.116856,0.669452,-1.781143,-0.34774,1.982591,-0.392489,0.006423
0.116676,0.669361,-1.781209,-0.347772,1.982525,-0.39268,0.006294
0.116618,0.669292,-1.781278,-0.347794,1.982493,-0.392802,0.006234
0.117109,0.669067,-1.781137,-0.347793,1.982789,-0.393645,0.006047
0.117,0.669029,-1.781113,-0.347812,1.982841,-0.393732,0.005998
0.11744,0.669039,-1.780975,-0.347699,1.983101,-0.394393,0.005469
0.117353,0.668999,-1.781002,-0.347712,1.983099,-0.39448,0.005416
0.117549,0.668897,-1.781095,-0.347624,1.98304,-0.394997,0.005235
0.117544,0.668897,-1.781115,-0.347624,1.983057,-0.394998,0.005234
0.117647,0.668832,-1.781104,-0.34763,1.983105,-0.395177,0.005049
0.118181,0.668371,-1.781008,-0.34714,1.983336,-0.395537,0.004855
0.118284,0.668292,-1.780944,-0.347247,1.983462,-0.395428,0.00484
0.118303,0.66827,-1.780954,-0.347271,1.98347,-0.395409,0.004825
0.118545,0.668289,-1.781009,-0.347311,1.983478,-0.395321,0.004629
0.118706,0.668309,-1.781068,-0.347331,1.983458,-0.395257,0.004486
0.11886,0.668325,-1.781092,-0.347354,1.983494,-0.395126,0.004493
0.11905,0.668362,-1.781005,-0.347376,1.98368,-0.394981,0.004534
0.11933,0.668368,-1.780753,-0.347448,1.984148,-0.394689,0.004862
0.119412,0.668328,-1.780683,-0.347502,1.984319,-0.394616,0.004965
0.120062,0.668127,-1.780618,-0.347631,1.984589,-0.395052,0.004823
0.120148,0.668056,-1.780671,-0.347711,1.984582,-0.395014,0.004665
0.121128,0.66785,-1.780588,-0.347337,1.984828,-0.395583,0.003411
0.121145,0.667787,-1.78065,-0.347395,1.98477,-0.395576,0.003315
0.121254,0.667727,-1.780782,-0.347456,1.984655,-0.395476,0.003246
0.120862,0.667511,-1.780896,-0.347449,1.984448,-0.395046,0.003453
0.120828,0.66745,-1.780915,-0.347486,1.984395,-0.395038,0.003405
0.120766,0.66738,-1.780879,-0.347537,1.984394,-0.395055,0.003354
0.120461,0.66719,-1.780758,-0.347558,1.984413,-0.395006,0.003125
0.120322,0.667119,-1.780689,-0.347587,1.984429,-0.395104,0.003043
0.120043,0.666941,-1.780542,-0.347676,1.984452,-0.395397,0.00263
0.120598,0.666318,-1.780282,-0.346783,1.984767,-0.395982,0.001851
0.12044,0.666322,-1.780059,-0.346797,1.984835,-0.396618,0.001022
0.120643,0.666289,-1.779978,-0.346795,1.984925,-0.397073,0.000823
0.120478,0.666272,-1.780036,-0.346749,1.984769,-0.397293,0.000751
0.120466,0.666164,-1.780186,-0.346711,1.984562,-0.397511,0.000983
0.120449,0.666093,-1.78035,-0.346668,1.984313,-0.397627,0.001099
0.120401,0.666022,-1.780488,-0.346665,1.984052,-0.397716,0.001037
0.119998,0.665805,-1.780831,-0.346547,1.98344,-0.397425,0.000924
0.119943,0.665747,-1.780924,-0.346515,1.983187,-0.397339,0.000808
0.119368,0.664983,-1.781115,-0.345639,1.982656,-0.396582,0.000614
0.1194,0.664948,-1.781076,-0.345666,1.982528,-0.396575,0.000581
0.119387,0.6649,-1.781193,-0.345664,1.982185,-0.39665,0.000476
0.119249,0.664745,-1.781202,-0.345689,1.981971,-0.396465,0.000641
0.119356,0.664748,-1.781178,-0.345693,1.981848,-0.396396,0.000661
0.119525,0.664708,-1.781151,-0.345704,1.981772,-0.396267,0.000847
0.119686,0.664648,-1.781151,-0.345706,1.981664,-0.396168,0.001071
0.119795,0.66461,-1.78116,-0.345694,1.981527,-0.396063,0.001235
0.119611,0.664443,-1.781297,-0.345646,1.981202,-0.395574,0.001686
0.11927,0.664398,-1.781292,-0.345527,1.980965,-0.394973,0.001716
0.119308,0.664391,-1.781263,-0.345523,1.980824,-0.394966,0.001715
0.119256,0.66434,-1.781239,-0.345515,1.980646,-0.395036,0.001726
0.119084,0.663964,-1.781232,-0.345523,1.980419,-0.39531,0.00209
0.119059,0.663746,-1.781155,-0.345371,1.980288,-0.395391,0.002068
0.118986,0.662994,-1.781061,-0.344544,1.9801,-0.395306,0.001625
0.118909,0.662916,-1.780996,-0.344587,1.9799,-0.395404,0.001503
0.118772,0.662831,-1.780961,-0.344616,1.979642,-0.395567,0.001339
0.118607,0.662818,-1.780929,-0.344568,1.979378,-0.39577,0.001236
0.118266,0.662822,-1.780954,-0.344413,1.978986,-0.396161,0.001229
0.117985,0.66222,-1.780929,-0.343909,1.978706,-0.396069,0.001503
0.117726,0.66214,-1.780888,-0.343892,1.978376,-0.396395,0.001336
0.117636,0.662078,-1.78078,-0.343911,1.978205,-0.396524,0.001263
0.117958,0.661341,-1.780648,-0.343374,1.978075,-0.397226,0.000857
0.117948,0.661283,-1.780546,-0.343413,1.977907,-0.397265,0.000799
0.11784,0.661196,-1.780624,-0.343413,1.977475,-0.397485,0.000639
0.117844,0.661019,-1.780731,-0.343399,1.977058,-0.397692,0.000792
0.118076,0.659929,-1.780743,-0.342508,1.976765,-0.397769,0.000922
0.118169,0.659863,-1.780735,-0.342548,1.976444,-0.397754,0.000859
0.118405,0.659763,-1.780845,-0.342627,1.976033,-0.397617,0.000777
0.118506,0.659742,-1.780733,-0.34265,1.975848,-0.39756,0.000777
0.11873,0.65963,-1.780839,-0.342717,1.975442,-0.397471,0.000707
0.119033,0.659288,-1.780758,-0.342565,1.975268,-0.397663,0.000915
0.119742,0.658951,-1.7807,-0.34236,1.975121,-0.398059,0.000741
0.119874,0.658889,-1.78056,-0.342378,1.974962,-0.397987,0.000704
0.120314,0.658833,-1.780352,-0.342379,1.974955,-0.397792,0.000193
0.120514,0.658714,-1.78019,-0.342508,1.97488,-0.397634,9e-05
0.120954,0.658735,-1.779957,-0.342489,1.974953,-0.397483,-0.000308
0.121463,0.658599,-1.779814,-0.342407,1.974963,-0.397651,-0.000316
0.122131,0.658284,-1.77968,-0.342399,1.975043,-0.397882,9.7e-05
0.12232,0.658269,-1.779541,-0.342395,1.974991,-0.397811,0.000118
0.12295,0.658238,-1.779415,-0.342312,1.975021,-0.397905,-0.000146
0.123159,0.658189,-1.779337,-0.342303,1.974901,-0.397923,-0.000284
0.123717,0.658299,-1.779244,-0.342206,1.974865,-0.397889,-0.000959
0.123897,0.658294,-1.779181,-0.342221,1.974767,-0.397783,-0.000931
0.124592,0.658097,-1.779097,-0.342204,1.974845,-0.397868,-0.000714
0.124852,0.658146,-1.779007,-0.342201,1.974832,-0.397649,-0.000586
0.125225,0.658103,-1.778903,-0.342287,1.974891,-0.397336,-0.000429
0.125625,0.657981,-1.778874,-0.342255,1.97484,-0.397394,-0.000305
0.126061,0.657923,-1.778819,-0.342346,1.974841,-0.397135,-0.000411
0.126239,0.657924,-1.778769,-0.342361,1.974766,-0.397027,-0.000419
0.127083,0.657361,-1.778642,-0.341617,1.974865,-0.397244,-0.000995
0.127147,0.657338,-1.778584,-0.341641,1.97474,-0.397209,-0.001011
0.127292,0.657324,-1.778698,-0.341656,1.974429,-0.397151,-0.001132
0.127317,0.657324,-1.778599,-0.341656,1.974341,-0.397145,-0.001124
0.127497,0.657439,-1.778536,-0.341578,1.974291,-0.397022,-0.000996
0.12765,0.657533,-1.778405,-0.341512,1.974318,-0.397015,-0.000826
0.128009,0.657569,-1.778321,-0.341515,1.974349,-0.397251,-0.000577
0.128084,0.657623,-1.778257,-0.341477,1.974287,-0.39721,-0.000525
0.128357,0.657811,-1.778246,-0.341413,1.974228,-0.397083,-0.000592
0.128509,0.657966,-1.778143,-0.341387,1.974239,-0.397057,-0.000708
0.128788,0.658195,-1.778079,-0.34137,1.974252,-0.397119,-0.000827
0.129063,0.658326,-1.777986,-0.341473,1.97431,-0.397341,-0.000791
0.129302,0.658461,-1.777888,-0.341496,1.974394,-0.397455,-0.000683
0.129417,0.658549,-1.777836,-0.341516,1.974384,-0.397586,-0.000689
0.12954,0.658704,-1.777807,-0.341542,1.974336,-0.397765,-0.000908
0.129538,0.658717,-1.777799,-0.341553,1.974252,-0.397827,-0.000984
0.129618,0.658928,-1.777732,-0.341562,1.974236,-0.398025,-0.001325
0.129747,0.659077,-1.777665,-0.341648,1.974249,-0.398347,-0.001515
0.129816,0.659231,-1.7776,-0.341671,1.974239,-0.398796,-0.001725
0.12978,0.659255,-1.777569,-0.341641,1.974214,-0.398846,-0.001719
0.130277,0.659465,-1.777519,-0.341775,1.974301,-0.399648,-0.001845
0.130282,0.659465,-1.777501,-0.341775,1.974285,-0.399647,-0.001844
0.130299,0.659534,-1.777501,-0.34171,1.974258,-0.399656,-0.001789
0.130349,0.659567,-1.777531,-0.341683,1.974204,-0.399641,-0.001763
0.130517,0.659549,-1.777656,-0.341719,1.974069,-0.399587,-0.001753
0.130669,0.659563,-1.777734,-0.341727,1.973979,-0.399515,-0.001731
0.13082,0.659464,-1.77786,-0.341837,1.973807,-0.399472,-0.00186
0.130954,0.659431,-1.778015,-0.341877,1.97358,-0.399466,-0.002006
0.13135,0.659538,-1.77827,-0.341873,1.973242,-0.399511,-0.00269
0.131477,0.659487,-1.778352,-0.341926,1.973073,-0.399485,-0.002812
0.132042,0.659577,-1.778412,-0.341928,1.973026,-0.39942,-0.003257
0.132235,0.659554,-1.778391,-0.341979,1.973017,-0.399281,-0.003238
0.132984,0.659498,-1.778295,-0.342079,1.973233,-0.399253,-0.003422
0.13368,0.659155,-1.778208,-0.341741,1.973393,-0.399525,-0.003508
0.134249,0.659175,-1.778167,-0.341838,1.973566,-0.399022,-0.003269
0.135077,0.659012,-1.778082,-0.341845,1.973809,-0.399188,-0.003026
0.135542,0.659022,-1.778029,-0.341941,1.973963,-0.398746,-0.002853
0.136434,0.658979,-1.777965,-0.341975,1.97419,-0.398866,-0.002921
0.137089,0.658962,-1.777986,-0.34215,1.974314,-0.398311,-0.002938
0.137875,0.65905,-1.777859,-0.342133,1.974558,-0.398552,-0.003316
0.138387,0.659027,-1.777815,-0.342284,1.974737,-0.398077,-0.003258
0.13857,0.659022,-1.777729,-0.342346,1.974846,-0.397928,-0.003261
0.13937,0.659217,-1.777535,-0.342387,1.97524,-0.39789,-0.003583
0.139555,0.659181,-1.777483,-0.342454,1.975346,-0.397785,-0.003506
0.140239,0.65909,-1.777375,-0.342577,1.975659,-0.397947,-0.003275
0.140944,0.659015,-1.777238,-0.342653,1.975976,-0.398364,-0.003251
0.141148,0.658953,-1.777176,-0.342756,1.976116,-0.398181,-0.003219
0.141463,0.658918,-1.77718,-0.342815,1.976196,-0.398111,-0.003288
0.142386,0.658507,-1.777137,-0.342496,1.976426,-0.398271,-0.003774
0.142441,0.658465,-1.777154,-0.342544,1.976393,-0.398223,-0.003804
0.142613,0.658412,-1.777249,-0.342619,1.976298,-0.398108,-0.003905
0.142666,0.658433,-1.77722,-0.342619,1.976285,-0.39818,-0.004115
0.143066,0.658616,-1.777134,-0.342502,1.976376,-0.398681,-0.004692
0.143261,0.65853,-1.777084,-0.34252,1.976441,-0.398999,-0.004613
0.143762,0.65842,-1.776642,-0.342613,1.977025,-0.399738,-0.004588
0.143827,0.658378,-1.776312,-0.342657,1.977427,-0.399966,-0.004495
0.144485,0.658235,-1.775965,-0.342631,1.977971,-0.400845,-0.00455
0.144429,0.658216,-1.775967,-0.342639,1.977979,-0.400895,-0.004582
0.144372,0.658192,-1.776161,-0.342623,1.977734,-0.40103,-0.004741
0.144354,0.658203,-1.776249,-0.342604,1.977616,-0.401108,-0.004883
0.144261,0.658151,-1.776243,-0.342632,1.977581,-0.401212,-0.004994
0.144296,0.658155,-1.776168,-0.34264,1.977658,-0.401319,-0.0052
0.144483,0.658041,-1.776031,-0.342666,1.977834,-0.401688,-0.005393
0.144482,0.658041,-1.776037,-0.342666,1.977839,-0.401688,-0.005393
0.144622,0.657864,-1.776099,-0.34275,1.977794,-0.401782,-0.005507
0.144733,0.657825,-1.776227,-0.342772,1.97767,-0.401752,-0.005561
0.144994,0.657653,-1.776321,-0.342775,1.977592,-0.401848,-0.005711
0.145433,0.65742,-1.776338,-0.34259,1.977609,-0.402086,-0.006011
0.145891,0.657033,-1.776418,-0.34236,1.977531,-0.402201,-0.006454
0.146053,0.656222,-1.776421,-0.341554,1.977461,-0.402048,-0.006551
0.146309,0.656145,-1.776671,-0.341624,1.977125,-0.401863,-0.006608
0.146009,0.655798,-1.776792,-0.341294,1.976817,-0.401243,-0.00634
0.146125,0.655682,-1.777095,-0.341307,1.976392,-0.400833,-0.00598
0.146202,0.655664,-1.777067,-0.341328,1.976269,-0.40078,-0.005986
0.146218,0.655549,-1.777024,-0.341386,1.976157,-0.400716,-0.005904
0.146184,0.655529,-1.776895,-0.341395,1.976125,-0.400747,-0.005895
0.146138,0.655478,-1.776774,-0.341429,1.976088,-0.40079,-0.005913
0.146137,0.655438,-1.776733,-0.34145,1.975978,-0.400819,-0.005944
0.146118,0.655428,-1.776839,-0.341413,1.975677,-0.400929,-0.006037
0.146101,0.655438,-1.776819,-0.341369,1.975529,-0.400998,-0.006069
0.146079,0.655481,-1.776778,-0.341309,1.975412,-0.401059,-0.006057
0.146071,0.655504,-1.776714,-0.341277,1.975336,-0.401091,-0.006041
0.146005,0.655537,-1.776659,-0.341178,1.975235,-0.401251,-0.005933
0.146083,0.655304,-1.77661,-0.341208,1.975172,-0.401494,-0.005678
0.14648,0.655069,-1.776476,-0.341109,1.975223,-0.402121,-0.005834
0.146464,0.654959,-1.776376,-0.341164,1.975168,-0.40221,-0.00594
0.146998,0.654742,-1.776245,-0.341016,1.97524,-0.40274,-0.006363
0.147171,0.654498,-1.776255,-0.34093,1.975099,-0.40275,-0.006571
0.147475,0.653534,-1.776324,-0.34,1.974869,-0.402386,-0.007185
0.147549,0.653477,-1.776273,-0.340058,1.974739,-0.402337,-0.007226
0.147772,0.653372,-1.776217,-0.34019,1.974677,-0.402142,-0.007258
0.14783,0.653343,-1.776057,-0.340218,1.974692,-0.402118,-0.007217
0.148402,0.652991,-1.775823,-0.340333,1.974952,-0.402524,-0.006745
0.148541,0.652971,-1.775701,-0.340366,1.974969,-0.402437,-0.006737
0.148949,0.652932,-1.775696,-0.340458,1.97495,-0.402136,-0.006756
0.149254,0.652916,-1.775682,-0.34051,1.974906,-0.401926,-0.006822
0.149608,0.65289,-1.775668,-0.340582,1.974888,-0.401657,-0.006872
0.149834,0.652841,-1.775577,-0.340652,1.974926,-0.401479,-0.006866
0.150722,0.651807,-1.775409,-0.339714,1.975178,-0.401571,-0.006873
0.15081,0.651781,-1.775335,-0.33975,1.975116,-0.401499,-0.006862
0.151485,0.651472,-1.775126,-0.33967,1.975362,-0.401691,-0.006774
0.15154,0.651445,-1.775028,-0.339706,1.975327,-0.401643,-0.006771
0.152394,0.651441,-1.774739,-0.33974,1.975687,-0.402172,-0.006983
0.152478,0.65143,-1.774671,-0.339765,1.975657,-0.4021,-0.006962
0.152787,0.651468,-1.774587,-0.339794,1.975753,-0.401808,-0.006786
0.153045,0.651407,-1.774509,-0.339881,1.975833,-0.401582,-0.006598
0.153306,0.65127,-1.774532,-0.339942,1.97581,-0.401487,-0.006181
0.15344,0.651236,-1.774425,-0.339988,1.975877,-0.401373,-0.006075
0.153692,0.650971,-1.774399,-0.340101,1.975863,-0.401574,-0.005911
0.153839,0.6509,-1.774283,-0.340129,1.975922,-0.401618,-0.005915
0.154343,0.650686,-1.774097,-0.340101,1.976135,-0.401971,-0.005999
0.154373,0.650654,-1.77403,-0.340135,1.976123,-0.401937,-0.006005
0.154403,0.650553,-1.773892,-0.340246,1.976203,-0.401862,-0.006028
0.154471,0.650531,-1.773773,-0.340275,1.976292,-0.401773,-0.00599
0.154487,0.650396,-1.773645,-0.340347,1.97638,-0.401747,-0.005958
0.154578,0.650032,-1.773597,-0.340235,1.9764,-0.401809,-0.005744
0.154628,0.649701,-1.773529,-0.340105,1.97642,-0.401737,-0.00566
0.154728,0.648987,-1.773447,-0.339338,1.97643,-0.401531,-0.005801
0.154868,0.648917,-1.773465,-0.339417,1.976341,-0.401399,-0.005819
0.154889,0.648883,-1.773421,-0.339449,1.976283,-0.401384,-0.005839
0.154858,0.64874,-1.773319,-0.339569,1.976281,-0.401361,-0.005891
0.154873,0.648712,-1.773276,-0.339593,1.976233,-0.401349,-0.005902
0.15476,0.648533,-1.773134,-0.339711,1.976264,-0.401385,-0.00593
0.154638,0.648314,-1.773111,-0.33969,1.976179,-0.401399,-0.00572
0.154467,0.647453,-1.772944,-0.33884,1.976188,-0.401406,-0.005756
0.154377,0.647447,-1.772834,-0.338828,1.976158,-0.40149,-0.005763
0.154183,0.647375,-1.772747,-0.338845,1.976064,-0.401681,-0.005835
0.154052,0.647321,-1.772709,-0.338848,1.975943,-0.401826,-0.005878
0.153839,0.647195,-1.772743,-0.338865,1.975702,-0.40206,-0.005942
0.153748,0.647131,-1.772721,-0.33887,1.975573,-0.402156,-0.005943
0.153499,0.646961,-1.772632,-0.338908,1.975472,-0.40235,-0.005922
0.153293,0.646134,-1.772585,-0.33815,1.97534,-0.40221,-0.005793
0.153128,0.646063,-1.772431,-0.338186,1.975305,-0.40235,-0.005861
0.153056,0.64601,-1.772337,-0.338218,1.975244,-0.402419,-0.005907
0.152999,0.645918,-1.772222,-0.338293,1.975223,-0.402459,-0.005967
0.153012,0.645812,-1.772074,-0.338381,1.975274,-0.402477,-0.00599
0.153128,0.645704,-1.771994,-0.338417,1.975275,-0.402582,-0.00602
0.153161,0.645676,-1.771961,-0.338442,1.975214,-0.402562,-0.006037
0.153276,0.64566,-1.772085,-0.338438,1.974992,-0.40251,-0.006079
0.153286,0.645595,-1.772023,-0.338486,1.974954,-0.402475,-0.006101
0.153171,0.645293,-1.771982,-0.338458,1.974893,-0.402295,-0.005844
0.15315,0.645142,-1.771857,-0.338396,1.974928,-0.402223,-0.005792
0.153348,0.644143,-1.771593,-0.337575,1.975155,-0.402199,-0.005703
0.153364,0.644142,-1.77153,-0.337575,1.975098,-0.402195,-0.005698
0.153358,0.643939,-1.771513,-0.337747,1.974966,-0.402202,-0.005874
0.153426,0.643865,-1.77158,-0.337801,1.974764,-0.402186,-0.005988
0.153439,0.643742,-1.771583,-0.337896,1.974612,-0.402193,-0.006138
0.153477,0.643679,-1.771522,-0.337946,1.974556,-0.40216,-0.006195
0.153543,0.643289,-1.771394,-0.337633,1.974573,-0.402102,-0.006314
0.153559,0.643289,-1.771331,-0.337633,1.974515,-0.402098,-0.006308
0.153606,0.643277,-1.771291,-0.337643,1.974447,-0.402068,-0.006297
0.153643,0.643086,-1.771317,-0.337624,1.974328,-0.402092,-0.005911
0.153693,0.642891,-1.771344,-0.337563,1.974209,-0.402096,-0.005463
0.15371,0.64289,-1.771278,-0.337563,1.974149,-0.402092,-0.005458
0.153761,0.642927,-1.771209,-0.337532,1.974117,-0.402054,-0.005401
0.153776,0.642927,-1.77115,-0.337532,1.974063,-0.40205,-0.005396
0.153799,0.642814,-1.771059,-0.337552,1.974068,-0.40197,-0.005299
0.153713,0.642637,-1.771067,-0.337446,1.973918,-0.401902,-0.005284
0.153568,0.642458,-1.771104,-0.337304,1.973687,-0.401831,-0.005509
0.153556,0.642388,-1.77108,-0.337315,1.973573,-0.401847,-0.005548
0.153475,0.641442,-1.771032,-0.336389,1.973435,-0.401729,-0.005601
0.153495,0.641442,-1.770952,-0.336389,1.973363,-0.401723,-0.005594
0.153349,0.641356,-1.770893,-0.33641,1.973206,-0.401888,-0.005633
0.153307,0.641299,-1.770816,-0.33643,1.973119,-0.401943,-0.005609
0.153152,0.641218,-1.77079,-0.336451,1.972921,-0.40212,-0.005726
0.153077,0.641137,-1.770758,-0.336497,1.972762,-0.402211,-0.005831
0.152907,0.641069,-1.77073,-0.336509,1.972562,-0.402402,-0.00597
0.152823,0.641062,-1.770675,-0.336485,1.972434,-0.402508,-0.006019
0.15272,0.641018,-1.770576,-0.336497,1.972359,-0.402613,-0.006068
0.152669,0.640988,-1.770522,-0.3365,1.972256,-0.402686,-0.006104
0.152741,0.640787,-1.77059,-0.336386,1.972034,-0.402868,-0.006086
0.152785,0.640771,-1.770572,-0.336396,1.971914,-0.402853,-0.006111
0.15282,0.640836,-1.770722,-0.336244,1.971576,-0.40278,-0.006381
0.152866,0.640834,-1.770699,-0.336242,1.971457,-0.402761,-0.006392
0.152928,0.640907,-1.770717,-0.336165,1.971302,-0.402755,-0.006354
0.152964,0.640957,-1.770694,-0.336109,1.971188,-0.402757,-0.006318
0.153021,0.641017,-1.77069,-0.336046,1.971062,-0.402747,-0.006272
0.153083,0.641057,-1.770708,-0.335999,1.970914,-0.402734,-0.006246
0.153171,0.641117,-1.77077,-0.335934,1.970721,-0.402715,-0.006219
0.153219,0.641139,-1.770776,-0.335904,1.970578,-0.402709,-0.00621
0.153356,0.641183,-1.770826,-0.335866,1.97042,-0.402629,-0.006175
0.153443,0.641179,-1.770808,-0.335876,1.97032,-0.40257,-0.00617
0.153686,0.641227,-1.770857,-0.335862,1.970206,-0.402383,-0.006113
0.153791,0.641218,-1.770836,-0.335882,1.970121,-0.402303,-0.006109
0.154049,0.641272,-1.770842,-0.335876,1.970068,-0.402092,-0.006045
0.154287,0.641323,-1.770795,-0.335883,1.970064,-0.401913,-0.006099
0.154562,0.641413,-1.770727,-0.335868,1.970106,-0.401733,-0.006123
0.154836,0.641537,-1.770644,-0.335832,1.970166,-0.401637,-0.006192
0.155857,0.642025,-1.77042,-0.336052,1.970567,-0.40207,-0.006382
0.155983,0.642075,-1.770388,-0.336031,1.97058,-0.401961,-0.006309
0.156424,0.642158,-1.770251,-0.33608,1.970849,-0.401568,-0.00613
0.156666,0.642201,-1.77018,-0.336111,1.970965,-0.401428,-0.006082
0.157562,0.642383,-1.770008,-0.336225,1.971385,-0.401351,-0.006102
0.157676,0.642384,-1.770015,-0.336248,1.971394,-0.401254,-0.006074
0.158414,0.642984,-1.769934,-0.33682,1.971682,-0.401327,-0.006192
0.158569,0.643006,-1.769958,-0.336838,1.971726,-0.401174,-0.006156
0.158839,0.643145,-1.769903,-0.336842,1.971891,-0.400944,-0.006276
0.159056,0.643258,-1.769781,-0.336852,1.972118,-0.40091,-0.006361
0.160103,0.64356,-1.769509,-0.33689,1.972676,-0.401805,-0.006595
0.160242,0.643576,-1.769436,-0.336929,1.972868,-0.401838,-0.006472
0.160977,0.644273,-1.769439,-0.337557,1.973126,-0.402405,-0.006318
0.161049,0.644345,-1.769517,-0.337503,1.973154,-0.402349,-0.006258
0.161093,0.644974,-1.769713,-0.337818,1.973103,-0.4019,-0.006013
0.161151,0.645021,-1.769775,-0.337788,1.973154,-0.401847,-0.005968
0.161365,0.645084,-1.769707,-0.337817,1.973411,-0.40167,-0.005931
0.161833,0.645311,-1.76951,-0.337845,1.973827,-0.401923,-0.006331
0.162283,0.64533,-1.769407,-0.337981,1.974175,-0.402177,-0.00638
0.162383,0.645329,-1.769469,-0.338009,1.974269,-0.402077,-0.006354
0.162748,0.645377,-1.769426,-0.338082,1.974565,-0.40194,-0.006314
0.162899,0.645389,-1.769477,-0.33812,1.974676,-0.401932,-0.006332
0.163401,0.645546,-1.769487,-0.338153,1.974908,-0.40205,-0.00649
0.163496,0.645566,-1.769524,-0.338168,1.975026,-0.401982,-0.006456
0.163792,0.645653,-1.769613,-0.338197,1.975121,-0.401958,-0.006567
0.163897,0.64568,-1.769662,-0.338207,1.975217,-0.401897,-0.006549
0.164564,0.645908,-1.769752,-0.338589,1.975383,-0.402266,-0.006631
0.164633,0.645884,-1.769848,-0.338622,1.975408,-0.402198,-0.006642
0.164782,0.645875,-1.769947,-0.338655,1.975454,-0.402066,-0.006609
0.164923,0.645769,-1.770002,-0.338717,1.975514,-0.402172,-0.006624
0.165547,0.645675,-1.76995,-0.338731,1.975753,-0.402834,-0.006911
0.166001,0.645587,-1.769908,-0.338663,1.975948,-0.403387,-0.007038
0.166094,0.645606,-1.770083,-0.338642,1.975836,-0.403346,-0.007082
0.166122,0.64558,-1.77014,-0.33867,1.975834,-0.403317,-0.00711
0.166042,0.64574,-1.770347,-0.338542,1.975636,-0.402881,-0.007344
0.165981,0.645754,-1.77042,-0.338506,1.975572,-0.40291,-0.007352
0.165776,0.64574,-1.770388,-0.338451,1.975584,-0.403059,-0.007246
0.16556,0.645658,-1.770369,-0.338416,1.975578,-0.403281,-0.007056
0.165274,0.645569,-1.770352,-0.338361,1.975525,-0.403656,-0.006931
0.165057,0.64554,-1.770385,-0.338324,1.97542,-0.403902,-0.007008
0.164726,0.645397,-1.770522,-0.338214,1.975097,-0.404646,-0.007171
0.164548,0.645382,-1.770494,-0.338188,1.975052,-0.404828,-0.007239
0.164743,0.645062,-1.770337,-0.337624,1.975084,-0.406142,-0.00795
0.164466,0.645069,-1.770283,-0.337563,1.975004,-0.406451,-0.00807
0.164316,0.645219,-1.769971,-0.33745,1.975151,-0.407494,-0.008778
0.164281,0.645172,-1.769897,-0.337453,1.975176,-0.407978,-0.008797
0.163884,0.645212,-1.769804,-0.33731,1.975113,-0.408588,-0.008795
0.163682,0.645243,-1.769735,-0.337228,1.975111,-0.408879,-0.00873
0.163434,0.645249,-1.769714,-0.337138,1.97503,-0.40929,-0.008658
0.163432,0.645168,-1.76969,-0.337166,1.975014,-0.409791,-0.008551
0.163375,0.645237,-1.769611,-0.337107,1.975006,-0.410362,-0.008796
0.163393,0.645253,-1.769579,-0.337102,1.975006,-0.410609,-0.008901
0.163786,0.645379,-1.769558,-0.337093,1.975041,-0.411094,-0.009421
0.163814,0.645344,-1.769588,-0.337127,1.974999,-0.411079,-0.009455
0.164141,0.645323,-1.769743,-0.337187,1.974861,-0.411108,-0.009767
0.164285,0.64533,-1.769738,-0.337208,1.97489,-0.411018,-0.00975
0.165366,0.645214,-1.769594,-0.337174,1.975305,-0.411444,-0.00964
0.165625,0.645271,-1.769516,-0.337184,1.975487,-0.411184,-0.009454
0.1661,0.645206,-1.769423,-0.337286,1.975749,-0.411192,-0.009087
0.166333,0.645293,-1.769351,-0.337302,1.975876,-0.411197,-0.009278
0.166892,0.645674,-1.76915,-0.337277,1.976164,-0.411587,-0.010156
0.166946,0.645641,-1.769136,-0.337336,1.976211,-0.411612,-0.010217
0.167386,0.64575,-1.769028,-0.337389,1.976452,-0.41184,-0.010404
0.167471,0.645715,-1.769039,-0.337428,1.976495,-0.411908,-0.010342
0.167704,0.64556,-1.768998,-0.337544,1.976656,-0.412025,-0.010036
0.167762,0.645533,-1.769005,-0.337567,1.976689,-0.412074,-0.010021
0.167962,0.645656,-1.768798,-0.337591,1.976946,-0.41233,-0.010595
0.167912,0.645604,-1.768721,-0.337667,1.977038,-0.412449,-0.010814
0.168071,0.645812,-1.768532,-0.33765,1.977286,-0.412654,-0.011436
0.168129,0.645764,-1.768475,-0.337708,1.977419,-0.412855,-0.011469
0.168367,0.645562,-1.768357,-0.337828,1.977667,-0.41339,-0.011248
0.168376,0.645549,-1.768305,-0.337852,1.977801,-0.413388,-0.01123
0.168423,0.645583,-1.768285,-0.337842,1.977914,-0.413366,-0.011213
0.168491,0.645637,-1.768361,-0.337811,1.977918,-0.413338,-0.011229
0.168661,0.645975,-1.768269,-0.337723,1.978124,-0.413179,-0.011661
0.168651,0.645975,-1.768308,-0.337723,1.978159,-0.413181,-0.011665
0.168835,0.646089,-1.768168,-0.337692,1.978504,-0.412955,-0.011424
0.169016,0.646107,-1.768046,-0.337749,1.978836,-0.412942,-0.011037
0.16934,0.646046,-1.768012,-0.337933,1.979104,-0.413162,-0.010549
0.169471,0.646147,-1.768051,-0.337934,1.979203,-0.413113,-0.010595
0.169947,0.646628,-1.768032,-0.338077,1.979421,-0.413177,-0.011183
0.170002,0.64665,-1.768119,-0.338087,1.979462,-0.413134,-0.011191
0.170277,0.646876,-1.768031,-0.338225,1.979764,-0.413007,-0.011387
0.170352,0.646897,-1.768029,-0.338262,1.979939,-0.412928,-0.011301
0.170554,0.646848,-1.767887,-0.338441,1.98034,-0.412737,-0.011094
0.170585,0.646847,-1.767899,-0.338474,1.980492,-0.4127,-0.011047
0.170699,0.64679,-1.767971,-0.338571,1.980582,-0.412766,-0.011026
0.17089,0.646728,-1.768054,-0.338682,1.980655,-0.413028,-0.011024
0.170923,0.646692,-1.768178,-0.338718,1.980635,-0.413075,-0.011088
0.170972,0.646656,-1.768285,-0.338758,1.980636,-0.413033,-0.011125
0.171162,0.646561,-1.768609,-0.338862,1.98041,-0.412852,-0.011271
0.171049,0.646578,-1.768702,-0.338853,1.98036,-0.412641,-0.011329
0.170833,0.646439,-1.768848,-0.338914,1.980166,-0.412773,-0.011528
0.170643,0.646396,-1.768903,-0.338901,1.98008,-0.412926,-0.011619
0.170211,0.645475,-1.768881,-0.338181,1.97995,-0.413144,-0.01187
0.170096,0.64542,-1.768869,-0.338207,1.979916,-0.41325,-0.011943
0.169833,0.645354,-1.768949,-0.33819,1.979703,-0.413558,-0.01212
0.169712,0.645306,-1.768966,-0.338199,1.979618,-0.413696,-0.012207
0.169653,0.645302,-1.769067,-0.338147,1.979448,-0.413847,-0.012253
0.169691,0.645286,-1.769128,-0.338155,1.979361,-0.413837,-0.012274
0.169335,0.644526,-1.76946,-0.33748,1.978898,-0.41326,-0.011774
0.169387,0.64453,-1.769467,-0.337478,1.978818,-0.41323,-0.01177
0.169362,0.644495,-1.769512,-0.337488,1.978658,-0.413283,-0.011834
0.169284,0.644487,-1.769451,-0.337478,1.978607,-0.413359,-0.011856
0.169083,0.644423,-1.769417,-0.337487,1.978467,-0.41359,-0.012019
0.169071,0.64443,-1.769346,-0.33748,1.97846,-0.413605,-0.012012
0.169208,0.644523,-1.76924,-0.337422,1.97855,-0.413602,-0.011957
0.169356,0.644606,-1.769177,-0.337373,1.978611,-0.413559,-0.011847
0.169503,0.644706,-1.76917,-0.337304,1.978619,-0.413462,-0.011722
0.169609,0.644823,-1.769187,-0.337208,1.978588,-0.413401,-0.011609
0.169812,0.644916,-1.769445,-0.337149,1.978362,-0.413143,-0.010977
0.169882,0.64499,-1.769449,-0.337089,1.978315,-0.413099,-0.010907
0.169925,0.645053,-1.769423,-0.337039,1.978295,-0.413071,-0.010843
0.169909,0.645053,-1.769355,-0.337042,1.978303,-0.41308,-0.010828
0.17008,0.645058,-1.769132,-0.337199,1.978513,-0.413429,-0.010986
0.170085,0.645058,-1.769112,-0.337199,1.978494,-0.413427,-0.010984
0.170273,0.64514,-1.769135,-0.337166,1.978498,-0.413308,-0.010889
0.170394,0.645145,-1.769195,-0.337178,1.978428,-0.413222,-0.01088
0.170596,0.645222,-1.769272,-0.33714,1.978373,-0.413068,-0.010776
0.170702,0.645197,-1.769276,-0.337189,1.978374,-0.412951,-0.010638
0.170656,0.645005,-1.769344,-0.337309,1.978293,-0.412891,-0.010038
0.170662,0.645005,-1.769318,-0.337309,1.978271,-0.412889,-0.010036
0.170651,0.644868,-1.769289,-0.337437,1.978245,-0.412854,-0.010106
0.17066,0.644819,-1.769287,-0.337481,1.978195,-0.412845,-0.01015
0.170555,0.644652,-1.76931,-0.337633,1.978048,-0.412898,-0.010509
0.170532,0.644651,-1.769335,-0.337636,1.97794,-0.41292,-0.010669
0.170506,0.644611,-1.769384,-0.337655,1.977799,-0.412974,-0.010825
0.170507,0.644591,-1.769383,-0.337667,1.977734,-0.412989,-0.01086
0.17052,0.644597,-1.769436,-0.337644,1.977608,-0.413021,-0.010891
0.170527,0.644597,-1.769406,-0.337644,1.977581,-0.413019,-0.010888
0.170618,0.644666,-1.769447,-0.337585,1.977506,-0.41297,-0.010834
0.170655,0.644702,-1.769438,-0.337552,1.97747,-0.41295,-0.010799
0.170698,0.644793,-1.769324,-0.337477,1.977579,-0.412888,-0.010633
0.170666,0.644832,-1.769264,-0.337437,1.977595,-0.412917,-0.010591
0.170538,0.644919,-1.769043,-0.337339,1.977796,-0.413003,-0.010339
0.170519,0.644946,-1.769009,-0.337312,1.977807,-0.413022,-0.010308
0.170382,0.644989,-1.769059,-0.337226,1.977671,-0.413199,-0.010313
0.170274,0.645019,-1.769126,-0.337159,1.977518,-0.413349,-0.010333
0.170082,0.645013,-1.769188,-0.337106,1.977328,-0.413576,-0.01041
0.16992,0.644995,-1.769185,-0.337081,1.977225,-0.413739,-0.010458
0.16949,0.644945,-1.769154,-0.337038,1.977058,-0.414083,-0.010551
0.168861,0.645027,-1.769189,-0.337202,1.97684,-0.413807,-0.010414
0.168377,0.644983,-1.769092,-0.337146,1.976721,-0.41429,-0.010624
0.16823,0.644916,-1.768986,-0.337189,1.976754,-0.414404,-0.010693
0.168441,0.644742,-1.76866,-0.336987,1.97699,-0.41558,-0.011441
0.168302,0.644687,-1.768601,-0.337014,1.97698,-0.415699,-0.011514
0.168339,0.644547,-1.768497,-0.336832,1.976956,-0.41631,-0.01231
0.168201,0.644454,-1.76851,-0.336886,1.976847,-0.416449,-0.012468
0.168096,0.644409,-1.768581,-0.336911,1.976659,-0.416575,-0.012827
0.168107,0.644413,-1.768675,-0.336891,1.976505,-0.4166,-0.012892
0.167974,0.644359,-1.768955,-0.3368,1.976122,-0.416321,-0.012784
0.168023,0.644397,-1.769051,-0.336746,1.975961,-0.416279,-0.012762
0.167629,0.643818,-1.769118,-0.336269,1.975743,-0.415612,-0.012635
0.16764,0.643818,-1.769073,-0.336269,1.975702,-0.415609,-0.012631
0.167742,0.643741,-1.76895,-0.336372,1.975793,-0.415487,-0.012629
0.167863,0.643741,-1.768935,-0.336391,1.975769,-0.415413,-0.012625
0.168178,0.64375,-1.769083,-0.336413,1.975615,-0.415239,-0.012636
0.168436,0.643789,-1.769184,-0.336399,1.975491,-0.415118,-0.012618
0.168775,0.643809,-1.769277,-0.33642,1.975404,-0.414907,-0.012578
0.169032,0.6438,-1.769265,-0.336466,1.975413,-0.414719,-0.01253
0.169391,0.643814,-1.769267,-0.336521,1.975457,-0.414387,-0.012417
0.169572,0.643791,-1.769224,-0.336577,1.975489,-0.41421,-0.012373
0.169813,0.643714,-1.769207,-0.336697,1.975511,-0.413963,-0.012412
0.169822,0.643714,-1.769171,-0.336697,1.975478,-0.41396,-0.012409
0.16999,0.643809,-1.769177,-0.336669,1.975413,-0.413853,-0.012834
0.169999,0.643792,-1.76915,-0.336684,1.975375,-0.41385,-0.012853
0.169944,0.643795,-1.76908,-0.336673,1.975369,-0.413898,-0.012861
0.169875,0.643808,-1.769006,-0.336651,1.975369,-0.413958,-0.012861
0.169758,0.643819,-1.768932,-0.336619,1.975356,-0.414063,-0.012876
0.169593,0.643804,-1.76892,-0.336593,1.975249,-0.414234,-0.012959
0.169409,0.643822,-1.769058,-0.336504,1.974944,-0.41448,-0.013116
0.169305,0.643791,-1.769053,-0.336503,1.974838,-0.414594,-0.013195
0.169095,0.643738,-1.769117,-0.33649,1.974597,-0.414827,-0.013385
0.169014,0.643714,-1.769118,-0.336492,1.974483,-0.414899,-0.013492
0.168684,0.643769,-1.769101,-0.336426,1.974284,-0.414936,-0.014036
0.168526,0.643811,-1.769066,-0.336362,1.974199,-0.414902,-0.014193
0.168298,0.643837,-1.769098,-0.336266,1.974004,-0.415152,-0.014253
0.168019,0.643737,-1.769164,-0.336167,1.97378,-0.415364,-0.013992
